Iamnikhilramesh/Machine-Learning-Algorithms/Supervised Learning/Regression/pumadyn-32fh.csv
"theta1	      u  [-3.1416","theta2	      u  [-3.1416","theta3	      u  [-3.1416","theta4	      u  [-3.1416","theta5	      u  [-3.1416","theta6	      u  [-3.1416","thetad1      u  (-Inf","thetad2      u  (-Inf","thetad3      u  (-Inf","thetad4      u  (-Inf","thetad5      u  (-Inf","thetad6      u  (-Inf","tau1     u  (-Inf","tau2     u  (-Inf","tau3     u  (-Inf","tau4     u  (-Inf","tau5     u  (-Inf","dm1   u	 [0","dm2   u	 [0","dm3   u	 [0","dm4   u	 [0","dm5   u	 [0","da1    u	 [0","da2    u	 [0","da3    u	 [0","da4    u	 [0","da5    u	 [0","db1      u	 [0","db2      u	 [0","db3      u	 [0","db4      u	 [0","db5      u	 [0","thetadd6     u  (-Inf"
-0.63480371,0.95941855,1.0374378,-0.5646171,-0.33894461,-0.93462155,0.0929537,0.90128764,0.43818087,-0.32975763,-0.46711362,0.061510679,7.1938693,17.361831,-29.712405,3.60553,-21.85775,1.1269515,1.0744752,1.1041225,1.6860992,1.1699958,1.0693041,1.3438982,1.6969004,1.0550123,1.5922338,0.67291153,1.4240999,1.4478579,0.69839422,1.3116833,0.0029804171
-0.3447501,0.45267094,-0.89684102,-0.47387214,0.82500774,0.48582761,-0.0088642028,0.55915328,0.87145708,0.47416017,-0.38224117,-0.71289368,-26.304933,12.995044,7.7087574,-8.9150058,-34.502454,1.1338568,1.6311696,0.91731276,1.4755254,1.6046196,0.94161011,1.3911491,0.99289327,1.257106,1.4305107,1.043824,1.499655,0.80117379,1.4778648,1.0239626,0.0073601116
0.86853178,-0.31079073,-0.56202358,-0.73196619,-0.3071933,0.52384862,-0.93208578,0.92847948,0.035629123,0.65943588,-0.39996747,0.44090214,-24.661912,-22.746776,34.93457,-14.676179,17.456635,1.5300067,1.6724308,1.3945109,0.79404074,1.2926812,0.84233646,1.3488455,0.84602048,1.3161312,1.2176195,1.3816536,1.0027845,1.5986112,0.75901473,1.6604939,0.017890735
0.30494992,-0.84344352,-0.2608823,0.38614732,0.38999545,-0.90787632,0.98062534,-0.99578519,-0.8976165,-0.31263848,-0.82952923,0.49034909,-31.365783,5.2934373,-3.1999498,-21.556588,18.422354,1.3926468,0.9652239,1.3681167,1.3373645,1.0847283,1.2279164,1.1907334,1.0063071,0.95382172,0.83169654,1.0236936,1.2691598,1.3687173,0.93129822,1.3292275,0.036988925
-0.72890867,0.50080034,0.93872243,0.65794475,0.92790258,-0.86382777,0.20297921,0.64444817,0.59974537,-0.82205306,0.79289211,-0.49834799,22.084887,-29.311574,20.376626,29.951843,30.632306,0.98238088,0.97539009,1.0812249,1.1461787,0.82610401,1.5300198,0.84266483,1.6178692,1.0278073,1.1073935,1.0123972,1.4603488,1.6815208,0.86926391,1.3684798,-0.053497035
-0.073837023,-0.67807081,-0.522926,1.0447981,-0.011133552,-0.19684588,-0.92001366,-0.69302317,1.0709307,-0.62282838,-0.089881472,0.15401208,3.9115613,11.609979,-31.087482,-7.3181415,-6.0049521,1.3965392,1.2840006,0.89890254,0.75497885,1.0295053,1.2954836,0.69246561,1.4195324,1.3315967,0.74585156,0.92721674,0.98180808,0.79833605,1.0340159,1.5059373,0.01448754
0.44767217,0.85417312,0.26580749,1.024142,0.28268825,1.0533532,0.83296745,0.11869291,0.27457624,1.059953,-0.39915013,0.98327485,-14.254168,-29.808333,1.3412179,1.8490707,-2.6693352,1.2722536,0.86550358,1.1686677,0.79853575,1.2403415,1.0693452,0.98442227,1.6851403,0.80261199,1.4997659,1.6160137,1.3416413,1.5655166,1.0378526,0.8892536,-0.016280477
0.3355527,-1.0953533,-0.81255226,-0.062487072,0.95668086,-0.99256879,0.38157932,0.5846512,0.58752746,0.54830835,-1.0719354,-0.86914582,31.392353,21.277627,-16.916159,30.119972,-13.624829,0.83755254,0.74547675,0.92776743,0.78720897,0.92113808,0.66764068,1.0368839,1.4082967,1.4930198,1.6339876,1.0293561,0.88721519,0.67566628,1.5231853,1.4760066,-0.071233942
0.24838202,0.63662483,1.059731,0.2671312,-0.91841904,-0.28162704,-0.8104592,-0.070364583,0.5062517,0.19694039,0.30920656,0.32630099,-14.380042,24.639453,-4.7173698,25.16622,28.66383,1.3699584,0.79030427,1.4939416,1.3760793,0.76496473,0.86230002,0.87637777,1.231226,1.1657685,1.4217646,1.0479215,1.0668775,1.5109028,0.84359864,1.5624201,-0.0033724657
0.66963423,-0.52733228,-0.44071532,-0.48351422,-0.69401994,-0.28786412,-0.079657612,0.45546145,-0.17818432,0.45060897,-0.36660709,0.35451922,31.904562,19.973341,-28.062732,9.6713774,6.8402321,1.5317087,0.87822642,0.80140757,1.2070865,0.75211588,1.2116566,0.91255541,1.3187058,1.4379446,1.0355563,1.1452448,0.87914533,1.5454998,1.6648636,1.2619794,0.017913352
0.55119558,-0.92678936,-0.21817322,-0.91287959,0.45712286,-0.84337887,0.82568791,0.92194198,0.11554771,0.19196389,0.23563627,-0.2671057,-27.122261,-3.8402187,-2.5562062,17.841754,-13.644856,1.038523,1.6564431,1.4884571,1.5982761,1.4268827,0.96828524,1.3701032,1.1240711,0.96307424,0.93868283,1.542354,1.2933948,1.2864461,1.0502347,1.0946595,0.019116585
0.03773528,0.87177421,-0.7932212,-0.6344626,0.095034731,0.69133478,-0.85928266,-0.37634429,-0.56411407,-0.68094049,-0.37303961,-0.00033431665,31.146136,13.100456,29.363341,9.6639397,21.83441,1.6389293,1.1348438,1.4196981,0.96565891,1.3293442,0.68729293,1.6323295,1.5119115,0.99598169,0.66434416,1.282239,0.69037645,0.95701277,0.91358904,0.84091405,0.0011397625
0.87444217,0.064934253,0.58902882,-0.60770902,-1.0760865,-0.26542571,0.99405843,0.46439962,0.5057244,0.13108518,-0.36445465,-0.85440234,8.910366,26.52098,-21.885911,13.494662,4.7836721,0.71266154,0.65245507,0.96239063,0.99924601,0.92765716,1.0338903,1.4941395,1.5526815,1.6175839,1.4823017,1.0442769,0.71187168,1.0273969,1.5594089,1.2852588,-0.0099427119
-0.27472893,0.77213836,0.35266838,0.68293151,0.8494333,-0.22811494,-0.87068103,-0.6258761,-0.73323387,0.37794019,0.99698963,-0.85043917,29.140636,-23.338325,32.766175,11.104851,19.230836,1.5149775,1.076858,1.2519553,0.96223267,1.4944727,0.85238646,1.2092749,0.78326991,0.86739958,1.5347406,1.4344891,0.70830566,0.94320353,0.87179627,0.87990605,-0.015972455
-1.0346537,-1.0243053,-0.82824232,0.12842256,1.0663294,-0.98775663,-0.10770159,-0.26915775,-0.15500997,0.6984681,0.27817881,0.03304116,-33.527175,8.7720259,11.439643,-23.916225,-19.995058,1.3708244,1.6948647,1.4903326,1.6195512,0.94719544,0.76373533,1.1996145,1.1713104,1.1138231,0.92415258,0.93243841,1.5923987,1.3443678,1.1896772,1.1044417,0.057171248
-0.88771322,-1.0009756,-0.16797408,0.5231337,0.24689096,-0.23339799,0.50090334,0.47075013,-0.51782344,1.0381274,0.029495033,0.92217912,-9.4578869,11.294777,-8.6795879,2.1657182,-0.77424007,1.2852065,1.2151257,1.4674278,0.95920049,0.93270415,0.80865442,1.2048137,1.4032217,1.2473986,1.0285192,1.5213771,1.5353786,1.6574211,1.126454,1.1119589,0.0095218319
-0.17070371,0.82767599,-0.85020942,0.37854004,0.083186981,-0.51345517,-0.31428073,0.15761587,-0.88342486,0.70181344,-0.67368691,0.58654238,-19.546021,0.023224906,-29.659011,-9.0048918,-5.2169639,1.6023192,1.1285974,1.4361324,1.0276007,0.78551904,0.86850835,1.269917,1.4957379,1.1164341,0.70833073,1.3646394,1.6949198,1.3664167,1.1150231,1.1426839,-0.0086992444
-0.60192778,-0.67183986,0.84232729,-0.90666004,-0.56847019,0.87557388,-0.70649271,-1.0018655,0.26963808,-0.56843517,-0.73504235,0.77041079,-2.9956411,-17.739893,-24.383435,-32.395057,-3.7177073,1.5723925,1.1000066,0.76114892,0.77993654,1.543445,0.73037606,1.2303906,0.77552035,0.82058279,1.1348793,0.96566123,1.3683042,1.3389792,0.92340365,0.94520069,0.040171214
-0.70596217,-0.88148554,0.30932271,0.079336226,0.74033902,0.28600991,-0.29650162,-0.10851825,-0.7999646,0.38313891,0.40742823,-0.39740316,-14.102669,-3.5610797,-1.0656851,9.0310729,25.242914,0.98988649,1.1222299,1.5180481,1.233904,1.0245126,1.3832444,1.4880454,0.97825991,1.0142937,0.78500084,1.6091975,1.2317823,1.0646128,1.2465651,0.66907086,0.032067705
-0.52567902,0.95613591,0.84390291,-0.8146328,0.15565826,-0.79825528,0.52331987,-1.0223979,0.44130991,-0.51868457,-0.24026017,-0.47774004,-13.004454,-25.861445,-23.300321,-28.498707,32.231515,0.95102386,1.0579754,0.99327856,1.4327836,1.4443699,0.87496315,1.6057133,1.4733038,1.0170542,0.97916488,1.5241654,1.1482384,0.79302314,0.98993908,0.95615727,0.038725783
0.12613304,-0.028642078,0.21874349,-0.49820294,0.93254923,0.26329338,0.55275115,1.0273597,-0.6153555,0.15732791,0.87417984,0.054200345,16.286165,21.578952,7.4464644,-7.2733142,-22.591454,0.95643204,1.6532194,0.85929124,0.7078749,1.0535028,1.4220212,1.1604654,1.5422798,1.0970181,0.93330208,1.4080565,1.6558753,1.3957741,1.0244616,1.5764765,0.019260802
0.65948027,0.34601259,0.9738609,-0.33169936,-0.11498289,0.5045571,0.30425483,0.66892915,0.81702578,0.47910312,-0.87250602,-0.51079655,12.312429,14.992189,-26.28124,-8.7966269,-4.9076704,0.82676131,1.0272628,1.4065627,0.69886704,0.8583352,1.4396493,1.3359658,0.67672592,1.48255,1.017079,1.3971822,1.5915831,1.2863443,1.4386794,0.7839634,0.02294265
-0.42339891,0.27025775,1.0498427,-0.99171069,-0.59005839,0.89665474,-0.45798473,-0.44734902,0.17876155,0.4544071,-0.30572965,0.93326839,-26.881216,-12.601253,30.744619,-15.195125,-24.470049,0.90319047,1.4222265,1.4614752,0.66300241,0.78144111,1.6307658,1.4800697,1.3317815,0.70228544,1.611395,1.4151279,0.80418396,1.6698456,0.99531957,1.0860665,0.00065837976
1.0356905,0.85680101,0.45047598,-0.40271304,0.47748505,0.5211477,-0.14503073,-0.91216232,-0.6824405,0.80567918,-1.0993855,-0.40939583,10.017627,16.257699,33.151747,-18.588773,-11.515948,1.1969007,0.70944558,1.2018139,1.3855463,1.3264672,1.6838596,1.3278253,1.4101061,1.4533128,1.0285835,1.5535809,0.98349452,0.79231614,0.6572859,1.3041397,0.017869874
0.21010804,-0.49267583,-0.7352093,0.1636369,-0.84736355,-0.17129754,-0.35634898,-0.96753875,1.0306398,-0.4645041,-0.062639327,0.59685162,-34.278325,-15.80523,11.497019,30.401489,27.825569,1.0899728,1.1736043,0.81678452,1.3474075,0.82793237,0.75929057,1.0465846,1.6970897,1.0857834,1.1117851,1.3222631,1.3764959,1.4667387,0.92781596,1.6028802,-0.035557104
-0.1407384,0.85737129,-0.96045165,-0.80787033,-0.54143843,-0.018368653,-0.84587107,0.72256263,0.59795994,-0.042195354,-1.0623227,0.15673264,-10.637331,-1.6197282,7.2283546,-33.044654,-1.5047808,0.86223,0.74955558,1.2307128,0.93920976,0.94843278,1.6096706,0.78417838,1.4360277,1.3679226,1.2252712,0.83232789,1.1347829,1.4465467,0.70961583,0.91328668,0.026613299
-0.34703832,-0.62039083,-0.90512248,1.083108,-0.47671819,-0.82724706,-0.7372494,1.0615857,0.65141407,-1.076599,-0.082597954,-0.5823375,29.090373,-28.108953,2.8210341,23.120335,13.468148,0.86256185,1.0769742,1.1053983,1.0784625,0.91943979,1.5245542,1.3830916,1.0206754,0.94069964,0.78879557,1.3370745,1.4618695,0.99134002,1.4016651,1.3359789,-0.055520075
-0.58265273,0.014094084,-0.62513627,0.7054434,0.95910194,0.1143787,0.33644267,0.66757791,0.097889638,0.29323013,0.10232602,0.085548488,-12.976745,19.839849,-31.654738,-21.178122,9.3060048,1.5653446,1.2962949,0.67766396,1.4982578,1.4689914,0.98881525,0.96782669,1.0132187,1.6167626,1.3295529,1.045391,1.585717,1.3960164,0.89803517,0.87705558,0.038695791
-0.21344813,-0.66646977,0.93366793,-0.72680042,0.74842138,-0.21879916,-0.43740885,0.1104882,0.9222058,0.15135817,-0.49911684,0.96649261,-32.474646,-11.367166,-17.959488,-5.122302,9.4706382,1.0702309,1.1715607,1.1206464,1.1542282,0.66296016,1.1214575,1.1369694,1.445397,1.3365614,1.2367242,1.1737327,0.87573544,0.93549353,1.4896918,1.3500824,0.02754993
1.0694571,0.99985034,1.0481063,0.61181791,-0.237522,-0.63879352,-0.12393212,-0.36536903,-0.82854817,-0.61381688,-0.37246413,0.87535407,-0.082377035,15.489177,-3.4010496,28.559949,17.064552,1.3838458,1.0956451,0.95746793,1.2135825,0.73030985,1.1676089,0.85268923,1.0479137,0.9350494,1.3752456,1.4519911,0.86373297,0.8101031,1.402787,1.290354,-0.0083471811
0.95077488,0.90486317,-1.0431208,-0.38825301,-0.59448552,-0.93925912,-0.88160839,0.44365814,-0.63618529,-0.26969925,-0.45954851,-0.34034727,-10.150822,-14.859926,9.2309623,24.783765,-29.263551,0.98736604,0.76109334,0.8958402,0.73616255,0.83393904,0.91345276,0.65045548,0.95524452,1.6446747,1.0984844,1.4279914,0.70185107,1.6608751,1.4286243,0.83800429,-0.044502304
-0.39159212,0.46195475,-1.0010366,1.0056871,0.1867673,0.86109999,0.13273236,0.93023158,0.8945622,-0.44146725,0.073385073,-0.32050762,33.733559,29.932588,-12.985715,9.0803416,13.301505,0.85082493,1.2146264,1.4761003,0.76851353,0.65691849,1.4289829,1.615218,1.6195898,1.5949958,0.89376662,1.5855406,1.5807049,1.1572145,1.5044437,1.4858894,-0.031490094
0.66666886,0.21325866,-0.31894799,0.88309881,0.41550449,-1.0048591,0.53458348,-0.83879889,0.83238464,-0.88005473,0.16667972,-0.28629734,-4.3319807,-7.5997238,21.442933,31.366821,12.163671,1.6971994,0.83012015,0.77944111,1.6167743,1.5259721,1.0624138,1.0380487,1.0342423,1.1106692,1.4676508,1.5565236,1.0924698,1.1406205,0.85905708,0.97233386,-0.04739717
-0.020603562,-1.023027,0.86387378,0.57034926,-0.081701609,-0.91127887,0.9709938,-0.13863036,-1.0978573,1.0845977,0.36988034,-0.3188444,13.532186,5.4418987,-28.008642,8.7525339,33.836592,1.3489164,0.98743728,0.90831183,1.3969831,1.3957515,1.6953797,0.69640106,1.4126901,0.78309393,1.0596894,1.4499966,0.94354644,1.3850497,1.3799097,1.0919359,0.012412911
0.92514613,-1.0102331,0.37787514,-0.096172425,-0.020523817,0.31723458,-1.0919348,-0.53437615,-0.074943415,0.51883138,0.50864692,0.86934241,3.7803537,-23.596113,-29.862854,-4.9846521,12.952983,1.1867326,0.96423091,1.4789544,1.486677,1.0809951,1.4842517,1.2690452,1.5426392,0.83694462,1.0282695,1.5249902,1.3609435,1.5265965,1.057346,0.91446837,-0.0022252338
-0.53438452,-0.2155924,0.67979624,0.93375127,0.67388931,0.61606206,0.72228169,0.27441456,0.54169573,-0.055386654,-0.65791305,-0.3952023,-26.677851,-24.638121,27.102899,28.423072,26.571084,0.87823418,0.93188802,0.7419366,1.278487,1.680791,1.2046608,0.93436432,1.4110817,1.0502295,1.0069933,0.93563716,0.75378549,0.92267705,1.3331333,1.370946,-0.013815774
0.97289674,1.0565872,0.20849389,0.96687914,1.0779937,-0.66740702,0.57514693,-0.81439889,-0.31133591,-0.92843596,0.6958592,0.4127071,11.457263,-7.7863696,34.486919,21.653245,-3.9082091,0.79594089,0.67852216,1.2219022,0.91045436,0.65647986,1.4070431,1.4240518,1.6892621,0.7784673,0.99995082,1.2235115,0.65838183,0.82337997,0.89718598,1.3047892,-0.017330668
1.083008,0.041975177,-0.43906623,0.84339116,-0.61915489,0.075263626,0.46472468,-0.62830549,0.21924832,-0.80994173,-0.16964974,0.94883601,-28.462891,4.1908366,15.389948,8.8510022,8.7945306,0.72013556,1.3183254,1.3455533,1.1639541,1.3770431,1.2131284,1.4991185,1.2345953,1.0938218,0.76230519,1.3133874,1.3025857,1.407938,0.71460628,0.78768344,-0.0037822374
0.7762489,-0.93321307,-0.424977,0.13657968,-0.38118532,-0.56011691,0.52588251,0.26467787,-0.3684697,-0.16277092,0.0080962937,-0.2707125,3.3005638,32.57648,-27.097759,-12.027234,18.279873,1.1724271,0.98178916,1.5304759,1.1582883,0.6513817,0.77228978,1.1242574,0.9435202,0.94394885,0.79836281,1.4837125,1.6554369,1.3782965,1.2795653,0.90452328,-0.022201633
-0.94724696,-0.98722778,-0.015633906,-1.0643924,0.55707452,-1.0796684,-1.0904983,-0.58247866,0.74050223,0.82999777,0.78694566,0.71890189,20.598153,-26.843397,-6.9729687,-14.684477,17.997544,1.3958042,1.5304575,0.84963194,1.1140929,1.259593,1.2303546,1.2192111,0.83155845,0.80278854,1.3170086,1.2637835,1.3098664,0.92463329,1.6616417,0.66140291,0.00024488814
0.049717749,-0.057444077,-0.051175844,-0.25850229,0.80305078,0.90664463,0.30939173,-0.95985477,0.42739204,0.8689601,0.29064192,0.5846387,12.014573,-21.063748,-28.420153,22.488511,34.409363,0.84754467,0.68334283,1.3929288,1.5041014,0.98299029,0.71780102,0.9317181,1.0360436,0.93459792,1.1372875,1.5402961,1.3564456,1.5307559,1.6639828,1.1591873,0.027268685
-0.23725152,-0.49102495,0.62169499,0.83306505,-0.44008508,-0.88661235,-0.09141019,0.85021811,-0.23262446,0.30686535,0.56166322,-0.9264193,-18.972354,-18.360995,-33.241477,-19.501007,-13.425216,0.76088069,1.5217952,1.2124877,1.2304879,1.3607252,1.0078098,1.0095537,0.9185697,1.6008831,1.1422624,1.1544058,1.548479,1.3362703,1.5947429,0.84430168,0.051207209
-0.83063042,-0.42439684,1.0908539,-0.039400973,-0.27857362,-0.0713099,0.012107359,-1.029295,1.074849,-0.74187853,0.22886012,0.20018858,-2.4251333,-19.215854,19.140673,-22.715346,3.1741113,1.2843275,1.1417201,1.489059,1.2141264,1.473227,0.77670461,0.77438125,1.6257042,1.4607554,1.1664182,0.79002284,0.96384052,1.2176813,1.3703365,0.84556812,0.0017708248
-0.23367039,0.32084678,0.24215569,-0.65097205,-0.29078167,-0.73423455,-1.0465494,-0.83430603,-0.62510004,-0.88474327,0.53455073,0.8099571,13.626024,-27.41016,-12.563216,-29.969678,19.614934,0.69802682,1.4367401,0.74127441,1.6989849,1.4389709,1.4839241,1.0116248,1.0787771,0.95613305,0.82817737,0.67700131,0.86109682,1.6542918,1.0327102,1.6100681,0.017975935
-0.021162748,0.57429665,0.28876592,-0.15761752,0.85569781,-0.49812416,0.057551978,-0.33444142,-0.019331535,0.56389492,-0.8030652,1.0502586,-19.038722,-13.805821,15.56423,-1.9931062,31.864537,0.8340274,1.3484629,0.71572092,1.6715215,0.81169899,0.92492523,1.3183737,1.1066801,1.6232017,1.4015367,1.2774635,1.2787957,1.6194062,1.6596074,1.1212776,-0.014382937
0.18370451,-0.035616789,-0.45212837,-0.97962924,0.14429516,-0.45488242,-1.0856402,-0.29834505,-0.30334149,-0.71221814,-0.46817683,-0.21509986,5.1425782,-18.688607,-9.4138363,-18.347439,-15.412111,0.70474968,1.0279165,0.84326602,1.2219354,1.467704,1.4008792,0.72717168,0.92435249,1.1423551,1.6619206,1.1495445,0.69359287,1.4653868,1.3063449,1.5895315,0.046879244
0.58763661,0.18375746,0.85429957,0.19193461,-0.25658355,0.064513989,0.12299578,0.022028212,0.77685935,0.53023386,0.8270747,0.039549342,18.242467,1.1479684,-26.095581,31.574449,1.7636736,1.6559248,1.1773054,1.0724536,0.72738585,1.3739052,0.97398907,1.6842378,1.384782,1.0812187,1.0428578,1.0102632,1.293018,1.2541507,1.1112694,1.0552651,-0.054255642
0.97564431,1.0534971,1.0512872,-0.90467176,-0.13809894,-0.96272751,0.52586892,0.036321191,-0.90367506,-0.97955491,-0.80546704,0.2665181,-7.2333302,19.418725,30.507803,-5.3571187,-17.094161,0.85158473,1.3845433,1.2698531,1.4703877,1.3559592,0.70701635,1.323728,0.79700881,0.77715193,0.94241504,1.2696079,1.5500719,0.80909422,1.2465827,0.96510485,0.0047262972
0.61187926,0.79368015,-0.44840164,0.080320163,-0.31554985,0.81865384,-0.74653599,-1.0801822,-0.92899512,0.094515506,0.76118898,1.0520266,16.795221,-32.725586,-28.916792,5.4801329,-15.40628,1.1246968,0.97897803,1.5337596,0.6979832,0.70368129,0.92146353,0.88758016,1.5597018,0.95744004,0.74469763,1.4830382,0.8227114,1.2105006,1.4332298,1.5931332,-0.0083959639
-0.17813252,-0.87791758,0.89994595,-0.1204619,0.78157101,0.55088588,0.46538959,-0.44865349,0.24562123,0.41743381,0.63359549,0.72523148,-23.176521,22.214894,-14.28155,-0.0043242727,-2.678052,1.1747042,1.4527771,1.4748,0.96409075,1.2231981,1.6901784,1.4777813,0.67084996,1.4253044,0.69110443,1.6422048,1.5852736,1.2925572,0.85926767,1.361692,0.004624252
0.69488563,-0.55622223,0.010220121,0.2386203,-0.69404182,-0.65573385,1.0447855,-0.2222103,-0.59144139,-0.35631763,-0.44060417,-0.81458955,28.092478,0.27685608,33.12022,11.533079,6.4526714,1.4757355,0.93672148,1.1279708,1.4045575,1.6478339,1.6935729,0.78013021,1.6484218,1.0754657,0.95160464,1.3691421,0.7220251,1.5758262,1.0603868,1.6215256,-0.016818524
0.85049473,0.018272924,-0.76303836,0.85206207,-0.028662132,-0.11830119,-0.28819892,0.89071207,0.82289454,0.15512866,-0.90290427,0.97962,-9.5346272,-18.480076,-4.6434341,7.8033214,-29.578042,1.5026054,1.0389778,0.89996916,0.83160165,1.5289116,1.1180316,1.3077517,1.0833886,0.76279151,1.086938,1.6162029,1.372248,1.4727744,1.5694925,0.65999679,-0.0087696982
-1.0660818,0.75039275,-0.072686188,1.0711029,0.072857978,-0.38293782,0.77319766,0.56334325,0.920519,0.38985551,-1.0607767,-0.24981083,-14.652892,-11.147499,33.982996,22.208442,17.280035,1.1081195,1.6650225,0.78356614,1.6460775,1.5740197,1.149778,1.4682701,1.4661234,1.0860778,0.81027943,1.2163317,0.73651893,1.5736719,1.6039697,1.5682158,-0.018236511
0.1645286,0.94477488,-0.97698665,0.57604599,-1.0977825,0.14275256,0.0079585006,-0.3874868,-0.91163439,-0.60600047,-0.94905483,-0.58441331,-31.433702,-16.23433,9.6192119,-29.905967,-29.582554,1.4152117,1.1626874,1.0874631,0.99176943,1.2687261,1.4298173,0.93894867,0.76026971,0.70300553,1.1138795,0.82288463,0.9719616,1.2085685,1.5099849,1.1661144,0.039521276
-0.50389821,-0.22590728,1.0476372,-0.6736521,-1.0276021,0.93927392,-1.0687202,0.38920738,-0.9583218,-0.1972675,0.79033231,0.46138298,12.245738,14.123689,6.8372835,-25.777007,-4.1593405,1.5344751,1.1731886,1.1810104,1.3911687,1.3231704,0.87411142,0.94069029,1.6816487,0.92009575,0.99926439,1.2365436,1.2883901,1.1716327,1.2808982,1.2552497,0.018041816
-1.0323438,0.4146125,-0.60277065,0.55577832,-0.87376038,0.39825315,-0.66486666,-0.71131927,-0.75460683,-0.38157631,-0.53410224,0.13044786,-2.5550068,-31.998615,9.2821102,-25.573236,-9.3749799,1.2456995,0.82142155,1.5820596,0.82532913,1.1067022,0.94471518,1.0779941,1.4465252,1.3983005,1.4871442,1.5817548,0.95333477,1.0474466,1.4847663,1.5168138,0.019227312
0.65963768,0.79251686,-0.20785059,1.0486994,-0.41476899,0.17175636,-0.72870106,-0.40814008,-0.57101565,-0.12275156,-0.31570676,0.38060021,-15.194155,-8.1678005,-6.223311,-15.188152,22.736639,1.2454203,1.3783741,1.5327427,1.4563186,1.1460874,1.3916152,1.4762808,0.65176068,0.84177844,1.4202532,0.84608729,1.3891522,1.0313389,1.6627658,0.65458192,0.033936112
-0.34891864,0.76368213,-1.027905,0.24632703,-0.91485928,0.17116983,0.40903501,0.21844345,1.0564487,0.07910386,-0.9659134,-0.24069474,32.305911,-24.554676,29.567452,10.167811,20.398277,0.78270415,0.80863916,0.94831498,0.67979134,1.5530309,1.189623,1.2444067,1.1436416,1.2336349,0.70182598,1.2393078,1.5456659,1.3073243,1.2486725,1.4383239,0.022655953
-0.1351541,0.15064532,0.71460908,1.0686537,0.69227126,-0.51365277,0.76286361,0.60914763,1.064592,0.59899115,-0.30350007,1.0208406,-7.1723997,-6.5215192,12.826575,-23.745949,-28.168326,0.94923286,1.406725,1.3273612,0.9603782,0.77637738,1.5746855,0.78963898,0.81239686,1.1040063,0.78329724,1.3267108,1.5784129,1.4851762,1.0567204,0.90036425,0.018187351
-0.0065182235,0.40396029,0.6930147,0.9857108,0.9091306,0.30790803,0.49298496,-0.66648738,0.63774053,0.019294746,1.0169117,-0.28558252,28.085239,18.619468,-32.604461,-23.178048,-3.4555192,1.5213308,0.75642394,1.1671361,1.3065386,1.6936536,1.086739,1.4218505,1.4419254,0.73990201,0.68309414,1.4132567,0.85492048,0.7484523,1.5877798,1.4152165,0.027049142
0.14353525,-0.03212633,1.0350232,0.63611779,-0.86476941,-0.22944618,0.94551623,0.48724909,-0.30824855,0.3812436,-0.65958395,0.11047992,24.92758,7.8372613,-19.149988,6.14429,17.082168,1.6248486,0.72968686,1.1970996,0.90309123,0.80427425,1.0872581,0.6967586,1.1217181,1.3168737,1.0968111,1.654344,0.85931559,1.1170664,0.83575677,1.0140053,-0.028917481
0.023808799,-0.084423995,-0.48500258,0.68047494,-0.85398155,0.75475531,0.67803434,-0.089995156,0.44243835,0.85397949,-0.78945286,-1.0742728,-18.158433,11.210133,-31.295555,-4.3913096,-24.741074,0.82654383,1.5722161,1.2865112,1.093672,1.3955397,1.2860115,1.0955403,1.2958997,1.3869587,0.91544407,1.5684679,1.2902102,1.3124519,1.3287305,0.87407841,0.014942669
0.54616481,0.28655049,-0.0073842246,-0.95623154,-0.25207964,0.99183456,0.47279636,0.8865059,0.50146719,-1.0481426,0.97585595,0.21231668,-24.093912,3.623812,5.408716,-25.710237,-1.9540965,0.98751049,1.0887298,1.2814234,1.6831172,1.45068,0.87797048,0.69979319,0.67420532,1.118833,1.1268624,1.676366,1.384061,1.5631945,0.86024575,1.000338,0.023709545
0.5372663,0.26912383,-0.41509,-0.82534483,0.44600645,-0.75208538,0.21328687,0.15525182,-1.0320247,-0.82075626,0.59705255,0.10119331,26.745322,-31.375758,-22.365471,3.525733,-33.0063,1.3717212,1.0188815,1.2417209,1.152831,1.3311722,0.9619125,1.3633418,0.88488893,1.4781844,1.1451666,1.6646604,0.99790819,1.5429295,1.5162871,1.0373264,0.03145443
0.67080894,-0.57601415,-0.56625691,0.68916288,0.022525017,0.33020287,-0.84624147,1.0945201,0.0035970558,1.079616,0.20894658,-0.22131694,-30.893116,-30.602648,21.297724,-29.150019,5.6348716,1.1043131,0.68959223,1.4266306,0.92980736,1.4722897,0.77226321,0.67769178,0.91571276,0.83430919,0.83462037,0.81463624,0.94132831,0.85483547,1.4197991,1.612973,0.037440112
1.0729672,0.61835708,-0.28940373,0.43356016,-1.0210769,0.65285674,-1.0199204,0.29754218,0.004161417,-0.4307401,0.037330662,0.66870933,-21.593304,31.345774,8.4272764,27.234042,-7.4566672,0.81190593,1.2529958,1.6507294,1.0098454,1.6222941,0.84618835,0.98760035,1.5491243,1.6829278,1.4174764,1.4264746,1.4583075,0.97334836,1.4158949,1.0949255,-0.0089542867
0.6046568,0.35709139,0.25057637,0.13208414,1.0312063,0.26043239,0.84865638,-0.091234972,-0.60312613,-1.0205619,0.51149048,0.28055615,12.88847,-33.489131,18.179899,-0.44542425,3.7546917,0.65155217,1.5373209,0.70166786,0.68179795,1.6782076,0.83530795,0.82078426,1.3709775,1.1185458,1.5499652,1.1151812,0.65058812,1.0845635,1.6087446,0.97103653,-0.0095571611
0.49410329,0.53625164,0.80857688,-0.77811846,0.29916294,0.85500818,-1.0930624,0.30543045,0.63549629,-0.3146542,0.47814662,0.64455387,5.6385887,-12.239957,13.041155,12.694781,1.1883778,1.5209927,1.3738025,1.3483486,0.89498433,1.0517083,0.66137334,0.70165876,1.5788421,1.3497144,0.74935284,0.97313349,0.95455803,1.656844,0.87645152,1.4207574,-0.0094148987
-0.53535631,1.0445748,0.63537224,-0.20052459,1.0263173,-0.54283917,0.62954016,0.73993372,0.071585717,0.22531375,-0.027607767,0.0095023084,-26.422506,-3.0504158,-28.337865,5.5034411,26.335276,1.2797966,1.6409801,0.95209419,1.1969951,1.2474316,1.5821037,1.5666303,0.85553471,1.621865,0.98464966,1.3068253,1.2620948,1.2779206,1.611553,0.92202136,0.0051107451
-0.75808418,0.5507061,-0.35707362,0.048156432,0.090881481,-0.93977298,-0.72149926,-0.31880216,-1.0641864,-0.37899057,-1.057842,0.69300014,23.59126,18.30066,-0.81297043,-13.594025,5.213994,1.0489591,0.65501633,0.95953154,1.2466211,1.6109247,0.86154483,0.78395364,0.80888261,0.83999209,0.7970051,0.71468928,1.132751,0.8957512,1.3404366,1.2671341,-0.0013741338
-0.52910989,0.47054902,0.50035573,0.063616322,0.42970043,0.081879334,-0.49993263,0.45009143,-0.26847508,0.32309944,0.71776907,-0.79935513,-11.74454,9.5217496,12.045904,15.511985,29.926143,1.4551665,0.68371955,1.4244353,0.78405768,1.5073682,1.2880491,0.6920143,1.1842697,1.571516,1.0690371,1.056975,0.9780405,1.5267132,0.91894094,1.5404583,-0.020708083
-0.50617154,-1.0488576,-0.044505911,-0.31179823,0.097872651,0.007732649,0.21485534,0.12714569,-0.60205261,-0.57068741,0.99577383,0.70671115,8.751366,14.208371,30.083273,-0.4280338,16.03593,1.413172,1.5325373,1.1551445,1.3630713,1.5894804,1.6471644,0.94163549,0.76772927,1.1258049,0.7029949,0.93527628,0.98848275,1.6795854,0.89150287,1.3386901,-0.02363322
0.29156272,0.66671525,0.99293802,-0.77341559,0.17212664,1.0964082,0.94932272,0.6887411,-0.46899764,-0.8157665,0.89348919,-0.88256413,-7.1802616,1.3429928,31.680373,32.025463,21.953862,1.3033363,1.4223599,1.6024304,0.8974557,1.6379862,1.0347074,1.5775885,1.2804916,0.72307237,1.3272915,0.83823187,1.6631156,1.2845265,1.3368285,1.525932,-0.037547679
0.5518165,0.71257208,-0.18062093,-0.91755116,-1.0889849,0.66309003,-0.55993976,-0.89512211,-0.17249216,-0.64237107,-0.8757888,-0.70655167,6.567955,-2.380172,-33.551258,24.0142,-13.341937,0.75606205,1.384831,0.85417905,0.88724103,1.1100039,0.78635258,1.2278909,0.76237,1.3525105,1.5432602,0.77349842,1.4880198,1.5993788,1.0592724,0.74114722,0.0065269747
1.0184899,-0.14963259,0.91248934,-0.41863016,-0.94872153,0.61913484,-0.41223946,0.90234616,0.63577531,-0.023379604,0.70055491,0.16545137,33.739751,-5.9975185,-0.29392781,29.955379,20.046736,1.4072759,1.1358273,1.1499549,1.2928266,1.1859563,1.5674765,1.4279444,0.96110407,1.4260279,1.3003896,1.2486127,1.4842375,1.0304775,0.83543523,0.85993055,-0.014615669
-0.4656037,-0.95077692,-0.93913044,-0.91790947,-0.51381619,0.21533027,-0.68713957,0.99653418,0.29121813,-0.72649906,-0.78399349,0.5177023,-27.85095,-0.90895343,-16.780362,2.4539935,14.268159,0.94921409,1.0912891,1.2454635,1.0545711,1.5267978,1.2907571,1.0538534,1.0144238,0.87074143,1.0011323,1.1305596,0.8148062,1.6978623,1.4716694,0.84737852,0.036569165
-0.28110231,-0.78778661,0.5410387,-0.10258214,0.0080339889,0.88124553,0.055076184,-0.16193117,0.92706475,0.44845173,0.76161169,-0.63992072,23.022018,-28.936281,27.923648,32.754209,19.988997,1.5509898,1.535354,1.2455095,0.77824177,1.4093451,1.2637392,1.6145221,1.4733795,1.2387824,1.1160892,1.2108835,1.5694625,1.2065401,1.0202633,1.3652187,-0.020506332
-0.5132399,-1.0945855,1.0964351,-0.79727829,-0.64936342,0.35595884,1.0078902,-0.17042929,1.0415007,-0.45197452,-0.59305397,-1.0694757,28.218868,24.517357,-26.776441,-1.6477426,26.390458,1.5414297,1.5093436,0.88729389,0.94833599,1.0329958,1.1599866,0.84559397,1.4977929,1.0057043,1.3226618,0.72770797,1.5379233,1.3764262,1.3444527,1.5666047,-0.038862286
0.62866659,-0.74751686,0.027236665,0.35073441,-1.0336787,-0.029748675,-0.78691139,-0.14298457,0.49085897,0.98689323,0.99032357,-0.73213696,-31.13704,-0.23393326,-11.716259,-5.165549,-17.38165,0.82424977,0.81581968,0.88132106,1.3630021,1.4771049,0.85225424,1.086941,1.6666759,1.2725976,1.3970578,1.6000583,0.92918758,1.555672,1.4787206,0.70674046,0.0018758399
-0.60346882,-0.18275203,0.65011825,-0.8643573,0.099672685,-0.5267122,-1.0145818,-0.14025479,0.18894998,0.16038736,-0.48451569,0.067060261,-33.8717,28.339987,30.159132,14.534712,-15.102686,1.012457,1.4147967,1.5385577,1.5397224,1.164386,1.2861458,1.2516572,1.2019331,1.2899143,1.5893538,1.6193174,1.217604,1.1204216,1.5752998,1.6641446,-0.040347348
-0.93510799,0.71397568,-0.7804764,0.25324441,0.99154763,0.048703829,0.49452144,0.96677821,-0.61824479,-0.02242961,-0.92581258,0.80469565,-1.1659508,3.864366,-11.600685,-22.715092,7.4478568,1.416927,1.6426944,1.4152221,1.3372065,1.5788702,0.77150825,1.6392204,0.77652924,0.97700072,0.85110998,0.75549727,1.3425388,0.89956728,1.4272622,1.0463367,-0.0058690222
-1.0333891,0.43861077,0.29821451,0.30849051,-0.71282095,0.39595463,0.28785359,-0.097392818,-0.73964565,0.37181766,-0.74508606,-0.90133934,28.39482,-28.262252,16.33269,33.513853,-22.678815,0.98223182,1.6202609,1.3242324,0.87312638,1.1850819,1.5707008,1.0189437,1.236641,0.82465494,1.3256531,1.6523135,1.3823186,1.6779934,1.4342679,1.1903936,-0.04810381
0.88146554,-0.64538636,-0.97404893,-0.6293303,0.58819116,0.70756521,-0.76468922,-0.504498,0.68901409,-0.27904471,0.80756856,-0.13216321,-5.1245903,-28.988688,-12.883184,-17.674926,17.522646,1.3717529,1.5514288,1.5633995,1.1558811,1.1440615,0.94177402,0.99591525,1.6475604,1.2975599,0.93892583,1.426438,0.84264651,1.309821,1.2110047,1.5052303,0.0010819569
-0.25005048,-0.089945807,-0.92727433,0.42737456,0.5750464,-0.30489624,-0.45353511,-0.43249133,-0.80712789,0.94116154,-0.13116983,-1.0582308,24.039072,-15.318023,9.9801751,16.80309,29.534263,1.360473,0.96915936,1.3613319,0.70566444,0.65226523,0.92177476,0.86831096,1.1023708,1.6454934,1.2073508,0.99449925,0.94896418,1.0909659,1.0640978,0.99204972,-0.034652685
-0.93283102,-0.60112396,-0.35670511,-0.35560712,0.50528532,-0.65114992,-1.0811118,1.0403721,0.37137829,0.66688855,-0.49264259,-0.17652027,-5.4214117,22.333045,11.482696,-0.33238576,13.592603,0.73814554,1.6121686,0.76775328,1.5293755,1.5648094,0.70151793,1.3118604,0.83856616,0.98142547,0.66784749,1.3627686,0.70214825,1.4056186,1.6320981,0.77211829,0.0040106769
0.45459121,0.58943319,-0.40884365,0.79878039,-0.49414149,1.0208725,0.31069445,-1.0562143,-0.53792277,-0.30681879,0.22087318,0.10969774,26.475251,-20.450634,-13.799684,-21.286258,11.854796,1.5283053,1.4263731,0.80350705,0.79291716,1.3086731,0.81865146,1.2251031,1.1585989,1.6717418,1.3642357,1.2096983,1.5988835,1.1355436,1.6317978,0.97535686,0.04116488
0.83287522,0.76769141,0.38257672,-0.24487748,1.0871619,-0.51484472,0.52174524,-1.0977821,0.15049755,0.43019881,-0.33823765,-0.048351258,32.878384,7.0050159,-6.6970426,2.8048791,31.602454,0.91168151,1.3311421,1.5054975,1.3463377,0.69800964,1.1480856,1.3751108,1.2868101,0.86721026,1.5028437,0.84322694,1.6151285,1.1639861,0.86434838,0.65320536,0.013902812
-0.42427373,0.96097613,0.82629178,0.075641201,0.21327923,0.026736647,0.74339972,-1.0515332,-1.0314691,-0.27916946,0.91006347,0.59293769,-28.164331,-17.912634,12.363921,-29.586134,25.848585,1.4325695,0.99538426,1.1232419,0.67700168,0.86726831,1.4284147,1.515287,1.0286296,1.2785006,0.85947283,1.6599077,0.91851566,0.69274643,0.88924633,1.2130423,0.028055625
-0.1547838,0.10156465,0.48396811,-0.47388427,0.6210908,-0.5251361,-0.91458586,0.36835142,0.37395383,-0.02820478,0.97106572,1.0702246,22.427923,-3.9051332,26.42577,-12.077344,16.078094,1.542973,1.197045,1.0350276,0.65872768,1.3861039,1.2475485,1.4469775,1.6503766,1.3798551,1.2254829,1.241655,1.0950703,0.74640911,0.84783784,1.410504,0.031736857
-0.80363111,0.33539063,0.578878,0.31838782,0.6976506,-0.26686162,1.0511451,-1.0927516,-1.0677819,0.76623028,0.015788815,-0.73028212,-18.832073,29.347849,29.304583,2.1285186,4.0114776,1.3385485,1.0338837,1.3839485,0.7229702,0.6602303,1.4407018,1.1745961,0.68695574,1.2150751,1.667571,1.6154776,0.73193285,1.145344,1.496547,1.0660335,-0.030103854
-0.42040173,0.064225902,-0.32066576,0.60102967,0.97112653,-0.10687881,0.36460582,-1.003127,1.0577627,0.17327109,0.53906993,-0.20494453,-21.927669,11.659755,-34.498384,-4.3459697,-32.712152,0.97785585,1.5731966,0.96547326,1.3590224,0.73930965,1.2273655,1.3814045,1.0146892,1.1318858,1.0542487,1.3582682,0.66336199,1.5749505,1.0437326,1.0131199,0.010148691
-0.35210948,-0.085976646,-0.19101961,0.2411593,0.19566445,0.8557564,0.48657364,-0.66491655,0.6492199,-0.56911523,1.0300063,-0.11710104,2.8846941,-26.945489,27.162878,-13.509888,19.312054,0.99030793,0.85539188,1.3213305,1.451273,1.3955408,1.3048958,1.3830693,1.6959817,1.3638621,1.2295112,0.6950886,1.4041646,1.3451272,1.3530282,0.79456702,0.021340126
-1.0201018,-0.55170148,-0.97858951,0.026135043,-0.57130902,-0.65520508,-1.063759,0.20573012,0.69755222,0.27893921,-0.38150525,0.66026099,8.6888581,13.638354,-30.185277,-33.947075,21.518231,0.67857462,1.0535779,1.6342087,1.5962491,0.95832991,1.0007989,0.77691832,1.2161846,1.4151973,0.92046286,0.86922759,0.75816855,1.0888731,1.5903728,0.89592365,0.033139115
-0.18052263,0.73469578,0.0020486234,-0.75462346,-0.66106712,-0.62677659,-0.47392855,-0.12313372,-0.14138418,0.99922236,-0.70999445,-0.4795511,-1.8901069,12.972501,-21.17924,-9.4840121,-7.7910696,1.5573872,0.90632802,1.6550136,1.6137101,1.475756,1.2806646,1.529685,1.5149704,0.95758645,1.1055253,1.113804,1.6540572,1.2895185,1.236963,0.98743219,0.054158582
-0.73770057,0.076036021,0.25166844,0.89366862,-0.065935474,0.17637136,-0.13338523,-0.90748121,1.0239369,-0.96494039,0.71894061,-0.90133973,28.182256,-30.828578,4.0921388,-33.42373,-2.6369836,1.0282593,1.3542842,0.9047467,1.3277706,1.541196,0.73195447,1.5087137,0.80135896,1.4399771,1.595383,1.1024547,0.95605948,1.6917523,1.6807318,1.2588661,0.05653468
0.91542408,0.52495531,0.075066461,-0.64991391,-0.099589745,-0.27844247,-0.066201112,0.11002844,-0.207676,-0.41528129,0.35788865,0.45535364,6.6521018,11.875119,15.132831,27.483493,-14.940857,0.86012095,1.0027979,0.77442508,1.3122391,0.9030749,1.5799267,0.67874807,0.81889304,1.0853312,0.86094168,1.1467538,1.040606,0.96581431,0.79103215,1.1273092,-0.060213993
-0.81408005,0.64927777,0.40360366,-0.90263639,1.0836036,-0.94404519,0.046228173,0.66935519,-0.81900273,-0.71891323,-0.83770561,-0.58493992,-33.16069,8.2752124,-8.5046411,2.4976651,-21.742766,0.71509973,0.68108894,1.3118208,1.222539,1.1130394,1.4026866,0.65308188,0.99713758,1.1912784,0.71644036,1.1631669,0.74619606,1.4671119,0.89959632,0.86536001,-0.028331419
-0.668689,1.019962,0.4017442,0.8322329,0.96785363,-0.1365986,0.063279372,-0.83518803,-0.055065792,0.33658926,0.93222986,-0.7061668,2.4648601,-13.095923,-23.174418,-12.450145,-19.583374,1.2086096,1.1518485,1.6170467,0.85385688,0.72263946,1.4014247,1.4957609,1.5037009,1.600625,1.0038739,1.0083426,1.5646885,0.76916871,1.1684968,1.0751801,0.018718054
0.47702493,-0.61477519,-1.0849999,-0.53339414,1.0358913,-0.16709224,-0.049619902,-0.49716883,0.7199691,0.9906545,0.43165359,-0.07808963,13.342368,-34.824446,-24.466068,-21.200169,-11.245422,1.1478578,0.69546286,1.3942047,0.89842052,1.0537275,0.99882118,1.1375795,1.1983512,0.93818589,1.5902988,0.70275185,1.050387,1.5539926,1.6044229,0.78563434,-0.028802843
-0.98149511,-0.4278467,0.28615627,-0.035773802,-0.89193753,0.57197246,0.81010754,0.75731933,-0.2108558,-1.0793874,-0.76487043,0.84817861,21.496229,17.117245,-10.469892,12.525789,30.932528,1.069898,0.82609604,1.396129,0.69022351,1.536479,1.2518779,0.71196438,1.5352733,0.93752017,0.90154722,1.1041066,1.4195585,0.72042945,1.0077474,1.0110178,0.0048323472
0.42157589,-0.12201244,-1.0880372,-1.0011935,0.56806378,1.0902879,-0.75604172,-0.30755391,1.0604818,-0.30911335,-0.958708,-0.090722172,-24.858266,-32.88251,-6.3464128,15.840228,16.708633,0.90482312,1.5622117,1.1415265,1.3861777,1.4382796,1.4153381,1.1866556,0.72136676,1.0110794,1.3622258,1.0292247,0.77953338,1.0675424,1.1348873,1.1001683,-0.011289899
0.42798202,-0.21092952,-0.11931572,0.253526,-0.87317886,-0.82369676,-0.44346575,-0.52856348,0.85759749,0.64227609,-0.72053933,0.42099599,-34.122306,16.398659,22.262359,13.468565,-13.828836,0.85632394,1.2364456,0.69141752,1.6541874,1.3780613,1.5260029,1.5806951,0.99264711,1.3199111,0.69609802,1.5693919,1.0702923,1.1522149,1.4753901,1.4313278,-0.017884913
-0.10283343,0.18287,-0.86651612,-0.99786616,-0.68657935,-0.5834063,0.54342121,0.3563508,0.99810563,0.31326511,0.36565876,-0.89917809,-5.3754219,25.284369,-15.608082,34.964582,-0.27231539,0.77292882,1.3647013,1.6840464,1.3173929,1.4226642,1.4673247,1.32563,1.2627868,1.358488,1.2077221,0.93561942,1.505582,0.6672581,0.90690487,0.85015941,-0.0031589007
0.84642298,-0.24298737,-0.1324419,-0.44681243,0.40072129,-0.96606419,-0.57584329,0.10634938,-0.46632892,0.055125153,0.6610857,0.93914057,34.637805,-32.411056,7.3874978,-18.32481,14.918912,1.2073454,0.90488537,1.5584055,1.2211254,1.5054248,1.1739895,0.99218274,0.86536764,0.98396154,1.2915392,1.5989242,0.76943604,1.4614929,0.96078676,1.3430115,0.037103124
0.66880142,0.86947086,0.078503681,-0.057549454,0.37686674,0.54854363,0.68326536,-0.13689105,-0.45377023,0.014021657,0.35670739,0.39403947,34.587933,-30.605342,-23.985022,13.730808,-16.310923,0.90974358,1.3103779,1.1216002,1.4340196,1.2181503,0.85235633,0.70288455,1.1806099,0.96067706,1.5993897,1.2426501,1.0201768,0.96069615,0.87013427,1.2966296,-0.03216841
-0.25536147,0.81191364,0.32479853,0.68577033,0.18097693,0.30339931,-0.5152277,0.68229895,-0.98546326,1.052018,0.38294383,-0.67225464,14.90715,14.463997,-13.597825,11.354891,21.645673,1.3073012,0.86085514,0.74234631,0.8143998,1.1674682,1.6377538,1.3273202,1.3201335,1.2840365,1.5021959,1.5059165,1.0390851,1.6533079,1.2951314,1.0727228,-0.054398982
-0.2581882,-0.51544751,-0.81289393,0.79227575,0.13808082,0.65812573,-0.42861209,0.61683306,0.48576675,-1.0316846,0.49829548,0.62276488,-31.109809,-32.56406,25.851132,-10.0266,-27.072539,1.052485,1.1153839,0.90792907,1.2638896,0.99215139,1.3883591,1.3515756,1.5803756,0.87273332,0.87894843,1.3863356,0.94159018,1.0561961,1.5386363,0.7605267,-0.013512076
-0.73897659,0.62119176,-1.0275134,0.23182659,-0.52210697,-0.58352859,0.68723994,0.69051357,0.73253928,-1.0563522,-0.65734758,0.3121961,-0.26083586,26.131771,16.669213,19.455762,22.996552,1.6707804,0.95652772,1.1614374,1.0779172,1.2042773,0.78902639,1.016612,0.89868234,1.2540364,1.2889797,1.6317779,1.690634,0.73562264,1.2097628,1.6336347,-0.0059477174
0.46958355,-0.33253718,-1.0015257,-0.61662102,0.87877679,0.34613639,0.85546294,-0.047222346,0.21449168,0.61242094,-1.0979014,0.34317855,-15.164977,-7.7739986,32.405376,-32.851828,19.323353,0.68891186,1.541562,1.6318172,1.3018374,1.430693,0.95758341,1.0543127,1.3831335,0.67507089,0.96651522,1.0212683,1.4561005,1.6816233,1.5421432,0.9012016,0.016876925
0.88019354,-0.032832015,0.17014626,0.79895817,0.29457079,0.64368886,1.0327248,-0.60704114,-0.846574,-0.096171365,-0.0027103444,0.62865284,-31.151771,32.192337,26.600828,-9.8920347,-5.4268209,1.1963115,1.3070743,1.248563,1.6979399,0.67597256,1.4208846,0.95797368,1.3136628,0.68063951,1.1082702,1.0469989,1.3112102,1.4598468,1.6455219,1.6871898,0.024332693
0.99198112,0.73691477,-0.088358944,-0.64623495,0.15747976,-0.97200741,0.69565594,-0.80437187,1.0801661,0.6587983,-0.12032445,0.89264845,12.123479,-10.69543,1.906954,-9.8233048,29.716559,1.1181052,1.4943412,0.74195173,1.532734,1.3107997,0.86137738,1.1196175,0.66091792,1.4474086,1.5460434,1.3508861,1.5428607,1.4093599,1.5124475,1.6052382,0.021869738
-0.70537234,0.23527851,0.31740867,-0.3651652,0.3980141,-0.28435818,-0.53140653,-0.74405672,1.0049745,-0.79440492,-0.73718664,-0.082730643,-19.522956,-32.324888,-14.39022,-6.4325353,-31.621096,0.93853249,1.1155054,0.84930953,0.94528389,1.1862989,1.0263417,1.6747102,0.85414659,1.3916934,0.69090541,1.4473018,0.8012675,0.95285041,1.3068326,1.3847767,-0.019179911
-0.3833963,-0.33510144,-0.1168006,0.7419042,0.20257014,0.36660113,-0.45465331,0.56598427,-0.87326404,-0.056234371,0.4883139,-0.0049780439,-3.1709799,-24.659686,14.651921,-5.1678981,13.136196,1.1756681,0.85324173,0.88372822,0.87027304,1.5289326,1.4702828,1.6934049,1.1066313,0.80259166,1.1579512,1.286001,0.91809577,0.9856674,1.6119505,1.3015305,0.0011779431
0.72960892,0.27272014,0.65205654,0.92490086,-0.73424756,0.93386425,0.37372508,0.52541279,-1.0325817,0.81320982,0.1185979,0.87682943,19.212833,0.076756489,30.046311,8.3520279,22.532997,1.3562544,1.4680755,1.3451385,1.5435964,1.1739394,1.1997301,1.0129692,1.6236053,0.83418606,0.86510255,0.728586,1.5949264,0.77789861,0.89189249,1.5871353,0.021146445
-0.19155374,0.060437314,-0.22113589,-0.12685139,-1.0489811,0.079124216,-0.62379146,-0.88250045,0.84469674,-0.66734055,-0.50681361,-0.84454747,31.099955,6.9458769,-20.647191,-27.335349,-15.213167,1.509607,1.1152306,1.4800404,0.83954204,1.6331002,0.81465551,1.2650805,1.0587869,0.98182151,1.0241828,1.0896991,0.77206071,1.4744021,1.6269227,0.93999747,0.0081500895
0.86401878,0.80830681,-0.91898538,-1.0036032,-0.34840864,0.53880769,-0.21419829,-0.079588771,-0.58663822,-0.99667744,-0.49988242,-0.90512951,30.712149,-0.9043746,-9.823908,19.578672,-11.266857,0.99402958,1.4552259,1.6821193,1.4790696,1.3227232,0.70845255,1.3119284,0.93076723,0.80480222,1.5609227,1.5284444,1.6646094,1.1895132,1.4980566,1.2378895,-0.018794484
-0.76517765,0.082945157,-0.17957152,-0.87298047,0.31150907,-0.55950256,-0.14443493,0.30497678,-0.39203119,-0.32002218,0.42219198,-0.76308824,0.43859832,21.522005,30.336758,-10.106439,31.077668,0.91046744,0.87623727,0.96975019,0.79145429,0.87218141,1.0530033,1.4268396,1.2939947,0.86865325,1.6050891,1.4824804,0.89797325,0.88635117,0.85409169,1.51911,-0.0095978244
0.11997993,-0.085715228,-0.19560356,0.16761471,0.034359264,-0.8910502,0.091539118,-0.88244016,-0.34120154,0.71719575,0.56045558,0.76798942,31.608607,15.856816,15.511768,26.276394,-2.6543546,0.84893026,0.87089748,1.5239553,0.76596396,0.85625427,1.1154333,0.68798127,1.6512396,1.1836549,0.6875107,1.0923479,1.1913429,0.74945764,1.6846359,0.72626433,0.0014822423
0.52281345,-0.73737076,-0.97810001,-0.54330532,-0.60760112,0.73737666,1.0773219,-0.96232165,0.74984527,-0.47785793,-0.19080664,-0.5776983,-9.0134428,-8.9328174,16.138139,-16.293135,1.2768138,0.71614648,1.4739093,0.69302508,1.3724901,1.3415488,1.0610999,1.0060206,1.3882978,1.3712254,1.085875,1.6009005,1.4345656,0.94348628,1.423855,1.5307224,0.0038442468
-0.15308057,0.13921917,-0.0015668718,0.054964028,0.15217404,0.018454694,0.092848774,-0.86221176,0.97391491,0.57599605,0.26196493,0.21666491,-7.8637421,-5.9139523,4.2036813,21.271343,17.468475,1.3649174,1.1167574,0.89175081,1.3058302,1.3385086,1.4148489,1.3655904,0.87868396,1.1412979,0.69324176,0.81424062,1.642052,1.118413,1.418107,1.523676,-0.0059092377
0.30764412,0.45574598,0.20572033,0.53310031,0.62295619,0.038847701,-0.22380633,-1.026606,0.087542942,0.12639155,-0.082088305,-0.81313255,-32.438476,-33.459334,28.973458,-33.088475,31.999201,1.1835799,1.5273036,1.3922015,0.83121956,1.4070927,1.2077691,0.67575831,0.96994318,0.88495919,1.6091812,0.95793604,0.68109807,1.4652204,1.6592248,0.99181626,0.020076233
-0.35437205,-0.72800401,0.31169903,0.43400441,-0.15185698,0.9120568,-1.0909725,0.2451624,-0.69683754,0.73718872,0.11768636,0.95034109,6.7335443,-19.320524,9.9506782,11.048617,-15.902412,0.99744655,1.1342407,0.73405135,1.0510564,1.2550426,1.4004387,0.67260772,1.5679164,1.4712419,1.0123172,1.1654995,1.1001956,0.78758106,0.87493813,1.185206,-0.03846423
0.80034979,-0.50660274,0.50049591,0.22042361,-0.84888213,0.69526381,-0.79756478,-1.0661412,-0.24810834,-0.43505441,0.097407131,0.98020499,23.421218,30.408008,-2.6069053,5.7425918,-14.259437,1.4997405,1.1890473,1.0173398,1.5805051,0.94870307,0.90253166,0.84964836,1.3900264,1.0242358,0.93163867,0.75104735,1.1027712,1.024925,0.96433803,1.1792197,-0.027198393
-1.004645,-0.26473954,-0.66803347,1.0419433,0.38924296,-0.36020218,0.24522421,0.34205797,0.4820208,-0.21557117,1.0366853,-0.017201116,-32.312165,-10.550646,-14.708611,32.373026,-16.555962,1.0842623,0.74565466,0.76778954,1.088865,1.4542139,1.4738313,1.4829942,1.1330538,0.73460363,0.88319766,1.4030053,0.76076774,0.67346006,1.1932855,0.849276,-0.042199237
0.53769678,0.90675139,-0.09536426,0.36762036,-0.91743098,0.93087356,0.68890963,0.16445343,-0.31855318,0.9214536,0.70390305,-0.7392904,-8.1092819,-2.7003129,-24.158444,-30.974554,0.67572049,1.4275145,1.0854967,1.5429248,1.4372329,1.6741284,1.5759282,0.67499094,0.67276714,1.0973099,1.6380865,1.6701552,0.94795411,0.91465296,0.87223274,0.8657044,0.035270299
0.45826111,0.69416738,0.56680127,-0.33655379,-0.3360723,-1.0401378,-0.83140197,-0.19714146,0.70950615,1.0691112,-0.41523925,1.0644897,34.366812,33.007292,3.5567477,-1.7419325,-16.658878,1.3884418,1.6906195,1.5424366,1.6321101,0.97392004,1.5741879,0.82632562,1.0546457,0.67969113,0.91884041,0.90080313,1.1982404,1.1766249,1.1842787,0.67204758,-0.031000302
0.89786821,0.14489344,0.80385587,-0.95613142,-0.76856999,0.24483929,0.46997946,-0.2757321,-0.69441507,-0.3314683,-0.62980667,-0.82087165,27.273503,25.763325,-15.794024,-10.156317,32.772717,0.89071477,0.6931827,0.87160968,0.89392137,1.0364305,1.1380349,1.5025274,0.77795256,0.74865681,0.82500027,0.82951014,1.0269389,1.211457,0.70860477,0.72043974,-0.030354959
0.011948736,0.70295483,0.91685227,0.33832078,-0.75367099,-0.046789403,0.89361517,-0.96435411,-0.42297776,0.75105791,0.11095878,0.034790644,-7.5818494,-28.143057,-10.365972,9.1153287,-28.670346,1.4375149,1.162291,0.72482483,1.3808813,1.6720674,1.58715,1.3300294,0.65360981,1.4701366,1.3356753,1.0450989,0.87761264,0.98558804,1.3281787,1.0487907,0.028018801
-0.4179307,-0.18835032,-1.0774773,0.54943062,0.1972212,0.6306694,-0.073023587,-0.20134118,0.49649143,1.0897079,0.49134618,0.37895168,12.865519,0.78520804,-33.008475,-23.435882,3.1292931,1.5354259,1.4039369,0.6678049,1.6968765,0.65389877,1.0767079,0.82896079,1.2439312,1.5511513,1.1007082,1.0021831,0.94141414,1.2474259,1.487099,0.82284315,0.063298714
0.31363214,-0.062871541,1.0922613,-0.57530005,0.44012955,-0.56511115,0.15397527,-0.49590482,-0.026917765,0.61079146,0.10393474,0.73390684,-2.0045451,-20.389363,-34.028087,-10.058943,-10.65779,1.242782,1.1367994,0.68758922,1.3619524,1.6843786,1.6506132,1.1563121,1.0368028,1.0939798,1.3180236,1.521846,1.0165438,0.80081106,1.6815321,1.0598485,0.014342394
-0.42080266,-0.076844649,-0.64759203,-0.65977678,-0.93121809,0.1180408,0.31008002,-0.38729092,0.18143871,-0.73194512,0.046804292,-0.6433832,-9.3505284,-4.3316421,-1.9081532,-10.331396,30.225281,1.2694866,1.6119703,1.6354563,1.5632849,1.328595,0.69685031,1.6131345,1.2512859,1.2617662,1.004599,1.6457899,0.94009642,1.1505438,0.69011926,0.83433645,0.013007966
0.24669741,0.91183341,-0.44732373,0.60373765,0.30281075,0.58846485,0.90920447,-0.64959916,0.79214518,0.14266187,0.68285968,-0.35783825,12.468425,-23.187414,-20.867519,-20.390338,19.581461,0.6591929,0.80510224,1.3534028,0.79008006,0.87560582,0.85708312,1.3960493,1.4512499,1.0071483,1.4408907,1.2000093,1.5057373,1.1770232,1.5780866,1.2519077,0.0089299195
0.07727402,-0.93243161,-0.48554302,0.39362941,0.79198412,-0.36511386,-0.93825743,0.55995454,-1.0556368,0.37103464,-0.71052598,-0.61652251,10.676748,34.106155,-7.8529897,34.801766,-6.7146644,0.9745419,1.525665,1.1523304,1.3172626,1.3320916,0.66395943,1.1161267,0.79200195,1.6766984,0.66972196,1.3669016,0.86524357,0.99873149,0.68022546,1.4992775,-0.032560349
-0.87651624,0.26196793,0.26700733,-0.80115701,0.13432719,-0.85394166,-0.77398779,-0.64836579,-0.4697834,-0.82724608,-0.72081281,0.22281616,-7.0490574,-33.507892,-17.139354,-11.114772,24.022966,1.0849605,0.93178646,1.1351064,1.6337304,0.90732894,1.677475,1.1225821,1.1371171,0.77630866,1.4695991,0.70244783,1.1907191,0.76675331,1.5228565,1.1984119,-0.019933314
-0.55878846,0.86191711,0.6712842,0.814323,-0.96426365,1.0973978,-0.010734826,-0.092796376,-0.45626352,-0.10745063,-0.4495013,-0.80888452,0.18990848,-28.208178,15.145402,28.764079,17.872478,1.3659498,1.6684215,1.2096277,1.4623069,0.99290811,1.5065457,1.1134331,0.66997138,1.3590646,1.4487344,0.72936371,1.0158572,0.81228999,1.4078663,1.6082251,-0.018050858
1.0758385,0.49451106,0.7923955,-0.048386981,0.43251342,-1.020675,0.80986475,1.0750762,0.87778493,-0.9303034,0.097453222,-0.44427336,-28.88497,-19.688097,-7.8472726,-9.1099069,-20.205359,0.85303144,1.5493829,0.77860542,1.2212586,1.6432819,0.7892094,0.94236108,1.4126546,1.2355694,0.66525538,0.84709982,1.6067344,0.78511463,1.4215356,1.398395,0.0034153318
-0.41915724,-1.0108075,-0.47944901,-0.54272126,0.41216126,-0.017573009,-0.66816683,0.99971019,0.8916604,-0.83145818,1.0572914,1.0479156,-12.513858,29.591653,-3.0851348,18.13947,20.064657,0.67544277,0.91669128,1.5302608,0.69331103,0.92849796,1.5152233,1.0084073,1.6015845,1.3807655,0.77656272,1.5396987,0.76554056,1.0902708,0.93212879,1.6385726,0.020510194
0.55324094,0.46294498,0.24786545,0.75109016,0.65305632,0.1353191,0.42337588,-0.65718015,0.92712805,-0.68675991,0.78002723,0.9940029,-14.924642,-28.461637,25.270849,-32.8392,21.562122,1.2436829,1.5787848,1.4354755,1.5374331,1.5383586,1.3425021,1.3320409,0.86170304,1.342918,0.97263886,1.0412575,1.4150203,1.0968268,0.86823859,0.93595576,0.0083676772
-0.66295212,0.67864171,-0.87752008,0.98339379,-0.6479241,0.35649486,-0.97879981,0.88984473,-0.55984381,0.71752213,-0.55145806,0.91345657,14.127044,-6.7674649,9.2167949,-3.3286675,-14.914379,1.2355788,0.82258301,1.1526015,1.6738225,1.6847291,1.2417338,1.3706984,1.6775035,1.6006296,1.0822542,1.6461371,1.5264297,1.4043749,0.67910273,1.5295353,0.012461485
-0.15731095,-0.58911264,-0.8010527,-0.31163214,0.69022366,0.25812154,-0.6049597,-1.049608,0.53760762,-0.59173172,-0.83761981,0.8571941,14.635751,3.0638555,-25.780361,9.4689653,34.899948,1.6763088,1.4722546,1.2332193,1.067605,1.1367431,0.79078011,1.0912638,0.82043645,0.77533354,0.8307851,1.4551102,0.78685292,1.2369439,0.66641643,1.4610101,-0.015696229
0.1501325,0.89215304,0.85108877,-0.99320263,0.72419769,-0.51009304,-0.98400513,-0.83054812,0.95894411,-0.33918212,-0.52810713,-0.26900011,9.3996256,-10.492532,-17.991502,16.826786,7.7886113,1.2228595,1.2490352,1.2340732,0.71844066,1.1821629,0.81213234,0.85830295,0.89765993,0.87052262,1.5236349,1.681209,0.88018393,1.1512984,0.77193435,1.4506312,-0.031711558
-0.1408035,-0.23678902,0.68491371,-1.0215097,-0.024287473,0.83580274,-0.60914171,-0.96500865,-0.42824705,0.15482719,0.62775507,-0.67359214,-0.62883418,1.1838837,17.533575,-13.201382,24.367856,0.88344636,1.382924,1.353389,1.6095657,1.1207859,1.3979456,0.77145623,0.76478442,0.98180579,0.7599348,1.3741277,1.5650832,1.1030779,0.93047217,1.0958221,-0.012385491
-0.82199638,-0.45362362,0.27903504,-0.97009283,-0.11267181,-0.23717246,0.83770523,0.57841692,-0.83367907,-1.0833597,0.64454929,0.10013909,22.755552,-27.43365,12.646465,29.144965,-20.571796,0.87230889,1.0955682,0.71425864,1.244891,0.88366391,0.8393677,0.8029357,1.6903107,1.6026299,1.1005353,1.2460965,1.1930746,1.504749,1.3659782,1.095524,-0.024501792
-0.32132861,0.45614407,0.29894407,-0.62448819,0.60212795,-0.36208746,-0.65306771,-0.32672358,-0.053357086,0.46632308,-0.15329718,0.89689136,-27.986819,25.537521,-30.891498,-3.4114149,-5.6495522,0.69465405,1.4506207,0.93242226,1.320952,1.390339,1.0269243,0.96672609,1.4153926,1.0542344,1.1181473,1.152484,0.74806027,1.299035,1.5815089,1.0200844,0.02289695
0.69759923,1.0690141,0.15104277,0.79729964,1.0081457,-0.27518177,-0.24139651,0.21584118,-0.89673056,-0.8164789,-0.084120336,0.22037072,14.682457,18.050258,-9.322044,-15.593808,-5.138104,1.5332971,1.3249628,1.5994479,1.1707275,0.76721347,0.85680177,0.86735351,0.7604618,0.78145563,0.82478999,1.4954196,1.0168262,1.3487363,1.1106657,1.4078178,0.02394679
-0.79889366,0.78958987,-1.0211654,-0.83380235,-0.95628736,1.0089106,-0.6139994,0.95814786,-0.52695484,-0.69443263,-0.62672446,0.40211567,15.219686,17.262583,-17.773721,-32.932926,-13.683699,0.69616198,1.5943805,1.0537213,0.89456338,1.3266654,0.81539235,1.049251,1.3614607,0.77079506,1.2025888,0.75949659,1.359247,1.364425,1.2409706,1.1434302,-0.026010994
-0.71960039,0.80788085,0.71833396,-0.10173263,1.0910757,-0.70924499,-1.0781012,1.0593235,0.016787474,0.66037042,-0.087038639,-0.44702847,-32.823684,2.3477023,-22.167305,-25.898026,-8.1290898,1.3908037,1.4878283,1.529623,1.5236908,1.5705647,0.83086003,1.6645119,1.6517609,1.5452796,1.1136828,0.66612818,0.81628873,1.4147625,0.96415779,1.299991,0.019979333
-0.6837473,0.8333148,-0.6407205,0.4759866,-0.47312194,0.23891845,-0.081401854,-0.27151423,-0.17635108,0.47426798,-0.76949349,0.11742874,32.430908,-23.731297,8.0856438,25.414556,2.4493384,1.2654626,1.1802278,0.83880886,0.86043912,1.1003431,1.1672355,0.87643023,1.0629346,1.3919816,1.3350762,1.4755388,0.78124699,1.5181876,1.4789034,1.6788984,-0.029024029
-0.58701074,-0.66020923,0.59705181,0.088749699,0.61631337,0.54785875,0.16811769,-0.30863485,0.48598176,0.38285719,0.070647529,-0.14900702,13.714605,-8.6286588,18.131576,27.39995,-19.035252,0.79278415,1.1732648,1.4116055,1.4538301,1.3229382,1.1730025,1.2028489,0.93178309,1.0783551,1.2137673,0.68645611,1.2177734,0.81751344,0.99836923,0.8916831,-0.02501891
0.089802834,0.72344635,0.056805889,0.32073317,0.53180394,0.8260244,-0.019994989,0.40878594,0.43040377,0.90746335,0.87491334,-0.81249847,26.783839,-14.023573,-4.1879282,33.49105,14.081648,1.1788129,1.2092037,1.686865,1.4396097,0.67032485,0.99972967,0.65651168,0.8917763,0.68423472,1.6828787,1.6423384,0.68170175,1.1113858,0.91061461,1.2496709,-0.041894747
0.5098415,-1.0444904,0.78323422,-0.083931111,-0.9975603,0.055677305,-1.0544609,0.3419734,-0.93925338,-0.78515747,0.74661865,0.27034611,10.688957,29.304009,-7.5239774,34.511227,10.191208,1.0793757,1.5666948,0.88897109,0.78718257,1.5273829,1.675053,1.3651155,1.2958167,1.0406585,0.79812278,1.6496167,1.2077688,0.66945535,1.0859855,1.358213,-0.0031248335
-0.81619116,0.35362059,-0.90620841,0.42482444,-0.50155505,-0.42839634,-0.15524481,-1.0492803,-0.55113991,-0.33661045,0.91073602,0.90089832,15.669887,23.79333,-15.496645,17.879157,-15.013659,1.4064249,1.5335993,1.1528528,1.6972291,1.330224,0.77437279,1.4835218,1.6006044,0.65896931,1.2472112,1.0281617,0.7642474,1.4060893,1.1423703,0.86769613,-0.017281237
0.19662853,-0.53401031,-0.52357627,-1.0877814,1.0983839,-1.0316164,-0.55445785,1.0756002,0.88770411,0.84772808,-0.29926224,-0.32474896,4.6869915,24.265554,11.174097,-6.9528362,-26.317898,1.2513732,1.6800944,1.047069,1.4393226,1.0943645,1.4836181,1.1189959,0.71356607,1.1549719,1.6129918,0.95297015,1.2193525,1.1074234,1.5159032,0.88475694,-0.016290999
0.38725737,-0.74537712,0.8041502,-0.40743063,0.35700874,1.0605846,-0.78028691,-0.96021173,1.0253999,-0.56698321,-0.52210434,-0.5392961,25.523614,15.377193,4.4761826,-18.798725,29.833597,1.2239595,0.83752593,1.3483277,1.5938179,1.0471925,1.4150283,1.2307669,0.79936798,1.5776595,1.4238889,1.0508903,1.6125819,1.4137456,0.67246028,1.1899384,0.011097075
0.25162901,0.23090416,-0.63142866,0.50679477,0.52793235,-0.46936974,-0.47222454,-0.072278298,-0.86995762,0.53689028,0.54662686,-0.74419858,26.096247,-20.372097,-23.835237,11.172327,33.299134,1.3032406,0.86392829,0.94282281,0.77302798,0.93131407,1.595571,1.1117858,1.3344171,0.89810401,0.98402383,1.2885383,1.5637616,0.94047077,1.1423014,0.75938018,0.0026970218
0.68617363,0.36194277,0.42051443,-0.36907154,0.71760781,0.8885762,0.11121101,-0.12421117,-0.6570739,0.51383536,0.10689566,-0.081517893,-0.72171868,-19.92587,-14.099499,-20.272662,-32.627642,1.2832549,0.96530988,0.71312313,1.0603796,1.4999614,0.70065632,1.5307169,1.0087044,1.3447995,1.0949093,1.1909573,1.6193507,0.72696557,1.6602931,1.0955246,0.015338072
-0.30120885,-0.054766745,0.96444383,-0.26822231,0.17308182,-0.44281956,-0.66371944,0.9770305,0.16105314,-0.29018264,0.53706784,-0.86737284,-0.09254636,-15.426675,3.8740974,11.955406,34.504547,0.69379272,1.6741612,1.0779267,1.3641114,1.2195047,1.5663046,1.6810015,1.5929424,1.0329625,1.6504525,1.6053142,1.0664708,0.97543017,0.70481228,1.0300682,-0.0093349742
0.27437869,-0.061294631,-0.99310593,0.1503428,0.028408938,0.26109015,0.90808894,0.39376294,0.83717753,0.50581497,-0.54591575,-0.4988034,-11.552571,15.936059,17.346938,-0.0094770943,-19.281524,0.656477,1.3589779,1.0413028,1.1269561,1.1516146,0.83660062,1.5466167,1.5362236,1.1596646,0.68227436,1.2851034,1.5832644,1.1253634,1.6832364,1.3548014,0.010929411
0.046949577,-0.4006926,-0.75083049,-0.68700239,-1.096133,-0.72252086,0.1042179,1.0948691,-0.72789998,-0.13895892,-0.022620511,0.2639439,15.609308,-14.36503,-3.0616466,-7.0948649,-33.394019,1.2758923,1.1211905,0.84818079,0.87450525,1.2597337,1.4941724,1.0562085,0.69603432,1.5487587,0.78764231,0.85422817,0.6629132,1.3822308,1.2533375,1.0934962,0.014599242
0.86908586,0.20518598,0.34864352,-0.98950296,-0.86977068,-0.71935262,0.57401082,-0.11701402,-0.64590873,-0.95713603,-0.060000813,0.96005069,21.206817,-17.024156,-34.996318,26.889598,13.467212,1.6765252,0.90909092,0.84114538,1.2803363,1.2624116,1.3516099,1.1074545,0.98784962,1.5385015,1.645543,0.99039422,1.2555919,1.1828218,1.3861979,0.72850831,-0.011205594
0.34393736,-0.9178003,-0.87804007,1.040288,-1.0411871,-0.87444087,-0.043162231,0.28028568,0.25746166,-0.69988152,0.1566912,-1.0306282,21.018467,-32.627029,17.524166,-31.343113,-33.694567,1.1061407,0.95690627,1.2236945,1.6329968,1.1775267,1.6415079,1.4226608,1.4094475,0.88395598,1.5480884,1.0719649,0.91408637,0.79959265,1.1535884,1.4608472,-0.0010107069
1.0117798,-0.77285276,0.83513765,-0.79168516,0.99145386,0.67171358,-0.76545968,-0.25896445,-0.3671738,-0.37377344,0.86099464,0.56118801,-3.717256,34.078852,23.26311,33.092679,-31.351192,0.73277828,0.6546218,1.6785314,1.0272416,1.048781,0.81203585,1.3365916,0.69473344,0.6849842,1.6794189,1.2426242,1.6344339,1.179919,0.89931441,1.3772221,-0.026374243
-0.21745705,0.12830768,-0.86442731,-1.0770664,0.85848136,0.10370371,-0.94990233,0.56546239,-0.84796934,0.64262919,0.81573351,0.75111893,-33.819199,0.72132805,13.360485,-10.320219,8.0799789,1.1780746,1.4000433,1.3774567,0.81506212,0.7491151,1.1775047,1.2716955,0.93594164,1.6712026,0.70205732,0.92730949,1.4905966,0.80717654,1.5661047,1.4718902,-0.0023614982
0.48937399,0.2190182,-0.27931817,0.60971573,-0.3829092,-0.94486738,-0.5776046,-0.90748345,0.98622744,0.79590446,-0.44936319,-0.68679199,7.6710538,-12.598985,-1.14065,9.0946435,-26.326747,1.1205176,1.0885798,0.86141194,0.65044364,0.75632717,1.64079,0.90693393,1.3386434,1.5799148,1.5285077,1.6785452,1.2587009,0.93678887,1.210516,1.6931881,-0.016772656
1.0217357,-0.576695,-1.0136618,-0.070329266,-1.0992873,-0.95707267,1.0049006,0.16301622,-0.28356552,-0.40373491,0.89577207,0.10087953,-1.1250551,-8.8011109,-10.270989,-4.5084366,-33.294742,1.10406,1.6864129,1.1916589,0.81118198,1.6855669,1.672676,1.3157634,1.335979,0.8990719,1.5013804,1.4509418,1.0786326,1.6788828,1.683984,1.3191693,-0.0057949929
-0.72520542,-1.0328776,0.23877846,-0.23507673,0.87485191,0.35417503,-0.38412176,0.66677324,-0.23154752,0.81405279,1.0917641,-0.13582059,-1.7637068,-32.620453,-11.951769,26.616423,-27.778476,1.5823836,1.0207224,0.68097823,1.5511062,1.3923306,0.90105069,1.1590118,1.2620475,1.5319636,0.9620002,0.73732375,1.4502571,1.1210019,0.82828993,1.518787,0.01388205
-0.25572354,-0.87505947,0.5557292,0.49987642,0.80422092,0.78113247,-0.22229619,0.16409372,0.23308802,0.88678352,0.76917981,-0.99117808,-13.845873,-27.58273,27.064166,7.4299032,-5.6162586,0.68813455,1.0773532,1.1752321,0.87527484,1.5942016,1.1962284,0.96110286,1.4058288,0.96451222,0.95683668,1.1041121,1.5115145,1.6736712,1.2424806,1.3207428,0.01799607
-0.31427731,0.2151009,-0.14405518,0.089967192,-0.91242144,-0.63930371,0.097758271,0.28445538,-0.03418705,-0.61277416,-0.44038509,0.66833183,-13.545719,-22.893251,23.132824,13.364876,-6.5275746,0.890807,1.1932769,0.70512132,0.97405771,0.73795185,1.506822,1.5575032,0.75581008,1.3499689,0.82682365,1.025092,1.6709824,1.2018462,0.8789902,1.0382083,-0.0089422256
0.92404661,0.30220709,-0.76070048,0.56079824,-0.070216343,0.79859628,0.80977612,-0.41466369,-0.25768033,-0.77608659,-0.73704247,0.14119988,9.5946601,-22.547294,27.621869,0.76009312,34.885065,1.0742441,1.42032,0.9177688,0.74017913,1.1406001,1.5665932,1.2812616,1.0641555,0.91166291,1.0185248,1.5469341,1.6217874,0.73127508,1.6402777,0.69747617,-0.027686755
0.95704548,0.73738039,-1.059179,0.21304645,0.51269744,0.77383412,0.2648713,0.68353775,0.042993399,-0.91872797,-1.0756546,0.39583267,13.915867,13.983076,23.562325,22.002005,-22.294011,1.3933173,0.68463214,1.0123221,1.2477421,1.5518885,0.89054882,1.0539844,1.1164436,0.86785249,0.74676004,1.4959599,1.6985956,1.1965163,1.6001951,1.1291951,-0.03497733
-0.40380328,-0.25320554,-0.33819764,0.62417189,0.67900508,0.83134552,-0.75158517,-0.1762116,0.61942336,0.03870237,-0.46727143,-0.3918436,20.166137,-7.7419029,11.837407,11.303672,0.81932635,0.88126909,1.539651,1.0135189,1.412086,1.128867,0.71780097,0.93087989,1.6483465,0.85926792,1.3658583,1.180925,1.0059167,0.69227748,1.4075716,0.85654228,-0.015890136
-0.98203759,-0.74878739,0.66464381,-0.83488727,0.60151408,0.31611265,-0.15610753,-0.15529896,0.23971244,0.068489271,0.96210394,-0.010640572,-22.529521,-23.654225,-26.558049,28.867395,4.3033119,1.4114409,0.78707437,0.75895656,0.68297527,1.5153642,1.2763998,1.2508381,1.0851203,1.5165133,1.6883768,1.6488152,1.3869159,1.2461663,1.3169713,1.686437,-0.03343114
0.88439505,0.21035374,-0.76144994,-1.0397665,1.0101955,-1.0097629,-0.51595975,-0.62557408,-0.055415525,1.0559697,0.82561186,-0.3561704,-5.2599731,5.6321937,20.279262,3.550539,33.908225,1.5581398,0.95528058,1.2007128,0.72972442,0.77835772,1.2582766,1.1550111,1.2208013,1.3066787,0.89892512,1.1344717,1.4653146,1.1419515,1.1787124,1.6201073,0.017641543
-0.69411904,0.24556193,-0.57915685,-0.60689143,-0.52953151,-0.018323134,-0.08083834,0.40299378,-0.15727863,-0.045793111,0.045378036,-0.42420251,-1.3139795,-34.053192,-12.004885,-26.098934,-24.790671,0.92285534,1.179672,0.94754134,1.3273714,1.1307062,1.179299,0.97777432,1.2529876,1.5122532,1.489414,0.88174553,1.1471467,1.3438468,0.83381309,0.89665857,0.025789822
-0.70022898,0.91431466,-0.52816774,0.91140784,-1.002493,0.71843164,-0.65903046,0.61656026,0.2990495,-1.0516358,-0.55685334,0.39868883,1.9154617,-6.8349906,-5.6864202,-21.66411,31.305162,1.5627701,1.0776544,0.98727018,1.2498431,1.1628982,1.480478,0.84442186,0.69819578,1.1265018,0.86605144,0.92657861,0.75661621,1.2486514,1.0842238,1.149013,0.024442645
0.077341375,0.19961029,-0.9990862,0.79928266,-0.84904567,0.14568235,0.8683628,-0.95174584,0.36914178,0.46295214,0.36822257,0.40748393,17.148696,28.133419,-11.633141,-8.2073944,28.321486,1.1631096,0.83318988,0.9223938,0.77265965,1.0406998,1.4917614,1.4833194,1.3485064,1.4468075,0.89380976,1.2605625,0.72436113,0.93751389,0.79589241,0.91369733,0.0095594129
0.91326037,-0.65461156,0.11510261,-0.69147238,0.74565798,-0.48193008,-0.4588481,0.43578929,-0.94099146,0.79055801,-0.1434892,0.80602276,8.8192589,-34.716383,-28.250799,-1.1783846,4.8902108,1.3215822,1.4817715,1.5840025,0.92929742,1.3017098,1.3861148,1.4320684,0.97394719,0.98037642,0.88642047,0.96880923,0.72670327,1.4518734,0.98617929,0.76540932,-0.020871311
-0.39897439,-0.46134337,0.28089307,-0.52973625,0.93891158,-0.56122547,-0.51285208,1.0253497,0.78765256,-0.5949237,0.49266313,0.52174022,32.368232,-27.124364,30.821533,17.499747,-21.757447,1.2138121,1.4397469,0.8759204,0.89423657,1.0840944,1.0747526,1.5661975,0.93119645,0.66872404,1.3949543,0.8972945,1.0285817,1.5230604,1.4755821,1.5082412,-0.0085343621
0.17669666,0.93565829,-0.26142182,0.11492945,0.79634566,0.36848164,0.36343496,-0.8897831,-0.60354238,0.78010781,0.14919389,0.51077573,-23.450135,-26.418495,-5.652776,-16.206113,-6.1478909,1.0609677,0.88483714,1.6577587,1.5504058,1.1697616,1.3332536,1.2924479,1.1215133,1.0238927,1.4641285,1.1576408,1.3180897,1.5843237,1.0791318,1.6682134,0.014727494
-0.6538611,-0.46651179,-0.8192639,-0.71026746,-0.66977941,0.28636278,-0.96314729,0.067993929,-0.7657598,-0.90475297,0.69610804,0.19675381,-19.974067,15.851795,1.125428,15.06792,-13.475911,1.6303712,1.1482232,1.5865902,1.3714261,1.3088742,1.0489891,1.1595988,1.6769625,0.9085142,1.6480951,0.83415199,1.3425105,1.4740836,1.5239045,0.96281184,-0.059038469
-0.93505177,-0.54026782,-0.13606698,0.20174814,-0.25404759,0.90320661,-0.29634574,0.31228987,-0.63123858,-0.69671336,0.6252105,0.54201603,29.59276,15.521902,-13.399976,-23.39393,8.2118303,0.81846532,1.2465555,1.5578234,0.88780386,1.1195076,0.91340093,0.82937236,0.81130951,0.67892885,0.70721872,1.5750618,0.8145056,0.84569363,1.0728289,0.73477344,0.028612365
0.96820279,-0.86568608,-0.24202436,0.65898951,0.89424889,0.89018031,0.68208506,-0.18221612,0.86061541,0.78476871,-0.68315267,-0.1682816,-7.8662454,22.014226,-26.907151,-28.478914,14.886801,1.5119205,1.1475076,1.1108835,0.86910172,0.74264811,1.6868579,1.3214476,1.3193764,1.1583554,0.7297524,1.2486642,1.2993875,1.2056153,1.2267864,1.0985313,-0.0013141682
-0.021409956,0.81770163,0.84248344,-0.4813254,0.90749389,-0.81079485,0.88570269,0.19657304,0.73252191,0.85075938,0.068110418,-1.0070449,-32.330511,31.105275,26.360346,8.3286536,-20.318495,0.68081793,0.95687156,1.6903783,1.6888403,1.0383121,1.2610778,0.98500687,1.0105282,1.5475636,0.65118108,1.6003506,1.6429622,0.66522786,1.434633,1.0270259,0.022594197
0.94114073,-0.48089907,-0.72364666,0.97479793,0.023069615,0.68680493,-0.023359093,1.0452757,-0.77937916,-1.09737,0.47899681,-0.46005668,-2.6966139,-31.989993,14.18405,-28.671636,-4.1887742,1.4640921,1.5959983,0.94263967,0.84498622,0.73334679,0.75945879,0.723954,1.4449329,0.88790997,0.80281153,0.65334677,1.2491192,1.5965294,1.469218,1.6470807,0.02165211
0.96560221,-0.59123167,0.96939771,-0.5747244,-0.88059479,-0.11360839,-0.58457509,0.69163479,-0.21516361,-0.91000329,0.41855777,-0.26794728,12.647612,-21.586201,10.724124,-9.6519501,-30.324654,1.2279966,1.4890176,1.5695675,0.87068048,1.0267811,0.65977357,1.1144528,1.0088056,0.94490759,1.1618596,0.82500815,0.96193818,0.74496759,0.77021258,0.86282452,0.0063080886
0.24435765,-1.0276,0.97562374,0.70774357,0.033919427,0.51305894,0.25224348,-0.43721025,-0.94994419,-0.13805791,-0.2731826,0.3718081,-28.829871,-3.6428939,23.881777,1.0200612,-5.8311842,1.1043175,0.76404448,1.1456092,0.7032374,0.81099464,1.6869927,1.4864313,1.1511468,1.3743608,1.2813291,1.1481553,1.4965915,0.76278296,0.94313664,0.79746045,0.0076215721
-0.32915871,0.8025365,1.0595767,-0.12596707,0.61901381,-0.24730273,-0.089851895,0.65110264,0.2864932,-0.97031,0.6355515,0.61312655,-7.4595852,-3.2483358,5.2193913,12.309039,28.014029,1.3518575,1.0683245,1.6806483,0.9068135,1.4144872,1.5868847,1.0705532,1.3377729,1.6497024,1.5983952,1.3273473,0.72670003,1.3974066,1.1620965,1.65573,0.0039163739
-0.25179728,-0.85993199,-0.29414684,-0.1156787,-0.19438775,0.80975137,-0.83065561,-0.84778953,-0.73350612,0.20046529,0.17610367,-0.23413311,-27.333468,16.4074,29.171058,-2.0255776,-23.881966,1.1119214,1.5137325,1.1518721,0.96449516,0.6702366,1.6166178,0.99573675,0.74757023,1.4628,0.87913134,1.3105068,1.1875443,0.95769626,0.8510454,0.71997359,0.013200545
-1.0030202,0.65323046,0.86298366,1.0038308,-0.22560406,-0.45340183,-0.39151464,-0.43486615,1.0623437,0.19709285,0.67251245,-0.53360937,-12.169509,7.0653247,26.911458,30.876743,-34.577582,1.093574,0.79817273,1.4390617,0.9101952,1.5506863,1.6840929,1.0495853,0.68013216,0.98116187,1.4874948,1.175349,0.74023902,1.0972094,0.99779033,1.6621298,-0.028643205
0.71480803,0.014107542,-0.3989482,-0.021118244,-0.87684166,-0.80917535,-0.48375225,-0.29645528,0.67042103,-0.49821134,0.79145275,-0.4993315,-14.075579,31.737169,6.6057648,3.0892368,-19.197452,0.85128243,1.5537607,0.85570531,1.3391641,0.88171116,1.6195254,1.5631618,1.3608111,1.402997,1.6710917,0.93828574,1.1684411,1.1891691,0.96476029,0.92618738,-0.015460112
0.74614508,-1.091696,-0.9196521,0.9855165,-0.15733417,-0.97925351,-0.13819909,-0.44675349,-0.80779236,0.7688931,0.78744136,0.25367465,-18.265556,30.799669,0.038170337,11.528858,5.5132083,0.88236887,1.1236631,1.4552741,1.4423176,1.0313586,0.94464532,0.95394947,0.8787729,1.5860706,1.0387441,1.1725965,0.67925083,0.86870579,1.4381783,0.76195931,-0.018178702
-0.8899846,0.40809658,-0.16000797,0.26346502,-0.96078026,0.266592,1.0147101,0.097206958,-0.18499977,0.25727297,0.52701648,-0.46869539,-4.2650216,-2.2186174,21.697675,-27.180074,4.4949065,1.4134069,1.2793531,1.5368224,0.7235791,1.4438565,1.6966047,1.3352671,1.5336091,1.3177572,1.2444635,1.0488245,1.54318,1.5256826,1.4472961,0.70549857,-0.0044247874
-0.33636354,0.66221936,0.20044909,-0.096158477,0.21389116,-0.68407847,-0.33436545,-0.94165927,0.56230191,1.0116921,-0.046249483,-1.0275179,4.9736783,12.610877,-8.982175,26.584478,-4.6860337,1.0524852,1.1190737,0.97141929,1.5440187,0.92275608,1.6114732,1.679884,0.65955992,0.67350409,0.88323897,1.0473013,1.1436446,1.2850448,1.6472487,1.3095482,-0.027258986
-0.72957727,0.25918844,-0.2664581,-0.96342399,-0.18426313,-0.55677714,-0.51962872,-0.7148355,-0.47584653,0.62813928,-0.81363024,-0.5871954,20.195681,-1.1952443,1.5289984,7.8761457,4.3802544,0.85904623,0.78999159,1.4885824,1.6037217,1.6003032,0.84647923,1.6763356,0.87325775,1.2929527,1.2054623,0.7551103,1.1388799,1.005231,0.71819488,1.2513943,0.0023679026
-0.40129139,0.18095775,-0.019015948,-0.72938913,-0.9769347,-0.74998495,0.32926033,0.90537109,0.89616387,0.088444411,-0.11642555,0.44801621,1.2456573,5.7628162,-24.347932,4.3027536,6.3797703,0.94699197,1.5439857,1.4171253,0.7756653,1.1567163,1.5310391,1.1733142,1.1914934,1.1788866,1.39673,1.3405013,1.3055093,1.1946074,1.0171425,1.4132957,-0.0093804812
0.70405262,-0.42462304,-0.51165012,-0.76449453,0.56857582,0.89973232,0.6873806,0.85535844,0.3955013,-0.7339426,-0.53800202,0.56031299,18.163259,-0.11251204,-0.98992679,22.300427,23.273078,1.034318,1.3325536,1.0787539,1.6175679,1.2137641,1.6828439,1.0576171,1.2699353,0.75323553,1.1295534,0.70365951,1.6053902,1.2930393,1.6118995,1.4956419,-0.0073087486
0.89737788,0.70041003,-0.070440858,-0.77569875,-0.81599843,-0.80534525,0.11424873,0.35110941,0.87075651,-0.30476459,-0.43994126,-0.6685508,-33.599063,-9.4581645,6.6287741,-30.193501,-32.171321,0.82405413,0.67771738,1.3459662,0.7544817,1.0738672,1.3868412,1.04029,0.90325998,1.5405188,0.89895313,1.6053205,1.1719942,1.0560046,1.4691517,1.5827294,0.0558046
0.85515526,-0.82018357,-0.77337739,0.81410011,-0.31212983,-1.0771223,-0.081123395,0.010311476,-0.42509367,0.37490448,0.55552326,-0.76229559,4.4942943,5.6046988,-21.827068,22.472561,-23.663663,1.5472964,1.4105024,0.76308309,0.7374492,1.4586692,0.75382095,1.5186813,1.376352,1.147509,1.1335479,1.6893824,0.70010066,1.641775,0.6620904,1.203284,-0.033209275
-0.58672483,-0.25324172,-0.94640296,0.0032355247,-0.59840737,-0.88036172,-0.59464681,0.74801819,-0.39799226,0.65145341,-0.41534913,-0.78231131,6.417133,-17.244833,-33.900657,31.656745,-15.088818,1.3585654,1.4588697,0.97308935,1.2627063,1.0543281,1.6424673,0.74806503,1.3789109,1.1061747,1.5280027,1.5913255,1.1578416,1.5445733,0.79303562,1.1996545,0.0029773572
-0.80062786,0.23130003,-0.57541529,0.70232612,-0.85350273,0.0058549685,-0.55571312,-0.2295247,-0.3741265,-0.67469302,-0.92944128,-0.80675145,21.343497,-29.848991,18.004326,-11.29382,24.766533,1.6419058,0.76102858,0.85739102,1.3208917,1.4259969,0.77981555,1.6100193,1.3939896,1.4834926,1.1095319,1.2520683,0.76122525,1.0128491,0.65444546,0.81487985,0.042260038
-0.7108675,0.24097688,-0.67118615,0.83367281,0.9780967,0.48774794,-0.72062055,-0.94404958,-0.027521326,-0.73680766,-0.3105797,0.78568752,-20.19786,34.572845,-4.193324,12.803388,6.5384282,1.0454529,1.5771364,1.0309877,1.0102554,1.1632525,1.1352775,1.3594445,1.5338203,0.66701757,1.0642709,0.75134127,0.79266978,1.3510408,0.99303568,1.550713,-0.018473312
-0.19223573,-0.40619231,-0.82165261,0.92594229,-0.82369959,-0.49096834,-0.62597388,-0.17750225,0.91856385,0.51629728,-0.29889364,-0.72703236,-30.26464,32.196751,30.801069,23.569793,7.5118457,0.74887258,1.3014412,1.0723691,1.406901,1.1350878,1.3213515,0.75409122,0.81110679,1.471744,1.0520715,1.5159813,1.1472532,1.0337414,1.0917303,1.3116472,0.01745769
0.58676835,0.98464399,0.57221242,0.44488251,0.14980161,-0.27082858,0.35182539,-0.29057887,0.47497895,0.18434753,-0.22392058,-0.74764587,1.8531849,-3.5207801,-23.750715,31.738255,24.847936,1.1638716,1.0403576,0.98997985,1.6414056,0.75384098,0.80537639,0.71092056,0.79183301,0.93741332,1.2055962,0.90567201,1.1293913,1.1295289,1.342241,1.1440586,-0.018350629
-0.58944479,0.21384205,0.68971323,0.4758878,0.065501869,-0.86663042,-0.71974933,0.50383273,-0.87463833,1.0364089,-0.26475955,-1.0044585,21.325947,25.183682,-27.854601,7.7224503,11.222982,0.79497918,1.3150207,1.4527936,0.70264827,1.4094534,0.98332426,1.0807694,0.84049868,0.91135135,1.0320992,0.79079357,1.3175214,1.4818534,0.86073633,0.84557146,-0.017590464
-0.11629079,0.51374244,0.74420783,-0.66438727,0.74843018,-0.070869883,0.81012502,1.051147,-1.0616512,0.44693143,-0.59982203,-0.4662827,26.482258,27.315406,30.021354,8.9026198,-33.669107,1.2247383,1.3262152,1.6485373,0.91604798,1.2183641,1.2956636,1.6173636,0.92988,1.6431093,1.0387601,1.4406903,0.98249123,0.73013864,1.4401773,0.76023031,-0.010076227
-0.17638333,-0.067881199,0.4612928,1.0682179,-0.034871155,1.0841702,-0.2174048,1.0064344,-0.44771956,0.54839552,0.39310658,0.80130693,5.928865,-33.565301,-2.0213488,-22.809924,23.60267,1.1761033,0.81756726,0.85289012,1.2742411,0.6695824,1.121442,0.87643587,1.1576599,1.6398697,1.1907526,1.3286131,0.99958992,1.4578554,0.72635903,0.91616927,0.043826652
-0.037957558,-0.20936537,-0.22003541,0.77601889,-0.40067909,-0.52373023,0.72288214,-0.62942287,-0.96774255,-0.19552661,-0.73817317,0.92959697,-31.027464,21.405218,27.494931,-32.696819,34.56703,0.69620435,1.2565254,1.1216779,1.6896459,0.92811951,1.4546262,1.0524925,1.242224,1.2079771,1.0204451,1.2701769,1.663784,0.96836858,0.67070944,1.1634834,0.026760097
-0.75194287,0.40930101,0.2908791,0.17275442,0.65190021,0.49653707,-0.34239501,0.45072545,-0.60804709,-0.16070625,-0.47687249,0.97770243,14.59663,-24.4432,13.131224,-13.514006,20.092827,1.4770288,1.6730807,0.7681188,1.3726148,1.3375029,1.3120678,1.1738601,0.91658279,0.7569449,1.5230002,1.5143217,1.6041365,1.2222552,1.5938303,1.2565381,0.023951236
0.33811685,0.21704001,-0.54017744,-0.81618311,0.48888251,0.75517233,1.0894566,0.66702553,-0.38943061,-0.59452822,0.54208465,-0.11613329,30.6171,11.592472,24.674374,22.198653,-7.2408128,1.6798778,1.6059267,0.8593055,0.94758485,1.008647,1.4296321,0.97603104,1.3536109,1.1384566,1.2393298,0.86603712,0.68584144,1.3871374,0.76784202,0.92082834,-0.028624878
-0.96974255,-0.82289594,-0.17870784,0.44819382,0.82521246,-0.47164807,0.82001878,0.20286725,0.96189233,0.8310045,0.11417554,-0.87903567,-9.5138417,-19.136858,16.829198,-21.667509,-25.820916,1.5928833,1.0888195,0.68922118,1.4903835,1.4251933,0.92365133,0.9079608,0.74710246,0.95111892,1.6056419,1.3226585,0.67209066,1.2777856,1.4427645,1.1931552,0.016767208
-0.87020283,0.81389129,0.57643266,1.0027557,-0.70060677,-1.0370207,0.97731299,0.51055284,-0.084625535,0.52594794,-0.83473472,0.96633454,22.963156,31.77026,2.7673651,31.105294,26.679192,0.83267214,1.670635,1.6619135,1.0309303,1.0963371,1.0378052,1.1425406,1.6291114,0.97583558,1.2186478,0.81290856,1.3041041,0.67736737,0.71336735,0.96501601,-0.066442265
-0.31620838,0.74641623,-0.93270582,-0.69601157,-0.77458447,0.31884285,-0.45104604,-0.38187707,1.0083123,0.32517239,0.37200354,0.17995522,23.06074,-8.1392411,-16.22598,9.9581436,-3.4809881,1.4004898,1.5318081,1.4980277,0.75142709,1.1850876,1.6679325,1.3918085,1.5749218,1.6104339,1.0127039,1.3636607,0.99581256,0.97168984,0.84109544,1.4910556,-0.006614
-0.0056994799,0.96989497,-1.0136875,-0.50351506,-0.3836728,-0.58400234,-0.67779691,-0.31770683,-0.24785341,-0.54875665,0.13474889,-0.3636582,-21.109911,-34.266295,-23.617789,25.815822,26.523767,1.5493729,1.6610385,1.0248687,1.0677508,1.4876273,1.3027861,1.6260477,0.93446173,0.94829163,1.3374378,1.2677512,0.79470943,0.98133059,1.1733038,1.0169661,-0.014536863
0.88878749,-0.73595882,0.76115435,0.46996492,-0.52014672,-0.624328,1.0953603,0.93041376,-0.44160898,-0.1094798,0.63214137,0.4761674,11.665533,-7.3943513,-26.862519,21.645865,12.052369,0.93745269,0.81731731,0.85196707,1.510504,1.4899131,0.86871762,1.6370545,1.1252707,1.1746862,1.1512866,1.6235101,1.333627,1.2693561,1.5175519,1.2944219,0.00034387476
-0.99624867,0.10919195,-1.0718272,0.94999701,1.0259262,-0.51876937,0.5336908,-0.44815578,-0.18578623,0.23393495,-0.2725927,-0.70932072,-4.8296801,27.566637,-17.523608,-29.282149,24.918717,1.1580464,0.78520408,0.82492045,1.5880795,1.2013196,1.4781789,1.0534407,1.4286296,0.92797153,1.0675184,0.73098791,1.0137667,1.3776812,1.4376053,1.6328262,0.017667342
0.59657026,0.79179971,0.93376089,0.83565629,-0.87126363,0.57807102,-0.049757072,-0.60346158,-0.061121291,-0.27890045,1.0330653,0.71648548,-12.141094,-5.3752581,28.036747,-26.398748,-23.755709,1.4420912,1.4266596,1.418201,1.0038058,0.91454734,1.1970643,1.3592893,1.0257891,0.78803278,1.1168818,0.88251957,1.5564366,0.68004192,1.564489,1.6163768,0.037998895
-0.064087928,0.44046922,0.74559321,0.62868692,-0.40579077,-0.67035867,-0.65278287,0.062292767,0.17586597,0.16892188,0.012833578,0.18068134,-8.4765607,-15.555598,7.0577562,-30.292322,-13.047639,1.4499734,1.6023188,1.1214809,1.5288217,0.65568126,1.6349541,1.5232594,1.6703289,0.71806835,1.2247471,1.4741089,0.89838915,1.5764807,1.5611096,1.5182338,0.040155269
0.065478656,0.94234357,-0.056895713,0.36871138,-0.17353949,-0.65193441,-1.0714734,0.29882411,-0.44146261,0.15138571,-0.036259131,-0.25239642,2.1004399,22.092681,31.692612,27.735553,21.431108,0.76450323,1.505715,0.80149947,0.65166661,1.3606789,1.2800632,0.87212628,1.1763358,1.5752257,1.4681295,1.2024206,1.082686,1.5532018,0.91251845,0.69756363,-0.018667912
-0.36248257,-0.69643093,0.97374637,-0.057558295,0.22826623,-0.98481742,0.91119959,-0.10442998,-0.26096903,-1.0714939,-0.046206506,-0.30520305,31.426174,29.702209,-34.970616,-31.136142,14.853194,1.4393612,0.69323309,0.66855745,0.69504841,0.72870358,1.4710913,1.6312119,1.6280113,1.3852986,1.3638386,0.83451984,1.2249975,1.4824772,0.84402413,1.3634931,0.056633453
0.3198235,0.63688073,0.9624309,1.0862849,0.13886982,0.72428493,0.95599881,0.73879772,0.77076055,-0.81312984,-0.97344097,0.79217322,19.54547,-9.2779848,24.909154,-21.844657,6.8494631,0.70889213,1.3499912,1.2029308,1.2576541,1.192588,0.67604596,1.6044582,1.3784501,0.71109441,1.613673,0.85158972,1.4684459,1.2707108,1.1872443,1.1646985,0.023527219
0.23705416,-0.62688374,-0.075781619,-0.37416554,0.86819759,0.66978512,-0.19039377,-0.23601534,0.49338855,-0.48084012,0.26726434,-0.87990354,16.191733,-25.549645,-32.878669,-11.794284,13.462966,1.6561139,1.2055373,0.96456956,0.87059066,1.6172658,1.3865397,1.2223515,1.1123532,1.4209697,1.3383691,1.1687812,1.6562966,1.1270788,1.1138269,0.98870252,0.023731833
-0.0037058849,-0.70959195,-0.31207874,-0.21853013,-0.31401118,0.28982562,0.059769668,-0.44667264,0.55105721,-1.0531847,-0.19908609,1.0128435,-15.540584,-20.602803,18.695926,-7.5723091,-7.7984389,0.74956521,1.3924862,1.414752,0.78712414,1.5954925,0.84280586,0.83809688,1.4942531,1.3626282,1.4928255,1.5173499,1.049539,0.95185139,1.3162804,1.6251976,0.038108797
0.35985909,0.58589058,-0.57332042,0.72508434,-1.002075,-1.0532891,0.24547913,0.22833852,0.23009586,-1.0219824,0.82818918,-1.0215058,1.3498084,6.2294612,-21.445937,-11.868895,19.481621,0.68911391,0.73751319,1.4842002,1.4528187,1.1244786,1.5120814,0.70234312,1.5307698,0.84872107,1.5549516,0.92105067,1.2986222,0.94278101,1.1203746,0.78581013,-0.044007875
0.80810769,0.13253166,-0.24368199,-0.81133584,0.58982133,-0.4826707,0.28823368,-0.30661948,-0.82747702,-0.20390649,-0.83543646,0.16773751,-3.2119236,-12.800091,-21.123821,11.94542,6.6747105,0.75289856,0.71611201,0.89452941,0.75579907,1.1649723,1.6892026,0.82872807,1.5326241,1.5629951,0.65932745,0.96638803,0.98356831,0.98257065,1.0149952,1.0240546,-0.010814442
-0.2931362,-0.72290901,0.17785564,0.62259694,0.59831994,-0.58901745,0.79888975,-0.85528458,0.84581378,0.51379855,-0.51173958,-0.068888416,-34.160787,-0.3498001,0.90979341,30.897802,-30.645607,1.1642026,1.3537979,1.1315988,1.4817726,1.6027799,1.5213356,0.83777905,1.4024439,0.77386278,1.311775,1.5021719,1.1025924,1.1707109,1.5386339,0.71923281,0.0027866246
-0.68924453,0.8042812,-0.40497235,-0.10984548,1.0834419,0.73770736,0.038056261,-0.33084185,-1.0966891,0.92738269,-0.80528125,-1.0091733,18.999286,-18.998356,34.626207,-17.340087,-24.840448,0.97395313,1.080172,1.3010646,1.0433936,1.6162655,1.3734711,1.028556,1.0907196,1.1242815,1.3490549,1.2151713,1.1837601,1.4053408,1.1623559,0.76602693,-0.016408343
-0.65016479,0.082061853,0.36855302,-0.63598123,0.96082157,0.42780644,-0.96281007,-0.8617748,-0.47864343,-0.19798345,-0.24699968,0.60522917,-32.424305,-5.2860907,-13.327101,11.417362,21.611415,1.0708401,0.90933685,0.77446151,0.87462122,1.108846,1.2739672,1.3169706,1.6741516,0.9158246,1.663982,1.1453898,1.2171771,1.2961501,1.3945874,1.0307581,-0.027747895
0.36814715,-0.86002642,0.31793388,-0.33436898,-1.0009342,0.526803,0.34155666,0.85306898,-0.69845474,-0.053625783,0.34855344,-0.30436119,-8.1930416,-10.449387,7.1515067,5.3726008,-2.6976881,1.4743526,0.79479143,1.3096341,1.2194813,1.1713789,1.2158278,0.66833965,1.2345205,0.88616218,0.82770886,1.2027965,1.1008387,1.096807,1.5853154,0.94602416,0.00037403438
-0.30761494,0.034752724,-0.8755173,-0.54172692,-0.46877694,0.69455493,0.48297458,0.42078837,-0.1632672,0.46356485,-0.32949491,-0.44980507,21.741605,11.157254,-10.033004,5.3080745,32.807489,1.2570318,1.2328356,0.91856087,1.4525538,0.87233263,1.4945369,0.8818537,0.86520323,1.370764,0.68121288,1.2948567,0.65723382,1.478734,0.93306379,1.6031993,-0.030330147
0.094729147,-0.046378146,-0.99083814,0.88024996,0.91541271,0.33384342,0.96438952,1.0181199,0.22793569,0.057133165,-0.77608636,-0.73315276,-14.57766,-6.7291428,23.297793,-14.000435,34.694421,1.3119634,1.5188414,0.91735708,1.170393,1.4452221,1.5481052,1.3546698,1.0852235,1.1506015,1.6595188,0.68227368,1.2737137,1.2563214,0.84293804,0.95969945,-0.0031187435
-0.53691743,-1.0029788,-0.84895594,-0.54520793,0.40195863,0.037832256,0.30253188,0.2997375,-0.48402874,-0.54525291,-0.35408991,-0.38430445,-6.511648,-31.268718,26.648534,21.904469,18.415893,0.81376142,0.93818391,1.5569597,1.071505,1.5850552,0.77322817,1.1459066,1.5023445,0.85336222,0.8088541,1.4108352,1.1063865,0.88780641,1.1622642,1.3240682,0.00025805849
0.18763332,0.022572819,-1.0654985,-0.44171314,0.33899234,-0.46226742,0.14420575,0.24153261,-0.12744796,-0.079930826,0.26179092,-0.50879663,32.238387,30.572241,27.652494,25.467842,-11.985958,1.3550835,0.68820082,1.1411622,1.5623979,1.1211425,1.0918613,1.412344,1.2658092,0.7056809,0.92880686,1.4569037,1.5301286,1.6213222,1.3127205,1.642616,-0.051956774
-0.05823393,-0.1315514,-0.87389141,0.3952097,0.96249391,-0.05372863,0.81912461,0.56838218,-0.15561408,-0.6582529,0.49035116,-0.95056709,12.359616,-31.930274,-32.111407,3.5908443,11.320164,1.1450454,0.67860504,1.5648249,0.96264318,1.0438543,0.95902013,1.0513471,0.8901703,0.99222862,1.6363593,0.99112399,0.92081952,1.6136528,1.5621663,1.4298044,0.019010775
-0.9479829,-0.16138807,-0.94074834,0.47844639,-0.91458981,0.30188221,0.37628971,-0.35313349,0.29635642,-0.1328471,-0.65968763,0.56716175,-27.861788,26.932302,31.200606,18.579904,2.4476407,0.83745257,1.1653623,0.89382759,1.5602945,1.4691101,0.88346172,1.6410498,1.0735256,0.89427995,0.7630444,1.1372247,1.5348081,1.5191463,0.79240842,1.1583087,-0.011726187
-0.37780821,-0.97802592,0.70188225,0.48293242,-0.28774036,-0.1987268,0.45411129,-0.87923161,0.80619179,0.91872595,1.0416627,0.072289433,33.648339,-2.3638147,31.367102,16.890485,28.37582,1.210976,1.0244463,1.3182849,0.66482468,0.95840989,1.2950647,1.0021014,1.6674907,1.3163716,1.0572047,1.6899264,1.4431986,1.1393936,1.2382654,0.82589263,-0.0084894725
-0.099507355,-1.0928223,-0.05678264,0.070010095,0.13321766,0.29031182,-0.56509039,0.50294722,-0.36353483,-0.78888286,-0.29068096,0.95830354,-3.4866805,-10.63986,25.880582,-5.053355,-21.737876,0.89766249,0.91346004,0.77282507,0.67090792,1.3494702,0.84555464,0.83677034,1.2491569,1.1793242,1.4018481,1.2609226,1.5255377,1.1114748,1.3576965,1.5553976,-0.0061554797
-0.22381214,1.0748703,-0.38278645,-1.0809067,0.089006345,0.53154297,0.83814681,-0.79629569,0.47141931,-0.26653891,-0.12241863,0.88159376,-21.948603,9.8315077,-31.849508,-4.6770428,2.9408333,1.2737796,1.3145423,0.76212313,1.4033671,1.5901063,1.666421,1.1875007,1.2746785,0.67180791,0.7254968,1.1247372,1.6574385,1.4196529,1.2555392,1.3479001,0.013456839
-0.9798713,0.47423747,0.91690315,-1.0056785,-0.042331875,1.0413941,-0.045067147,-0.94802879,-0.93270285,-0.64601337,-0.51668425,0.39242739,12.147085,-33.937797,-32.553884,-13.126734,18.981416,1.6347842,0.76791695,1.1301232,0.8313992,1.2764191,1.5763653,0.67184208,1.2998228,1.1714365,1.1328196,0.99867635,0.80346751,1.1784021,1.6533877,1.5864388,0.046865985
-0.52020188,0.64762571,-0.97323107,-0.078334837,0.69619828,-0.48570304,-0.096573808,-0.16921888,-0.60617992,0.43319042,-0.63786338,0.11504068,14.854938,-23.060143,18.182899,-20.015118,25.907883,1.6817268,1.1823619,1.005893,1.3443688,1.20677,0.68297097,1.4431718,0.68895748,1.2584448,0.83164088,1.1383236,1.1041023,1.3475141,1.5690514,1.6462948,0.025055053
-0.31201061,0.92655778,0.72423656,0.14313648,-0.13688149,-0.29308754,0.094927323,1.0852478,0.30086658,0.89952993,-0.515155,-0.29491493,5.4005757,-22.523781,2.817594,-34.697125,15.427485,1.3211145,0.97163539,0.97607235,0.99793977,1.0237921,0.82445685,1.1463309,1.283736,0.65168717,0.65624087,1.5903689,0.82950008,0.85786816,0.94008113,0.89351099,0.036322742
0.6581319,-0.32482925,0.99697756,-1.0534095,0.42038108,-0.41116695,-0.86407084,0.51593418,0.19581329,-1.040997,0.12078721,0.28759299,-2.5170168,-23.50181,15.083125,32.082124,-5.7383008,1.4206844,0.74264155,1.5765684,0.93436017,1.3413957,1.6377639,1.4972044,1.6148625,0.89430357,1.160082,1.3978705,1.609507,1.1843264,1.4739378,1.1720505,-0.047759047
-0.46438208,-0.21098457,-1.0445492,-0.20480253,-0.50133176,-1.0739383,0.65356533,-0.10619846,0.80376655,-0.25815018,0.12351402,-0.064348629,14.549975,31.425585,19.807017,-23.457677,-13.169207,1.252181,1.6054269,0.86036846,0.96270648,1.0578065,1.3044372,1.0268505,0.77596207,0.89457336,1.4944131,0.90030519,1.2292651,0.75786085,1.1672932,0.79715281,0.024728426
-0.16266137,-0.34979391,-0.7522356,-0.11234395,0.87489877,-1.0573778,-0.30133027,0.1036642,0.58517445,0.58538167,-0.3301678,-0.76346257,10.176836,32.075975,30.904006,3.6258931,-29.614614,0.68281997,1.0051883,1.0494841,1.0798104,1.5232299,1.1754187,0.86161288,0.87769142,1.2597041,0.99617235,0.71863426,1.2859975,0.85928178,1.5989202,0.70129497,0.027705861
-0.96428751,0.69636235,0.072828188,-0.88362549,-0.47105025,-0.12811998,-0.37913102,0.9798702,-0.49272217,0.68496627,-0.13811637,0.94343747,23.410489,-9.9170963,-6.6375534,22.639439,-18.940547,1.5685198,1.1123369,1.1469509,1.2044461,1.5263392,0.93321517,0.99737074,0.91005538,1.3008385,1.4420474,0.69060955,0.67464747,1.200047,1.0891978,0.74694212,0.002553996
0.48414267,0.26095731,0.87444418,0.098685191,0.46940258,1.0241152,-0.16805285,-0.80079459,-0.37167021,1.0240576,1.0636613,0.3515505,-16.307126,-23.866294,-20.80424,-6.865959,33.827701,1.2075996,0.97593817,0.84280082,0.75340539,0.83438631,1.0807552,1.6521529,0.78324368,1.476496,1.1179459,0.91751978,0.75500117,1.4045852,1.063711,0.79087261,0.046736909
0.88153589,0.53692912,-0.99965433,0.047135441,0.52400446,-0.512121,0.11782615,-1.0984551,-0.16484664,0.30723699,0.21047953,-0.84640676,16.412954,-17.477105,-17.703896,20.616431,0.35732746,0.95903907,1.3696756,1.2884346,0.86976278,1.3530277,0.7858234,0.73392035,0.94931599,0.70383054,1.3299209,0.93101707,0.80391738,1.3894308,1.5132843,0.96915331,0.0037043561
0.17731713,0.3683492,0.33670904,0.74638166,0.68536281,-0.070864164,0.90624893,0.25626982,-0.93910667,-0.51850904,0.51077704,-0.71466032,8.5749674,-10.523535,20.951216,27.090288,26.468087,1.1621982,1.2647461,0.68803644,1.5284413,1.6127229,1.6834391,1.6114521,1.3251099,0.92270071,0.6808858,1.0475688,1.4387691,1.2423529,1.274365,0.65231427,-0.031735897
-1.0034377,0.23428694,-0.9540399,-0.80219528,0.27704752,0.81159351,-0.65729459,-0.99627953,-0.409619,0.96216544,1.0229367,-0.18265614,1.9947396,-4.4119813,-22.169023,15.224471,27.686353,1.6930586,1.5853693,0.8010792,0.93813669,0.76336115,1.2108646,1.2520215,1.0246611,0.72837267,1.1594753,0.6510513,1.5192448,1.3977055,0.93592236,1.3470477,-0.036950075
-0.19794826,0.34430435,0.8520786,0.24903872,0.67824392,-0.96580423,-0.60495304,-0.93777038,-0.05055147,-0.76021993,-0.159067,0.68458272,0.411244,-18.222013,-7.3752465,14.232124,9.3105953,1.6726333,1.6482196,0.82667934,0.69965789,1.5501328,0.78222921,1.2263964,0.84439115,1.2319771,1.1886875,1.2701653,1.4683921,1.4156805,1.6915763,0.82308735,-0.034312673
0.11318023,-0.014189841,-0.98425507,-0.63294184,-0.73495306,0.072136961,0.69361575,0.092096746,-0.30684425,-0.20704602,-0.82278546,-0.52098759,20.273265,-27.227348,-20.043736,34.93429,-19.388201,1.0625079,1.5705617,0.7801569,1.0469514,1.562681,1.6803999,0.93113518,0.68903955,1.5877426,0.78969432,0.69239258,1.2420646,1.6803257,0.73391207,0.81008371,-0.03797672
-0.20556738,-0.16148147,-0.31128443,-0.063148665,0.83286163,0.53931752,-0.44189535,-0.5242095,-0.73502573,1.0498844,-0.2907032,0.5845132,14.875517,-27.18698,28.431024,20.226297,23.369516,1.1969388,1.350343,0.81551601,1.0275782,1.4564453,1.1765476,0.93611413,1.4202056,1.0955448,1.3716093,1.237483,1.3268691,1.0893166,1.6939964,1.5969847,-0.029464125
-0.94900775,0.20681469,-0.8661354,1.0026929,0.44264245,-0.11389168,-0.94758549,-0.079454812,-0.53430222,-1.0313835,-1.0395065,0.98249707,-10.350212,-6.014352,-3.2141242,20.21374,22.335461,0.90634367,0.86802892,1.6120798,1.3748953,0.81459304,1.2652956,1.5230739,0.65307234,0.8368598,0.65260748,1.4239261,1.6753852,1.6993876,0.85814324,1.3634919,-0.027131605
0.28075434,-0.66231033,0.4696502,0.78764628,-0.70037602,0.64214147,-0.78411417,0.68842195,0.76451231,-0.26967091,0.016785481,0.62687765,-0.8480268,27.213652,-0.14465433,18.794622,-28.787667,1.2602653,0.97878768,1.4844577,1.579834,1.2198281,0.70021771,1.509073,1.5896666,1.626353,0.81535585,1.4857431,1.1339789,1.582929,0.73754481,0.96567094,0.017360425
0.74659871,-0.0648914,0.13120345,-0.57580968,0.67126882,0.55586413,0.56859738,-0.93705478,0.98099759,0.86248984,-0.69838846,1.0602756,19.890204,-25.336445,-19.635376,-31.757015,9.8492475,0.96952848,1.2652342,1.5409077,1.135228,1.576812,0.8284615,1.2524394,0.69817083,0.70721074,1.4408588,0.66370653,1.065651,0.8467592,1.1319316,0.77368726,-0.003713184
0.70530132,0.77024761,-0.63761679,-0.13863931,0.95081543,-0.61269273,0.92818875,-0.45255749,0.60452505,0.34194854,0.84201076,0.37065213,-17.255248,1.0521854,-25.920335,-33.074788,-17.967449,1.1911925,1.3718202,1.6315416,0.8700856,1.528756,1.651676,1.1685986,0.68639857,1.300757,1.1228327,1.1492655,1.2546953,0.81398209,1.4970565,1.2281491,0.017437181
-0.57113431,0.08195999,0.85564684,0.84432616,-0.29841223,0.76664014,0.30687118,0.6596115,0.35248105,-0.26641182,-0.18560343,-1.0919268,-12.72995,-32.261455,1.729305,14.428875,26.108135,0.71632708,1.3592273,1.0327838,0.74692873,1.181243,1.1008734,1.6789644,0.95530243,1.5678709,0.70540269,1.5030576,1.288983,1.6877814,1.0921615,1.2084069,0.016745376
-0.58550003,0.5399222,0.92448107,1.0068546,0.016764487,0.2740332,0.72942575,-0.60683224,0.46528641,0.016186395,-0.64550903,-0.83670157,28.529942,2.7373865,17.254755,-9.337806,-0.50521614,0.8574843,0.78868677,1.608524,1.4625091,1.240544,1.3224376,1.1584601,1.4381979,1.0917105,0.97772972,1.5533537,1.3651377,1.6692777,0.90029449,1.0495689,0.019631404
0.58476947,0.37622407,0.74266476,-0.2092397,-0.30697151,-0.14664942,0.47094101,0.49113909,-0.90246233,-0.38913756,-0.067444555,-0.9964805,19.449414,-13.699714,-21.090705,8.5261224,8.539323,1.4810233,1.6082202,1.6066872,1.0409737,0.84532647,1.2019124,0.9418459,1.1540715,1.1793392,1.6533669,1.2368583,1.3282389,1.011292,0.73487377,1.2234044,0.016796215
-0.45566817,-1.0969993,0.11221988,-0.76101012,-0.24507058,0.04092019,-0.57731685,-0.469536,-1.0673809,0.90738689,-0.41006626,0.042379348,-7.751017,-1.3430311,-32.324092,-1.0085376,-10.491612,1.1370635,0.92606097,1.5066735,1.161249,1.0626693,1.1333519,1.5450511,1.4738203,1.2969786,1.6692127,0.85842676,0.87859213,1.69786,1.4326189,0.7764308,0.024158041
0.51829558,0.29983644,-1.0201397,1.0100525,0.98440525,0.95791864,0.018745629,0.58435713,0.043301552,-0.13783244,-0.88184122,0.92877558,19.543737,31.591408,6.7925287,-7.9704524,20.606929,0.88496146,1.6473359,0.67438391,0.97038457,0.95341104,1.2794223,1.6506935,1.4553605,0.79472813,1.2956982,1.1502935,0.68264671,1.2432013,0.83480611,0.78628106,0.033678123
-0.20781705,-0.58668358,0.4400552,0.38446173,0.64887071,0.15943871,-1.0346133,-0.3440716,0.86067961,-0.33526275,-0.62882747,0.24270144,-8.753761,15.538108,-21.019786,10.462282,-0.43245467,1.3510151,1.6100293,1.5621235,0.70979524,0.77866858,1.2328524,1.1997866,0.91304896,1.2139356,1.4155923,1.2602724,1.0975415,1.3296629,0.79497058,1.1705373,-0.039582075
-0.95183357,1.0937658,0.52046336,-0.65119421,0.37350318,-1.0050284,-0.11115631,1.0434724,-0.29997536,0.88450208,-0.19003064,-0.73013709,-11.241213,-1.0743656,3.1369843,13.295912,24.386199,1.3076789,0.90993107,1.3114831,0.79716555,1.3113975,1.4572212,1.6170237,1.5175105,1.6491891,1.3713762,1.5195936,0.9588562,1.4460796,1.2605078,0.85525385,-0.014621592
-0.15414063,-0.084260742,0.059673724,0.13990125,0.46650848,0.76362046,0.13482713,0.95125148,0.11854592,0.0032808161,0.1628045,0.55630681,-25.074893,-33.727412,3.3878514,29.618911,-34.970958,1.6716064,1.1887662,1.5435993,1.2228675,1.3845202,0.88076198,1.416635,0.93512419,1.5822477,0.83741319,1.5534768,1.335239,1.06147,0.92707318,0.66887308,-0.017556225
-0.89030436,-0.56783497,0.55613883,0.78717235,0.13065563,-0.98664387,1.0016673,0.79781642,0.89731191,-0.40844854,0.84202314,0.57875135,12.382503,2.7287316,11.791821,15.13194,12.519083,0.99846985,1.5327764,0.97302674,1.2604807,1.4485559,0.87819841,1.3806984,0.69835638,0.67561779,0.7081222,1.0098285,1.3374033,0.68654704,1.696025,1.0422122,-0.025490123
-1.0794264,0.77817508,0.65257563,0.85284364,-0.087627523,0.65117374,-0.71753555,0.32583795,0.56244688,-0.94998149,-0.76507495,-0.39008721,-20.189483,-34.636798,-20.668725,30.733578,9.2511295,1.381007,1.6845884,0.97730786,0.76321488,0.85249405,0.91754421,1.1656062,0.79256369,1.6680162,0.69898888,0.80607615,0.92180404,1.3605587,1.3596707,1.1356184,-0.0063138835
-0.80847685,0.26033727,-0.75001246,-0.13299499,-0.94609439,0.7911704,-0.84671423,-0.25378758,0.87502626,1.0852474,0.29415426,0.24037301,5.5768111,-0.53603528,20.854994,19.890433,-21.500429,0.90944157,1.4845341,0.76437363,1.4275347,1.425068,0.91763054,1.5665129,0.9819173,1.5841017,1.5480633,1.6992799,1.1475319,1.5184726,1.0189935,1.0244424,-0.016908926
0.16576274,-0.30417654,0.64694435,0.76983898,-0.90813191,1.0832608,-0.10685488,0.76682887,-0.91932116,-0.049756184,-0.58853957,0.03401752,-1.1906729,8.3599958,16.45008,-23.508076,-20.2375,1.1500462,0.72650184,1.2163422,0.91320743,0.72735393,0.83750381,0.97652665,1.2833468,1.4596353,1.2401311,0.68383295,1.2304704,1.0667127,0.84087642,0.9599753,0.035829023
0.37684187,0.13058964,0.10347473,-0.40000236,-0.14546231,0.63066816,-0.093849,-0.55479096,-0.12462625,-1.0360877,-0.93446592,0.50954511,18.186526,-29.056311,-29.414049,-21.924168,0.50332967,1.0169252,0.91246468,0.84393847,0.97386921,0.71980314,0.98141539,1.5484152,1.3143469,1.6780886,0.93477762,1.007452,1.2965894,1.4278593,1.6320646,1.2598312,0.039279941
-0.29666141,-0.59493503,0.30229132,0.65484241,-0.63348909,1.0630519,-1.095391,0.75305699,0.72280371,0.25142615,-0.9794969,0.16942044,-12.8711,-24.574774,-28.221697,-2.0681855,30.006264,0.65419364,0.78245018,0.74017493,1.0700431,1.1639717,1.6726004,1.0956212,1.6051875,1.0357723,1.6256056,0.85270544,1.3203875,1.3534129,0.96119697,0.88753645,0.0038740876
-0.73264372,-0.69883423,0.16554888,0.49981068,-0.3006791,0.052377853,0.66863351,0.24651854,0.10479133,-0.26310001,0.49818922,1.0359027,0.75854278,8.8284205,-20.736638,9.331268,30.621035,1.291066,0.996939,1.0037549,1.1094148,1.3837184,1.0549703,0.88642479,1.0413714,1.229306,1.4466181,0.86087742,1.116851,1.4145998,1.378884,0.65333901,0.030418522
-0.11792222,-0.51630615,0.14984564,0.46919644,-0.24132693,-0.81388372,-0.44925995,1.0483952,1.0694548,0.96186548,0.3797987,-0.75371385,-24.419441,-7.543937,-20.949578,0.4471837,25.816384,0.66439796,1.1365791,1.1844115,0.80423453,1.4697928,0.80830393,1.6140793,1.3802253,1.1458206,1.1062533,0.74920966,0.66672334,1.3691869,1.4748639,0.98766591,0.028931149
0.89200835,0.61827733,0.56934626,0.65376849,-1.0898694,-1.0074177,-0.68326934,0.06990551,0.57456442,0.39080464,-0.50253828,0.63935097,22.171343,23.770101,14.081559,-1.2436141,28.578353,0.82066655,1.492676,1.1054164,1.3835935,1.0555319,0.87483358,1.5280425,1.2099823,1.1229246,1.6431225,1.2591667,1.4144569,1.0773552,1.2080864,0.75775568,-0.0026779819
0.68022526,-0.65215856,-0.44047476,-0.83860192,-0.25529289,-0.23450602,-0.52884706,0.48971636,-0.62404108,-0.67969643,0.74386482,0.16798393,-11.379942,-22.689312,20.730373,25.371116,-27.645649,1.468705,1.4251896,0.8618461,1.6474709,0.84409282,1.4680946,1.6661296,1.5410161,0.85840419,1.5491733,1.4550828,1.3766213,1.4744277,1.0065434,0.7253398,-0.015141553
0.96571544,-0.88743734,-0.76247018,-0.59399338,0.73473392,0.64304106,-1.0584448,-0.64124318,0.48787386,-0.80330551,-0.78951739,0.040354356,28.911758,-20.076845,-31.537939,-18.13907,-13.351354,1.5318159,1.6303078,1.1333916,1.1629026,1.5536648,1.3437401,1.1402452,0.85148047,0.68231865,0.97961771,0.73493582,1.2162783,0.88870368,1.5426908,0.65490502,-0.0148911
0.02854035,0.27062219,0.57764785,-0.56465239,-0.93205581,-0.76686692,0.27986051,-0.29106411,-1.0830974,0.65430217,-0.91687519,-0.72359092,-9.1470382,-14.270261,-20.268872,31.073682,-14.633216,0.71797561,0.71599963,1.1058418,1.1832283,0.86844102,1.1882264,0.87103371,0.66352632,1.1868496,0.8319398,0.91226447,1.6790254,0.93062332,1.5361888,1.6252555,-0.020836892
0.19659184,1.0484658,0.057268038,-0.70839806,-0.038396999,-0.9977104,-0.26797424,-0.055865841,0.084860143,-0.9811181,-0.68867219,-0.57200052,29.2025,-33.583881,-34.296222,33.404938,-33.214775,1.3142339,0.82894808,1.030337,1.6244525,1.422497,0.7562427,1.2710776,1.0508963,0.66425112,0.76853626,1.0389588,1.6303422,0.66121833,1.2464545,0.91130642,-0.048218157
0.31828026,1.0889991,-0.42426902,1.0401127,0.41010904,0.67659651,-0.065334147,-0.71269896,0.24714468,-0.36728883,-0.1079109,0.61119505,9.2237075,-27.147546,-8.8108173,-33.406334,9.743415,1.5886358,1.1022922,1.3746809,1.4114575,1.0656622,1.0346402,1.4978044,1.1983927,1.635621,1.1829825,0.93763128,0.66891814,1.5072038,1.6738737,1.4960414,0.078774598
-0.43496974,-0.67862638,-1.0639276,-0.4287192,1.0157889,0.63558088,-1.0920818,-0.8063256,-0.96865241,-0.093685504,-0.0060356301,-0.28155163,14.545103,19.542901,17.536971,-26.136663,-28.895944,1.2630954,1.2937175,1.4594215,0.79767033,1.3951657,1.2999159,1.6872922,1.2702828,1.3423711,1.2304895,1.3871286,1.6702688,0.7574489,1.5935873,1.3710736,-0.00058167758
1.0658824,0.29630518,-0.99393489,-0.58728967,-0.94995204,-0.26999809,-1.0839609,-0.66265541,-0.93191148,-0.54028589,-0.43972215,0.8148697,-18.21555,31.250533,17.701146,3.1557884,-20.664419,1.6716342,1.6557034,1.6576924,1.4853806,1.3416235,1.2663188,0.87055771,1.063369,1.3429288,1.153543,0.69776911,1.3053613,0.80703118,1.2231012,1.11186,0.0093586073
