Iamnikhilramesh/Machine-Learning-Algorithms/Supervised Learning/Regression/pumadyn-32fm.csv
"theta1	      u  [-3.1416","theta2	      u  [-3.1416","theta3	      u  [-3.1416","theta4	      u  [-3.1416","theta5	      u  [-3.1416","theta6	      u  [-3.1416","thetad1      u  (-Inf","thetad2      u  (-Inf","thetad3      u  (-Inf","thetad4      u  (-Inf","thetad5      u  (-Inf","thetad6      u  (-Inf","tau1     u  (-Inf","tau2     u  (-Inf","tau3     u  (-Inf","tau4     u  (-Inf","tau5     u  (-Inf","dm1   u	 [0","dm2   u	 [0","dm3   u	 [0","dm4   u	 [0","dm5   u	 [0","da1    u	 [0","da2    u	 [0","da3    u	 [0","da4    u	 [0","da5    u	 [0","db1      u	 [0","db2      u	 [0","db3      u	 [0","db4      u	 [0","db5      u	 [0","thetadd6     u  (-Inf"
-0.75280539,-0.89240755,-0.73029557,-0.81757415,-0.89905918,-0.36952359,-0.2826401,-0.2440708,-0.74866156,0.58030659,0.13853446,-0.51397798,-9.7016336,-25.355679,7.103799,-26.450748,12.284984,0.78100887,0.66613259,0.89036297,1.080466,0.99185077,1.5858946,1.2306066,1.2558893,0.93225758,0.6531526,1.1357932,1.6269274,1.0182463,1.0654982,1.4285099,0.021157509
-0.33279773,-0.98241555,-0.50372725,0.44828243,0.11530393,0.49300879,-0.26610591,0.55761704,-0.75784996,0.08892688,-0.80403722,0.1072492,-23.457042,-2.5108656,9.8821802,-20.19684,-18.293276,0.94864053,0.90132505,1.5700961,1.3555705,1.5231164,1.3673784,1.5289765,1.1580997,1.6816141,1.3882917,1.2682085,1.1302772,1.3191655,0.76460909,1.1848937,0.022910735
0.8018961,-0.90719117,-0.69866043,0.88748215,-0.68360808,0.97409857,-0.73547722,0.058964887,-0.77795139,0.90795053,0.26662756,-0.58662934,-26.973761,-28.005192,-3.2640094,21.793741,-22.586869,1.0623156,1.4875343,0.78937101,1.5586438,1.0262867,0.75131327,1.3721743,1.2832924,1.5945629,0.96832719,1.0250329,0.67734073,1.3156102,0.86058032,1.3734717,-0.019973197
-0.28659183,-0.68742727,0.55927517,0.72080555,-0.34491159,-0.062385078,0.47177285,-0.92184247,-0.64214097,0.79244434,0.77242687,0.80340368,7.6503611,-10.380295,-21.616903,-15.280376,12.722955,0.94560326,1.3040104,1.2025708,1.507135,1.5678012,1.6350889,1.6893689,1.5238102,1.4778993,1.6031452,1.3621671,1.0928721,1.6010164,1.2821493,1.283951,0.0084920779
-0.12587811,-0.084888046,0.51215046,0.37716466,-1.0417521,0.62460751,-0.79589325,0.63782457,-0.76730637,-0.50867384,0.87729303,-0.40124024,33.121677,-33.974925,-26.562358,26.456418,13.010609,1.0146923,1.1834107,0.78327696,0.98590685,1.4365055,0.99805804,0.91153575,0.98135079,1.5127436,1.331837,1.6344753,0.82607224,0.9961084,0.69394971,1.1628115,-0.01674616
-0.21530372,-1.065623,-0.33460566,-0.5805649,-0.081628804,0.31236042,0.55445027,0.99608383,-0.68051101,0.24785877,0.63885668,-1.0136891,-16.854082,23.450754,-33.179555,-28.788381,-6.3162104,1.6767759,0.92314584,0.81213722,0.94017577,1.4341924,0.9711389,1.0314624,1.6391947,1.395076,0.8420853,1.3275672,1.2722271,1.4703597,0.88469951,1.4446029,0.034835755
0.97472209,0.94758316,0.040316805,0.27715919,0.48929583,-1.0945146,0.08913627,0.5160673,0.23412226,0.67633756,-0.01934032,0.41624103,12.049727,9.7666328,-2.2024463,13.485096,-15.995936,1.5695528,1.6735417,1.1659684,1.6315909,1.698182,1.5948127,0.96740948,1.3510822,1.6886383,0.79382359,0.79310744,1.3566602,0.93845227,0.81726225,0.97662256,-0.011010714
-0.79513066,0.2599722,-0.28841966,-0.62003964,0.59908611,-0.90661381,0.20855866,-0.14366902,-0.01711168,0.48804793,-0.076794093,0.20210202,-28.766948,3.8990089,10.64276,22.87222,-26.602965,0.78457139,0.69133937,1.3908201,0.71406584,1.1545088,1.1802416,1.0709585,0.80007992,0.94321276,1.0267736,1.58461,1.6897991,1.4029101,1.2597403,1.605177,-0.021907066
-0.66125743,0.57294511,-0.43555075,0.55182581,0.86907247,-0.019848957,0.66404063,0.022996565,-0.54094781,-0.5689973,0.81291993,-0.35530352,-31.492027,-16.502028,-9.582895,10.28294,-4.627718,1.0541422,1.6681928,1.5669218,1.5554789,1.3844186,1.272617,0.67353007,1.319968,1.6518398,0.77073507,1.2443689,1.5578226,0.87480348,1.0220877,1.5774002,-0.0091241159
0.18983226,-0.40494827,0.29494202,0.28568958,0.91709511,0.021458898,0.0048677555,0.4451175,-0.29900045,-0.32306809,-0.19073123,0.689726,21.976878,-24.617966,15.838178,-17.737723,12.090498,1.0999614,1.051547,1.0997172,1.1465901,1.4391845,0.87382094,1.3085127,1.273028,1.2817703,1.214224,1.0135761,1.3237198,0.65843395,1.6993444,1.1812395,0.01133928
-0.27944561,0.66696271,0.75376697,-0.53919931,0.22954208,0.66621582,-0.80354632,-0.43857756,0.26002703,0.63307904,0.84174493,0.30122842,12.211518,-1.0152917,15.992537,-13.43891,22.241457,1.3576417,1.6834553,0.8324632,1.3090609,1.0360174,1.5447215,1.1848275,1.4965253,0.7009709,1.5678375,1.1942908,0.94475978,0.77762799,1.5936407,1.2184369,0.013768754
0.61490432,1.0562717,-0.69539206,0.84116336,-0.67684871,0.22490392,-0.31819101,0.41099854,0.23261625,-0.44493268,-0.99298987,-0.098136541,-1.4227259,28.246498,-1.1000139,-7.932782,23.732106,1.2575633,0.71647297,0.66116341,1.3734685,0.985068,0.987846,1.4777482,1.1637318,0.79073988,1.4651453,1.4472263,1.6326702,0.93761826,1.5000236,0.69653787,0.0070563116
0.91516284,0.53260284,1.0584427,0.60599487,0.8549274,-0.25160957,0.095762227,-0.27632426,0.34869447,-0.13318265,0.29820402,0.13214573,-4.2222077,17.354442,-13.884954,15.581874,14.548729,1.3324352,1.1889641,0.67011926,0.6943399,1.420666,1.4828347,1.6032247,1.6476811,1.2259235,1.2966709,0.69781363,1.0037297,0.68448634,0.66185694,1.4795847,-0.0084981685
0.84774741,0.025631412,-0.23936442,-0.81669827,0.62716798,0.45471227,0.42494395,-0.69217071,0.0043910719,-0.96916027,0.16703963,-0.83466843,-3.7758152,29.873238,-30.492479,-17.09233,9.2032655,0.86426117,1.2875643,0.94345376,0.87738697,1.39278,1.1036727,1.4775933,0.66130517,1.6559652,0.80672742,1.3677641,0.66105571,1.6632927,1.1101266,0.7472254,0.014642524
-0.53972487,0.19296293,-0.56650958,0.84084998,0.65349081,0.84048296,1.0823825,0.52541465,-1.0012231,0.069579124,-0.51277449,0.1303187,-1.6537079,-3.8686192,10.116663,0.75801729,-0.0034024171,1.3672336,1.1959,0.69059995,1.5634,1.1638441,1.6271841,1.1324091,1.449492,0.8615861,1.477584,1.5544706,1.2373441,1.0927746,1.0131079,0.8051934,0.0021458258
-0.81593851,0.20169253,1.0104365,0.84152732,1.0419993,-0.86811575,0.70569036,0.71148025,-0.93800592,0.38899103,-0.19631242,-0.7505133,7.8229035,19.539255,26.26096,17.958715,-7.8736972,0.67655958,0.78684328,1.0750883,0.9097274,1.0384628,1.6950347,1.1982882,0.93022434,1.1304817,1.6053423,1.5383387,1.0083298,1.3486783,1.1867546,1.3349226,-0.0099560233
-0.37920275,-0.22581793,0.35025838,-0.23786089,0.26280067,1.0681659,-0.90921148,0.5318065,0.86901769,-0.94055594,-0.68616469,-0.21167279,18.564589,25.052678,10.358962,13.06823,-22.254048,0.96817784,1.6649648,0.86342701,0.91781927,1.5883924,1.2113875,1.6402468,1.2280443,1.2413023,1.467422,0.86228109,1.6081971,1.219026,0.86917496,0.92358378,-0.018781848
-0.73822635,0.035825332,-0.44111554,-0.61265748,-0.6785722,-0.15335797,-0.12475864,-1.0619875,-0.80730336,0.19101931,-0.24618494,-1.0951775,-1.8123578,-10.296817,-18.597382,-16.19108,-33.476455,1.493286,0.8586336,1.2048877,1.5974454,1.1144972,0.7036732,0.78551011,0.71835476,0.78852884,1.0542684,1.6884631,0.99922064,1.5512742,1.0657309,1.1395047,0.017384564
-0.35416379,0.57315111,0.82758507,-0.17912911,-0.034688873,-0.25045199,-0.24079225,-0.62407428,0.96143506,-0.25693389,0.77373988,0.87998117,25.342105,-25.24708,12.319079,-13.23411,34.316929,1.6943189,0.71762627,1.1447494,0.95274581,1.6488801,1.4286111,1.6667348,1.2122208,0.94521645,1.1029155,1.3500139,1.5843712,0.82664196,1.1214403,0.84737813,0.011733422
-0.29497444,-0.83057532,0.50169721,0.61871361,-0.89446813,-0.17675782,0.2354901,-0.5247011,-0.20086809,-0.34867051,0.53581877,0.13065817,-30.042809,-19.494757,21.618199,-32.930699,23.740747,1.3360148,1.5006888,1.3769239,1.3098616,0.84359867,1.5628063,1.6861166,1.46234,1.5489579,0.98620213,1.1492657,1.2592068,1.0389401,1.3157445,1.0170177,0.029107407
0.50470201,0.5406806,0.47628699,0.17739963,-0.4441546,1.0885903,-0.6989148,1.0105644,0.79224908,-0.3101991,0.58504919,0.67925383,19.540881,-16.420159,-33.607237,-6.8239368,-29.905867,0.75645712,0.67481305,0.83290116,1.3198328,1.4793368,1.6140347,1.6805503,1.3581317,1.519189,1.5098454,0.92211757,1.3800112,0.69870034,1.2065639,1.4190266,0.0054682542
0.11508028,-1.0668461,1.0993649,0.06328091,-0.80933698,-1.0012178,0.15888744,0.69582094,-0.23029903,-0.19371969,1.0422242,0.711945,8.7739649,-25.972294,3.6490685,9.8939231,-32.83373,0.7775324,1.0369841,0.99159966,1.5654545,1.0445103,1.4854478,1.4207667,1.075473,1.0739331,1.4442322,0.6598926,1.0149832,0.82213776,1.0192957,0.85254614,-0.012774838
-0.90496981,-0.74918991,0.49679282,-0.44225953,-0.047677484,-0.83766486,0.099992418,0.4488235,0.4125966,0.70185884,0.089418175,0.85582552,-17.531737,-25.90833,28.705055,5.8633472,-14.723404,1.0813265,0.75484146,0.82043366,0.72846807,0.66277903,1.2271001,1.1210654,0.84681121,0.95596482,1.1507915,0.65292867,1.5721991,1.0001001,1.6328154,1.2776305,-0.00010494575
-0.49990867,0.8528136,-0.59239422,-0.97672249,0.61757053,-0.31425632,0.56785929,-0.14734114,-0.15922835,0.17197068,0.6742232,-0.36959106,24.906271,-0.30162229,-29.365825,18.573771,-30.625721,0.92767422,1.3206219,1.0914686,1.1126286,0.79900711,0.76247185,0.96440273,1.2166581,0.9724829,1.570111,1.6050102,1.2060388,0.99352582,1.3883861,0.75566033,-0.01984315
-0.50660695,0.42974114,0.76614044,0.7048375,-0.4278073,0.94828392,0.82242562,1.070443,-0.023492365,1.0044884,-0.168822,-0.53317921,7.9586182,-9.5045561,-3.0736547,1.0858467,-20.175268,1.0891734,1.3877341,1.3476778,1.1708427,1.6534486,1.5608968,1.0928987,0.99858452,1.3599474,1.5866325,1.031722,0.75102828,0.78231421,1.6049592,1.3999365,0.003094358
1.0632154,-0.54544811,0.76350049,0.31749128,1.023253,0.73529127,-0.98512488,0.14183548,-0.011659018,-0.23189325,-0.59826582,-0.70043994,-13.759279,27.791132,-24.44351,7.9212102,-8.2195734,1.6794476,0.67613648,1.0258316,1.5011637,0.95859962,1.3338727,1.1978073,1.2479477,0.80658801,1.1247616,1.0185366,0.69451199,1.1629798,0.75097469,0.93165564,-0.0028846106
-0.29049318,-0.2838779,0.94345426,1.0176379,0.92442828,0.11970925,-0.23677111,0.98581511,0.4632229,0.5207586,-0.087261613,0.20367682,-26.275359,20.040243,-23.642547,29.716491,-4.9281223,0.92072928,1.1470128,1.193507,1.422398,1.1937716,1.6693504,1.0728399,0.92014804,0.82817896,0.70376632,1.3006016,1.6611529,0.84736384,0.79410498,1.3224689,-0.014985967
1.0675911,0.42595295,0.87243426,-0.69520138,-0.35239677,-0.51614469,0.66424764,-0.89597791,0.83778443,-0.28950658,0.90411412,-0.43760023,-28.871606,-5.0740385,-19.36579,19.175228,-1.9467019,0.75170938,0.67956143,0.83890152,1.3678306,0.72968845,1.2237742,0.87333456,1.5338939,0.85450273,1.0773339,0.85031291,1.0090392,0.67142561,1.650284,0.87311282,-0.018583165
-0.45616521,-0.65433576,0.35226555,0.50996882,1.0953293,0.40965797,-0.30714597,-0.87968383,-0.19701643,0.61184755,0.26070449,1.023498,14.455801,-11.348733,11.845695,10.59841,-22.527389,1.3575659,1.4597383,0.87178694,0.72303039,1.6717948,1.2050495,1.1669741,0.68342695,0.70672443,1.6675712,1.619759,1.2896798,0.7992355,1.4511017,1.6663507,-0.0071539666
-0.24945116,-1.0128015,-1.0056516,0.41064667,0.91614599,-0.53662462,-0.48000856,1.0485269,1.0843051,-0.14887316,0.48145472,-0.93322737,-21.174818,-5.171462,23.238018,31.367519,23.888668,0.82752832,1.3184811,0.81107071,0.86541017,1.6987031,0.90373379,1.1038526,1.3510039,1.4228961,1.1646863,1.0831784,1.4288242,1.0485455,1.054266,1.6480485,-0.022967529
-0.15449003,0.64078213,0.55986255,-0.40261091,-0.0051166737,-0.23045504,-0.6165243,0.30528333,0.36189458,-0.38947365,0.88137685,0.062990379,28.808658,-2.8809401,20.040348,-21.876292,-34.83548,1.1762149,1.6431559,0.77066485,1.1141446,1.0778328,0.83661115,0.67354348,1.5452312,1.3513808,1.4564817,0.73765598,0.73411016,0.98947989,1.6384583,1.619,0.021358776
-0.089286455,-0.84111295,-0.67498165,0.81697622,-0.35384455,-0.65874101,1.0831814,0.75673142,0.90373137,-0.27319124,0.22670144,-0.89492349,30.764106,32.333419,17.779558,-8.9741794,20.966681,1.2801952,0.99021168,1.3376414,1.5396786,1.4775882,1.6241566,1.6998098,1.6525634,1.3838826,0.66467531,1.5980131,1.2065639,1.4188869,0.98199727,0.82806349,0.01154536
-0.6534445,-0.062163278,-0.19865635,-0.56086371,-1.0301744,-0.50937955,0.012089096,0.86287733,-0.7832134,0.43395295,-1.0168345,-0.61548952,3.3058384,-18.773844,28.005429,7.2375354,-18.743323,0.88947501,0.85656163,1.0312773,1.6771563,1.0166877,1.1197943,1.5323598,1.3217787,1.6343041,1.0987311,1.3729109,1.0640607,1.4177602,0.94566718,1.3282265,-0.0037557365
-0.77865387,0.096841045,0.26244552,-0.50259794,-0.36348732,0.0097459066,1.0649533,0.074612317,0.51373916,0.68909793,-1.0690192,-0.23730473,25.903572,31.338487,25.947024,-8.3736843,33.48863,0.77616002,1.071381,1.5998991,1.4049466,0.83673015,1.6236465,1.5266002,1.1197183,1.304871,0.96646542,1.2342886,1.1880774,1.5160688,1.5688274,1.031509,0.0092533185
0.41379052,0.97610855,0.059579706,0.7588664,-0.59858755,0.48954318,0.86358764,0.1594232,0.90385692,-0.36224429,-1.0899338,0.10984282,34.090764,13.471184,30.189482,34.62905,30.446315,1.3432573,1.4252786,1.3073995,1.4638677,0.97407959,1.1056441,1.0099543,1.3522663,1.639388,1.4941032,0.94214837,0.98761528,0.75001857,1.6621481,0.77287297,-0.029873266
0.63043644,0.40978758,-0.32795707,-0.99267754,0.75299743,-0.27814136,0.59636822,-0.40491854,0.79457982,-0.72152746,-0.79270939,-0.82887342,16.458091,-28.868933,-30.15287,20.707572,-7.8448629,1.6458275,1.5732282,1.4958757,1.3327702,1.5687212,1.3471861,1.3064046,1.5414977,1.6019802,0.68074855,0.84084742,1.5225514,1.3209445,1.2645673,0.83178439,-0.021484051
0.57658087,-0.90454808,-0.25857944,-0.49368399,-0.086414223,-0.94804046,1.0701712,-0.19268873,0.77665112,-0.77047377,-0.96433646,-0.12637914,9.2561307,27.788145,-4.6519388,4.8643133,-5.486998,0.72537521,1.181179,1.0756547,0.9783244,1.0481575,0.83228167,1.4079813,1.4423072,0.85672456,1.6696327,1.6168124,1.1161217,0.70768025,0.93199204,1.4402004,0.0014618197
-0.057705291,-0.043166881,0.20213015,-0.43107231,1.0511239,0.74990449,0.51749353,0.014511292,-0.21046111,-1.0431151,-0.29190535,0.17198963,31.604009,8.5782288,-25.708271,31.096348,16.318516,1.254501,0.69884001,1.4541107,0.78896239,0.99095781,1.2779644,1.2974552,1.2795107,1.0358597,0.99480486,0.83533128,1.2127926,1.1054407,0.74126475,1.5365705,-0.019091306
-1.0147684,-1.0761907,0.18296037,0.65243097,0.62058295,-0.26411839,0.97520046,0.1910583,0.40919597,0.72444645,-0.72752648,-0.45900776,-1.5430423,-33.911147,-4.6405969,-14.512176,-26.142444,1.3842114,0.94183455,0.96333073,1.0495585,1.2804767,1.5222357,1.264874,0.73653446,0.78465746,1.088014,0.80111481,1.5365734,0.7385244,1.6795618,1.5445064,0.015277392
-0.95584501,-0.35303136,-0.18626252,1.0253983,-0.59372923,0.77598308,-1.0025851,-0.830566,0.65838693,-0.43681038,-0.82661826,1.0345169,29.400941,11.608508,14.199191,15.808239,-30.930847,0.65371556,1.147417,1.6875625,1.6132095,1.4627585,1.2315729,0.69610293,1.6518811,1.4654255,0.90675028,1.4019156,1.3447334,1.0338286,1.5078644,1.2274983,-0.017373011
0.71155374,0.29706154,0.72254651,0.32690256,0.86246449,1.0747348,-0.46105956,0.65273275,-0.90463769,0.43454828,0.19243916,-0.5730726,15.659394,-12.558248,-16.476875,-6.845864,21.56371,1.6440158,1.5734163,1.5077954,1.1172512,0.79153323,1.1490093,1.1488406,1.4639273,0.92681006,1.4967134,0.71282486,1.2974011,1.4200181,1.0939219,1.3948192,0.0069704073
-0.93868041,0.048363753,-0.82289525,-0.16709036,-0.018003139,0.89908618,0.82327663,-0.020295434,-0.24256176,0.42336416,-0.85421265,-0.93024142,-33.741241,-19.04068,23.286722,9.9418019,1.8647136,0.87862009,1.1178953,1.1159455,0.89531066,1.286226,1.5496291,0.71683573,1.5081207,1.3342981,0.99798456,0.7264255,0.98342965,0.75220699,1.6928501,1.2323087,-0.011576882
0.70578815,0.15581747,-0.32156276,0.91899037,1.0875245,-1.0188801,0.19031109,1.0455588,-0.41950118,-0.19406397,-0.34577517,0.81734543,-23.739593,8.6670931,-2.1665366,-12.979978,-34.486737,0.89629433,1.0188495,0.70382391,1.2184973,1.4341042,1.5887256,1.5604351,0.68276362,1.1081655,1.3878139,1.637843,0.72680165,1.0053461,1.6023345,1.3862465,0.00426957
0.7762198,0.77691765,-0.68908836,-0.9691548,0.25898124,0.64943559,0.85697515,-1.0209055,-0.8643062,0.95836813,0.97600025,0.43845022,-6.3977137,-6.3749077,26.925988,-4.9231614,-3.573626,1.1460185,1.2829623,1.2973196,1.1007376,1.4976604,0.87778236,0.68808715,1.3307059,1.5240463,1.2461878,1.6784756,1.1392172,1.4226826,0.72728763,0.77315248,0.0019952765
-0.52612857,-0.0020309014,1.0524785,-0.67388004,-0.4602329,-0.84733689,0.27665537,0.81800475,-0.66027673,-0.53736521,0.26755513,-0.39087358,-20.885788,22.56069,-12.4764,29.137205,-10.998553,1.4347951,1.6517893,0.97234099,1.2850586,0.82968604,0.83320271,1.1380177,1.2136839,1.3851513,0.98861348,0.72683894,1.632101,0.8206766,1.661681,1.3218749,-0.028585692
-0.049003502,1.0662057,-0.86836043,0.99148624,-0.9832384,1.0603504,-0.31730292,-0.056612549,0.72962202,0.49284992,-0.73710155,-0.85182809,-13.908715,-33.766523,-23.944442,-4.2306948,14.712915,0.72436127,0.93987236,1.5848049,0.76536117,1.225267,0.761853,1.0633082,1.3717414,1.3569079,0.90086724,1.2256204,1.4514251,0.8018334,1.0138707,1.0247945,0.0034428811
-0.63771976,0.32974606,0.27252509,-0.42707558,0.051586179,0.55765665,-0.092194043,0.87069951,0.93643292,-0.43702674,-0.064712148,0.94478574,-25.28745,33.828432,14.452174,-2.3195931,4.5994331,1.5150825,0.74208304,1.6396105,1.0336852,1.1978878,1.5503572,1.4034165,1.3711857,1.4681057,0.80220275,0.92165992,1.0382802,0.72485727,0.87606736,1.2641201,0.0086609848
-1.0634607,0.82103781,-0.263301,-0.68088767,0.51458767,-0.44379043,0.61185172,0.3307536,-0.38657943,-1.0551952,-1.0029895,-1.0294486,22.070595,10.48377,10.728894,0.52857689,-6.2081507,1.6191585,1.6976608,1.2354561,0.86088842,1.3017243,1.6305007,1.2244641,0.91795778,0.76646335,0.84953754,1.6274136,0.78953695,1.1975791,1.6117831,1.6390433,0.0036466656
-0.46872488,-0.62960001,0.45336533,-0.22187122,0.70924612,1.0970162,0.17224493,0.8853974,-0.53613146,-0.98790208,-0.35312876,0.37592326,2.7149664,-9.5601938,-28.177489,-29.056089,-25.68541,1.1046329,0.81486395,1.618363,0.9269734,1.0919717,1.1688101,1.0907293,1.2873204,1.0442575,1.4352433,0.78330829,1.5124305,1.3201255,1.1494719,1.574351,0.023454281
0.61137076,1.0438033,0.86209407,-0.75268072,-0.99619329,1.0398642,0.63107075,0.075172352,-1.0693165,-0.83633073,0.53158296,-0.68878912,-10.764764,26.615825,32.178962,11.815293,-10.366456,1.1896315,1.3870658,1.6644438,1.5574479,0.87643068,1.0705113,1.6837143,0.98658861,1.3447316,1.0032095,1.3925759,0.82279632,1.5878308,1.2215735,1.6859659,-0.008660963
-0.30697034,-0.12699436,0.94628861,0.27403796,0.80944008,0.53489779,0.045569688,0.59777159,-1.0086121,-0.96588364,0.2594766,0.17851148,20.684106,17.77132,-7.4241386,32.502249,-14.70163,1.3205529,0.98280749,0.79555272,1.5045985,0.93677114,0.91252625,0.8287508,0.86463973,1.3500104,1.525171,1.2485049,0.72166217,0.72605023,0.97622284,1.4273523,-0.017920019
0.70090357,-0.57193186,-0.1276536,0.86205487,0.78754217,-0.2510089,-0.80420271,-0.47508496,0.23317908,0.21819881,-0.85621631,0.58006054,12.773836,-0.13423493,-16.086453,-25.009069,22.571128,1.5191905,1.5342684,0.84893925,1.0219797,0.81230202,1.6100049,1.1530634,1.0373761,1.2808539,1.5622721,1.1078655,1.5951531,1.4376844,0.86132224,1.2429581,0.025932231
-0.4766453,0.39778633,0.28566155,0.44587281,-0.79903431,0.62476222,-0.39486066,0.50545092,-0.067008598,-0.26670479,-0.711293,-0.31302202,-21.593824,22.601607,-24.797282,12.075713,26.510439,1.3391358,1.4550442,0.72765408,1.6821122,1.3598638,1.2312106,0.9071086,1.124174,1.643144,1.6217475,1.1102598,0.88628234,0.74726314,1.5516072,1.4128638,-0.01054396
0.89284413,-0.72847597,-1.0232873,0.88814722,-0.50134,0.98671337,0.16644905,0.23506665,-1.0441746,-0.50538563,-1.0346586,1.0925234,-18.11533,-34.345362,-22.497332,27.347385,7.5008634,1.130161,1.4661663,0.75657183,1.5527483,1.6911719,1.3759338,1.4689946,1.0428712,1.2361756,1.4036186,1.6173588,0.84958497,1.374595,1.0181768,0.94672936,-0.023488124
0.32542845,0.27733676,-0.92449734,0.91886215,-1.0674238,0.18658665,0.024110628,0.59019309,-0.83182348,-0.6841204,-1.0390733,-0.5342414,-0.29558353,2.1275487,-12.289676,17.421196,-11.953085,1.2425394,1.2593635,1.5731117,1.6375185,1.5739632,1.2491723,1.4386005,1.5580395,1.3696192,1.3893656,1.4675378,0.70804875,0.82531813,0.92185358,1.1431584,-0.012341681
0.70700653,0.84122279,0.32201382,0.064528364,0.36458777,0.89272852,-0.47244097,0.6883542,-0.37427633,-0.99381806,-0.822723,0.52873369,-6.2401697,-18.532929,17.069994,-34.60532,18.393132,1.3756048,1.1904055,0.7455997,0.89408857,0.69664964,1.3905461,1.3589312,1.3060124,1.2502547,0.73141061,0.76808105,0.7381436,1.5794786,1.547566,0.69150527,0.037301619
-0.30562803,0.44200949,0.24344217,-1.0201616,0.64170084,0.60672522,-0.064902033,-0.047499244,-0.041104333,-0.31846558,0.19450611,-1.0196607,8.446405,-1.2713876,-18.210963,-31.651121,-30.394077,1.576179,0.68975258,0.97162125,0.73830999,1.2259742,1.0985657,0.69397656,1.6141269,1.1302911,1.5527122,1.0837451,1.5033133,1.3864639,0.99897974,0.65249343,0.034402945
0.90505927,0.053652646,0.10292774,-0.79682672,0.34274364,1.0105759,0.98521976,-0.7463261,0.24830412,-0.67258798,-0.73577699,-0.58095465,-1.1106467,23.36045,-10.91471,26.469592,24.4247,1.564083,1.0924664,1.0829652,0.99647939,1.6790463,1.2813707,0.79685601,1.3589355,1.379043,1.2253941,0.79913387,0.79298957,1.4757044,1.464282,1.6373455,-0.028897367
-0.85706623,-0.50979678,-0.40296471,0.64579806,-0.90295198,0.17775556,-1.0594424,0.18480887,0.93246629,1.0685169,0.59148605,-1.0922218,-30.569269,22.296255,23.165245,-1.731208,23.587884,1.6485026,1.3830277,0.99633595,1.3683301,0.72390854,0.68082768,1.1208473,1.3806542,1.0048693,0.9382811,1.0904059,1.1021911,0.72521375,1.617452,1.3656872,0.0056015528
0.5874747,-0.33837232,-0.11261454,0.72523699,-0.6356195,0.44296574,0.92138369,-0.47116656,0.11628033,-0.68967415,0.18102489,-1.0896344,23.661331,5.9868005,30.156734,-25.763733,8.933898,1.2053525,1.0090725,1.2314857,1.3299031,1.6811126,1.3587602,1.5823856,1.0548915,1.6618075,1.3483824,1.4629416,1.1595325,1.6129234,0.85413741,1.237431,0.024903438
0.68524092,0.079666889,-0.29954623,-0.69965222,-0.38768401,0.17208459,0.38966943,0.20999235,-0.2378456,0.51979659,-0.86210154,0.62724633,-13.608182,-22.711075,4.961092,11.073352,-20.181095,0.67009739,1.3768285,0.75605656,1.2925546,0.81446483,1.21047,0.91855601,1.3708782,1.5505525,1.5351747,1.3820095,0.68295196,1.1236435,1.1259503,1.0466147,-0.013470264
-0.044176396,0.82813775,0.31323399,-0.15726563,0.17263277,0.80642423,0.42717156,-0.63762652,-0.30229952,-0.7927032,-0.72486683,0.25942811,-20.261591,13.439435,-13.423331,4.0805457,-18.268393,0.92168641,1.4834652,1.6993989,1.0469282,1.1719793,0.80617045,1.4567248,1.6740738,0.65793029,1.6343618,1.0186976,1.3007609,1.1885906,0.69291522,1.6261729,-0.0025783914
-0.49583646,-1.0772271,0.35631644,0.42070816,0.6877378,0.26153288,-0.44753657,-0.77424774,-0.61922162,-1.0462451,-0.11881262,-0.087333946,-32.213857,31.708056,7.3049154,-6.2873357,28.749469,0.90984557,0.92443965,1.557273,1.0867994,1.388058,1.5410659,1.6951374,0.82375612,0.91906958,1.602458,1.3619523,1.6820201,0.86170076,1.3046482,1.4225855,0.0089148879
0.040993129,0.6485771,-0.37709384,0.032800996,-0.69148724,0.49601119,-0.3843268,-0.58023581,1.0511818,-0.47649148,0.78396575,-0.98389896,30.366229,-4.7864073,-15.148277,-7.0851783,-10.591764,1.0883905,0.82969582,0.99770439,1.2676329,0.90639058,1.6564092,0.91989993,0.85808045,1.3581847,1.360274,0.7749056,0.9883854,1.0934191,1.3448586,1.0379018,0.0051318576
-1.0657669,-0.55438831,0.045393342,-0.16694843,0.16833837,-0.99778971,0.59821093,-0.22198815,0.94299277,-0.14131339,-0.010176254,0.49865094,-0.011814379,11.435738,-19.557471,17.583605,-12.347304,1.6078652,0.88964331,1.5850815,1.2151754,1.2532653,0.92928349,1.0676618,1.0419835,1.0171279,1.1688195,1.2495032,0.70100537,1.0972091,0.99340209,1.408892,-0.01937679
-0.36988789,0.19186101,0.70565669,0.14556257,1.0543659,0.26012488,0.078603824,-0.57355789,-1.0671202,0.89087565,-0.82598484,0.68487641,17.528503,-28.456057,-20.958212,-4.6689638,-1.2744775,1.1728399,1.6193748,1.1322455,0.79996049,1.0359686,0.72374988,1.1641962,1.2460969,1.2006349,1.5202523,1.5307194,1.0515514,1.1747282,0.80736674,1.6128345,0.0005274514
0.59720702,0.49809524,-0.54359302,-1.0447052,-0.6278653,1.0200714,0.040446206,0.25288866,-0.58931913,0.12671664,0.98334089,0.66213496,31.228681,0.44720293,26.139613,8.4705146,-16.061589,0.76816824,1.1535381,1.6650088,1.6024437,1.1207714,1.1543487,1.6380696,1.3857903,1.2276522,0.94975526,0.73660941,0.99434682,1.5369357,1.577946,0.98923204,-0.0094969756
1.0426704,-0.5845088,-0.3933549,-0.57661041,0.40797386,-0.023486743,1.0989772,0.1444571,0.067660422,0.22633027,-0.53580549,0.092414698,20.331858,-22.464575,17.886991,-23.337814,-28.639767,0.7465195,1.6531863,1.351828,1.6224939,1.055349,0.95057195,0.81282687,0.98124074,0.71310646,0.78021397,0.95625964,0.85579424,0.73382184,1.393608,1.370483,0.022525627
0.069541647,1.0564663,0.37566806,0.19440006,-0.60287412,1.0158507,-0.52451799,0.6776172,-0.50351718,-0.41928254,-0.91757215,0.75731989,-6.411529,-28.568414,-19.326422,-19.182576,18.447456,1.4208745,0.78742379,1.3816449,0.85613983,1.2921903,0.99319143,1.0183095,1.0776837,1.4792714,1.5637027,1.0014556,1.3146288,1.1670565,1.0189127,0.71513006,0.015857924
0.033485704,-0.17917939,-0.8798392,-0.60909853,-0.23935488,-0.65646307,-0.21551609,-0.2368002,0.49691703,-0.55366979,-1.0731209,-1.001318,21.45302,-9.1006376,-4.4155306,-11.822862,23.157198,1.220356,1.1727154,1.6284746,0.77180426,1.3642578,1.5810063,0.97247397,1.4199656,1.2617367,1.5579548,0.99713742,1.1886816,1.1722023,1.403321,0.81608228,0.0089079801
-0.16767199,-0.9970613,-0.35404419,0.38413607,-0.42631717,-0.39643579,0.42175385,0.66971177,0.77592549,0.22868156,-0.60181065,-0.90229919,4.889593,-0.61008105,-33.632182,-6.0854338,-7.8856778,0.80619776,0.86579773,0.86242045,0.80043535,1.6668801,1.5530959,1.2335452,1.2940529,0.79638551,0.80130936,1.6563913,1.6687217,1.0051482,1.4263733,0.80657224,0.0017571269
-0.66037977,-0.07016741,-0.57810409,-0.50602328,-0.75615155,0.045586036,0.87252935,0.90296833,0.097088258,0.019126601,0.39001806,-0.52792441,19.189047,20.319667,-17.350157,15.915726,25.605081,0.94391937,1.3528773,1.4092296,1.4213901,1.053107,1.0689566,0.75317664,1.1898315,1.5981247,0.98190595,1.3932213,1.1703331,1.4888348,1.6460044,1.3952125,-0.010775993
-0.29150941,0.22929384,0.89225481,0.36234269,0.54449438,0.80006376,-0.91580769,-0.37488315,-0.19698194,-1.0075463,-0.64683057,-1.0567162,-5.6766483,2.5713099,26.004811,-17.135034,-8.5093098,1.0854456,0.68359298,1.3972868,1.2497738,1.0478355,0.67206834,0.90263995,1.6196197,1.0476635,0.93047769,1.1885916,0.7091205,0.98831705,0.99463567,1.1416251,0.014533605
-0.48596175,-0.046569798,0.18630261,-0.3515327,0.81148376,-0.30277776,-0.034044171,-0.41051239,-0.85845733,0.3001544,-0.074448058,0.047838428,-27.234107,6.3702889,-34.554101,-30.774495,3.0598911,0.83885118,1.5718361,1.199864,1.1642294,0.75386424,1.1962589,1.4736729,0.92072632,1.0971971,0.7923317,0.91896173,0.8398169,1.0026076,0.725723,0.72646138,0.023098728
0.86157052,-0.75562941,0.02481785,-0.71821101,-0.030967741,0.71540441,-0.95812674,0.88191625,0.33233224,-0.24376228,0.038412752,-0.93664633,-30.264464,-34.854742,26.347374,0.31887681,-30.637453,1.1198079,0.71169907,1.2761998,1.0393025,1.1070069,0.81437572,0.76268132,1.334967,0.69001146,1.1225253,1.2330271,0.98601571,1.1660258,1.5449504,0.83183122,0.0022067171
0.025823245,0.78565605,1.0356493,0.16403763,-0.70958031,-0.11644034,0.19938488,-0.38944655,-0.86240155,-0.016786657,-0.64663597,0.014808576,12.342656,33.020053,8.0301795,3.2274535,-6.1897119,1.0176826,1.0416547,0.74134925,0.85676773,1.3452874,0.89529881,1.0871114,1.3809921,1.4340311,1.4107894,1.3866275,1.6478456,0.84082208,1.0967354,1.4326979,-0.0013509133
-0.25438929,-0.44148965,-0.3029353,-0.48266541,0.3772322,0.093404985,-0.31041878,-0.90799231,-0.96873656,0.69102239,0.48782046,0.49830291,23.7962,32.732964,12.9217,-34.995899,33.9338,0.65553212,1.2284196,1.248657,1.178341,1.676415,1.1570706,1.1862659,1.5203001,1.2831684,1.6116995,1.2840406,1.5704355,0.76019891,1.6130104,1.2655381,0.032398986
0.46962161,0.30716442,-1.0092012,0.12803301,-1.0826064,0.11012768,-0.73881299,-1.0273778,0.31080535,0.80772903,0.36573337,0.35464945,31.575214,14.624903,30.739662,-28.508235,12.098365,0.98323461,1.6740563,1.4143698,0.66373567,1.5553266,0.92416507,1.1423675,0.81995137,1.0226066,0.84976081,1.1798809,1.3090908,1.5389235,1.3867583,0.69606062,0.020233154
-0.49042892,-0.35639106,0.52430379,0.12050104,-0.12388382,0.446409,-0.58375247,-0.87633258,-1.0495226,-0.22525942,0.94079351,0.28070015,19.925457,7.1593874,-2.176352,32.052133,-19.807979,1.2845584,0.82315585,1.3303623,0.99889368,1.3061311,1.145197,1.1267621,1.0402691,1.6026359,1.2015717,1.5160569,1.3688828,1.6132896,0.70782138,1.2038797,-0.03846498
0.58812932,-0.33181221,0.18747041,-0.5163894,0.94968208,0.13116208,0.92794293,-0.18576266,0.63013413,-0.27284988,-0.63341403,0.1254407,-21.306997,13.309241,-31.587581,-12.476522,27.098123,1.4471919,1.0536355,1.5512087,1.0147005,1.3206625,0.72462141,1.1120027,0.77973406,1.2903773,0.9706823,0.70748981,0.8811698,0.9208358,0.83726069,1.0903554,0.0048603592
0.26801345,0.71486107,0.90555569,-0.39952684,-0.94988561,0.8463473,0.68415947,-0.50342143,-1.0091954,0.22622225,-0.15220193,-0.48723301,18.413036,-2.1061912,21.244302,-17.021701,6.266336,0.6996277,1.0427481,1.2676932,0.8700177,1.437541,1.6020606,0.98179393,1.6106394,1.3169678,1.6277956,0.91092853,1.2758784,0.88772596,0.86019158,1.1399415,0.01201603
-0.37285814,0.85052718,0.56381268,0.013844644,-0.41925147,-0.39540505,0.15246319,0.48001576,-0.92751576,0.76776399,-0.59658201,-0.9892797,21.756787,-13.682447,-10.879776,-16.390317,-22.055458,1.6837089,0.89573385,1.0488566,1.0321452,1.5649244,1.5844907,0.73442851,1.0900328,1.1312407,0.71231638,1.1514743,1.6279024,1.6550634,1.4009692,1.1896782,0.016487356
-0.11240824,-0.20564756,0.69000544,0.98880674,0.16395861,0.16140676,-0.9444019,0.648229,0.36984153,-0.97105846,-0.94818081,0.91055852,3.7189112,-6.2597875,1.7509784,28.693223,17.004618,0.9741477,1.2003269,1.5939637,1.3977892,1.2930206,1.2970553,0.85800092,1.0714217,1.2337916,1.2346416,0.82216005,1.3939894,1.4793837,1.3521931,1.4592741,-0.033326559
0.61764967,1.0158852,0.05418753,0.29626545,0.5374415,1.0146191,0.76604983,-0.81794766,-0.57928572,-0.57370555,0.84942593,-0.35208639,9.6172023,6.3182411,0.67742378,-24.538566,20.323827,0.91345609,0.70642615,0.85431332,1.0439167,0.9578354,1.0895281,1.0494201,1.0528002,1.1635902,1.5602154,1.1910085,1.4298494,1.4791959,1.3454012,0.70835186,0.024470964
-1.0582956,-0.33344304,-0.83245805,-0.35377353,0.53493379,0.65060817,0.77239096,0.19979372,-0.11540316,0.038386364,0.81897329,0.22414618,4.4892953,-8.414584,-23.913278,29.540615,-20.876415,0.72637359,1.1609249,0.86443276,1.0213975,1.5272465,1.4818908,1.4881157,1.110629,0.79221436,1.0468317,1.6508103,1.3188127,1.1346352,1.0643119,1.440115,-0.02559026
-0.86397287,-0.036630609,0.10150662,-0.49129802,0.43046844,-0.20485755,0.77294545,0.72263765,-0.34040853,0.85077077,0.25948047,0.24351775,7.9599133,12.262455,15.084241,-19.167852,-14.082357,0.99244413,1.0584449,1.5332038,0.80641985,1.4484852,0.73994542,1.4126687,1.4724443,1.2708358,1.1866827,1.1762897,0.80151395,0.89500878,1.4625105,1.2641041,0.021270306
0.5701323,0.67008439,0.44112676,0.80123934,-0.94977408,0.52174333,1.0692685,0.029767658,-1.0931616,0.83785827,0.95144707,-0.99240099,31.916615,12.555231,-34.239406,8.3018944,19.939509,1.6748059,1.4126357,0.91810371,1.1190323,1.3250524,1.0062431,0.92800313,1.598685,0.94940073,1.078038,1.1346872,0.88732617,1.4909992,1.2738425,1.3206959,-0.013492424
0.23396749,0.2742551,0.060683232,-0.48620962,0.18571681,0.79849209,-0.94141735,0.22996726,-0.98409788,-0.19029285,-0.73896057,0.89045918,30.901919,-31.452129,24.072795,-8.53424,-4.9715659,1.5183677,1.3551819,1.2925118,1.1450145,1.2085651,1.4536855,0.99245848,1.2997409,0.84448072,1.6874492,0.7595,1.4165572,0.67618624,0.81206347,0.75075124,0.0037532596
0.42111064,0.85486593,0.9143927,0.78348904,-0.19950935,0.49643356,0.11709223,-0.23864067,0.35176498,0.89325409,-0.43572413,-0.16301648,8.8826351,-19.551753,-26.31492,-14.854515,30.173921,0.9213445,0.98709091,1.3869429,1.6999799,1.3619243,1.2121656,1.0668971,0.7902513,1.6536455,0.67002819,1.2637134,1.1808254,1.4331571,1.420974,1.4107587,0.016138098
-0.63674684,-0.91117919,0.44724037,0.1942572,-0.80477446,0.91117919,-0.44725758,-0.48352391,-0.85688843,0.27931135,-0.72435877,0.0020075061,23.982483,13.588713,-24.493693,4.5075964,19.172372,1.4757821,0.66989178,1.0710853,0.83127971,1.3680327,0.97540137,1.2708316,1.1161339,0.91178296,0.93623836,1.4080571,1.6654407,1.5112587,1.5752864,1.4386677,-0.00778518
0.96969697,0.056813338,0.4459266,0.10489187,-0.77248218,0.46614049,-1.0230909,-0.20927179,-0.84624643,1.0111496,-0.368154,0.74495311,27.564243,12.240401,-5.5740163,-22.491114,-8.1504715,1.2503704,1.6245157,1.4360465,1.6840406,1.2206872,1.4891388,1.5057215,0.91113986,1.6776945,1.661198,1.6056263,1.0616319,1.547473,1.2279587,0.85183457,0.014033839
0.43709939,-0.91329345,0.098762364,-0.43266771,0.62663014,0.21170336,-0.069386834,-0.65364376,0.98720238,-0.41123542,0.18425925,0.49146107,3.5268757,-13.79992,-25.26088,-9.6109127,29.390807,0.89433069,1.6158842,1.2665755,0.98454792,1.6969545,0.91490759,0.95179085,1.348791,0.9801674,1.5734329,0.73718856,1.2781733,1.65815,0.7771363,0.67981061,0.0078061765
-0.72890791,0.51357096,0.061360935,-0.091625598,-0.57101875,-0.17486672,-0.96757388,0.44016191,-0.021240866,-0.73863375,-0.21401928,0.72994892,-19.428748,11.028503,-3.9479533,6.7491676,33.260347,0.97486601,0.67304697,1.6003584,0.72296599,1.6394267,1.09464,0.86436728,0.97094225,0.8764317,1.0876041,1.2622436,1.6786123,1.3366197,1.166856,0.79943882,-0.0028334656
-1.0613596,0.94954093,-0.042047377,-0.77440132,-1.0011843,0.72198251,-0.3557635,0.076095403,-0.94941002,0.043180405,0.02515944,0.62466087,3.2136303,-28.515249,34.217278,-30.210883,25.683306,0.71487429,1.0921268,1.674984,1.255797,1.4795666,1.2754029,1.295811,0.94529228,1.3272898,0.80986442,1.5912487,0.91747567,1.0635603,1.4078032,1.5990062,0.013120384
-0.162709,1.0486785,-0.76623655,-0.12110344,0.99477924,-0.61561339,0.22120406,-0.92662481,0.34818904,0.16864256,-0.28360434,-1.0562588,29.06198,-15.309532,12.703332,4.8998486,31.754823,1.5247122,0.88766771,0.93119379,1.6740609,1.4916818,1.1966221,1.2769414,0.90362826,1.4302455,0.78637759,1.6481435,1.6469799,0.99149636,0.87939405,1.5258457,-0.0045830892
-0.28389925,0.58462035,0.069060738,-0.42882441,-0.75246074,0.50183942,0.80971933,0.83002766,-0.909726,0.68074563,-0.70277077,-0.022377881,-1.7956445,-9.3976235,-25.858776,21.557845,2.6954595,1.3638287,0.66904848,1.5978503,1.6202711,1.4960149,1.5723459,1.3674198,1.1741764,0.9835911,1.3656135,1.2663452,1.3130966,1.6649844,1.1936301,1.3917926,-0.019503853
0.27876751,-1.0682074,0.21161179,0.59055791,0.90144744,0.9248386,0.41860545,0.53331478,-0.17063553,-0.2256281,-0.85744926,-0.34998314,14.819711,14.880658,-10.782924,1.3966595,23.655969,0.96295951,1.1104353,0.68572551,1.5386414,0.84664806,1.3639854,1.2025626,1.3704502,0.65636952,1.6525986,0.92534245,0.98047732,1.5323458,1.0853887,0.77748967,-0.0041224987
0.40609878,-0.75035626,0.68610647,-0.7669495,1.0911079,-0.16826617,0.012125186,-0.72968447,0.6566125,0.52799765,0.62799182,-1.0927395,-27.519041,-22.52832,-3.4699403,-9.2870501,12.549389,1.2887007,1.1419353,0.90604135,1.0369915,1.116377,0.79871847,1.1612832,1.6362311,0.93538618,0.73557242,1.4156584,1.3201861,1.1183501,1.4107617,0.92245959,0.0050278459
-0.72591978,0.1555136,-1.0304815,0.92536242,0.4258397,-1.0310773,-0.29120872,0.8847722,-0.048372005,0.68420833,0.31773664,0.74879925,-14.812215,-28.893644,-25.472616,1.7347588,-33.908297,0.77389635,0.82603429,1.4083912,0.98062777,0.91100224,1.464703,1.3634813,1.1310141,1.104281,1.2004708,0.86320987,1.4682866,0.69328958,1.6179223,0.86940177,-0.0032890789
0.85988254,-0.53706251,0.95688769,0.28447359,0.27194652,0.84444226,-0.54623755,0.69009542,0.30202992,0.65973617,0.24862646,0.34668108,-31.365631,7.8316071,25.820123,28.805453,13.246638,0.6687883,1.4250297,1.323709,1.5266094,1.2739889,1.6817126,0.94411466,1.4851615,0.80939269,1.012914,0.69583657,1.3752053,0.77556853,1.6302798,0.66217297,-0.026807861
0.76667949,0.96815549,0.53843156,0.061514795,0.29517342,-0.22343733,0.77700659,0.80572879,-0.26549124,-0.10729611,-0.051515081,0.63729176,-29.468863,-33.181199,13.593066,-21.332167,10.274182,0.99759015,1.4476606,1.5812424,0.74094329,1.3838188,1.6932696,0.93258347,0.88033186,1.537642,0.84877398,1.3942286,1.3008818,1.1200606,0.75800841,1.547301,0.018799557
0.65465774,0.6610829,0.89196498,-0.11050885,0.92977869,-0.1197988,0.93070775,0.10115399,0.17925456,-0.055947604,0.90977314,0.11149782,9.4847095,19.513327,10.491224,-3.9930041,19.580186,1.3878977,0.94743938,0.66367121,1.5220792,0.73548507,0.99750271,1.0281243,1.1859148,0.8697291,0.78690293,1.0275723,1.3573564,1.0897657,0.84269035,0.99675033,0.0034544547
-0.40248272,-0.049747921,-0.44966333,0.86619013,-0.082829269,-0.071816489,0.29432914,0.98046397,0.69030455,-0.58136925,-0.40561005,0.16790431,16.025591,-17.893636,-18.343301,-15.866368,33.958442,1.6180383,0.71973025,0.80633072,1.0004007,1.434228,1.5699207,1.5574421,0.78008651,0.91403172,0.93107704,0.7617346,1.1734856,0.92183399,0.81394136,0.81235873,0.013846874
0.70835716,-0.64908258,0.67793801,0.49010737,-0.64976315,0.23504247,0.74858658,0.35847494,-0.68644425,-0.5119832,0.23472093,-0.25737832,-3.1345493,27.629817,-5.6690628,-9.9383871,-14.472383,1.3650001,1.4563355,1.4312659,1.1352702,1.2363518,1.2140652,1.4942904,0.93792853,1.4648696,1.0135352,1.6856692,1.292712,1.3608068,1.3300815,1.5295578,0.0091439139
0.63451943,0.86014606,-0.50624327,-0.05517268,0.73924549,-0.49994547,0.23435048,0.11378744,-0.8044169,0.32323981,0.87786368,0.39324624,30.223252,-27.799912,16.880683,3.6445993,4.7798746,0.80528448,1.2662911,1.4545819,1.3586932,1.5065295,0.84160842,0.66266738,1.4505747,1.2082175,0.86095063,1.2972936,0.66338409,0.89640646,0.80338719,0.8784825,-0.0041584397
-0.56484481,0.23215942,0.67354129,-0.83477496,0.29007659,-0.12035014,0.46080511,-0.53097573,-0.10100766,0.080888083,0.43303467,-1.0565029,-31.545566,-6.333355,25.301796,-2.7127084,-22.490524,1.2013762,1.3805432,1.2396514,1.0212294,0.80311485,1.5512304,1.3799109,1.1131622,1.3669368,1.4576238,1.0333774,1.273744,0.7153578,0.81852422,1.1865814,0.00079547325
0.83482855,0.61063111,-0.39189651,-0.25556957,-0.48643607,0.77797326,-0.54028734,-0.46404141,-1.0827347,0.15274523,0.82202863,0.99568674,-24.097331,16.152591,16.5998,-27.160605,-18.294847,1.6025233,1.4095231,1.1045831,1.0276459,1.5450142,0.85323691,0.80275935,0.82635513,1.550731,1.3865455,1.3200352,0.68152528,1.2954579,1.3111931,1.1731399,0.025300475
0.49749609,0.38201644,-0.86506731,-0.8379727,-0.67563653,0.80602728,0.35296607,-0.91109904,-0.40488335,-0.81312774,-0.93819267,-0.55062804,-16.87554,12.804928,32.42031,8.144295,31.165644,1.0395793,1.5589824,1.4665342,1.6905215,0.94555447,1.5339262,1.3983246,0.84235012,1.5783902,1.1033085,1.6557693,0.66546131,1.1582584,1.1990838,0.65073919,-0.0069000448
0.7300178,0.54731429,-0.1861953,-0.043998144,-0.57421005,-1.0322533,-0.26366205,-0.15170694,-0.9644908,-0.52133621,-0.82408814,-0.42397409,-19.109293,-9.8909867,12.186423,-2.7870184,-11.417444,0.83039138,1.1379568,1.240705,0.87951649,1.4836534,0.66208283,1.0760742,0.67965105,1.295179,0.82388159,0.92786795,1.426667,1.5414663,1.0739691,0.99837191,0.0047552693
-0.49921568,-0.69475573,0.54029907,0.66128045,-0.18603992,0.36842818,-0.5350181,0.13144922,-0.84331017,-0.21870084,-0.98407023,0.2744925,-11.064029,-33.134993,20.1788,-4.9048866,23.57067,1.5088403,0.82918949,0.88777925,0.70591955,0.7397945,0.97609857,1.4386955,1.0545225,0.71048558,0.83114792,1.2530536,1.5714438,0.90613107,1.4949126,0.89536348,0.0098435425
-0.10678141,-0.19749391,-0.81580323,0.27623084,0.28025311,-0.2899541,-0.020112425,0.634168,-0.64819319,0.23203011,0.69936082,-0.11153491,-29.326043,-12.79845,6.4520001,8.7650531,34.247199,0.91500845,1.5969519,1.2207054,0.74609408,0.80327203,1.0430198,1.6339911,1.0885481,1.3772376,1.3320588,1.1629306,0.97453827,1.4647638,1.3344551,1.5366676,-0.0062353401
0.20558071,0.38550095,0.52207062,-0.027292813,0.90469666,0.5566381,0.38201179,-0.94320564,0.96187489,0.53791694,0.20875003,0.87358925,-34.230598,16.33313,-29.089681,-30.261375,17.070635,0.81746351,1.2092283,1.0494997,1.3419135,0.8908704,1.2087577,1.5398685,1.5192805,0.94811439,1.5086082,1.128286,1.4528048,0.89069362,1.3876198,1.5257414,0.017304671
0.44251761,-0.012928554,0.42215702,0.84854344,0.20980702,1.0454359,-0.28637053,0.8328938,1.0799865,-0.16023991,0.76357332,-0.65751959,-12.081417,17.618181,8.7757964,4.810616,2.0235268,1.0162301,0.77936983,1.4687505,1.1395907,1.4010372,1.2815095,1.0295453,0.9175343,0.99891035,1.5863296,1.1913575,0.99516651,1.6634947,1.3553546,1.0455168,-0.0026631204
0.89085086,0.95639802,0.85098807,-0.48657424,0.65498576,-0.42337907,0.60370531,-0.24080137,-0.77727015,-0.837116,0.52820981,-0.20447974,16.728056,28.441879,-7.3361052,-27.92006,27.554306,0.95321382,1.1147276,1.4262421,0.70107634,1.2400722,0.74376594,1.5741192,0.72103377,0.66458758,1.1733737,1.1420215,1.3052224,1.6222628,1.371489,1.3154388,0.01608086
-0.095690633,-0.71951201,0.094168677,-0.66973481,1.03594,0.6504515,0.33846799,-0.47867518,-0.73163035,0.93907276,-0.051470461,-0.8119017,-3.9535149,-16.724291,34.841438,30.05263,-25.44915,0.81700873,0.91577613,0.84938726,1.2017483,1.3339652,0.65394156,0.74574732,1.2751318,0.93952225,0.95043918,0.68123981,0.69751985,1.316132,1.2304802,1.231124,-0.019460181
0.78797462,0.41980164,0.84566983,0.29358563,-0.52010437,0.087401992,-0.043444527,-0.066029959,0.78748826,1.0419079,-0.2052107,-0.7641019,18.150098,-11.295412,-1.98971,18.944596,-28.181242,0.84290836,1.5108283,1.6909108,1.1872037,1.5324168,1.2289667,0.99383047,1.2586712,1.4870631,1.2688595,1.5721777,1.6910118,0.78575044,1.6075784,1.3197558,-0.017211781
0.12716464,-0.28356148,-0.33588882,-0.1554909,-0.78716683,-0.037939511,0.093945578,-0.021146481,0.84769474,-0.85968958,-0.61823737,0.10216143,-15.326144,13.499174,10.615399,-16.99342,-8.4121971,1.4180492,1.6034875,0.81494298,0.84666183,1.595338,1.3950797,0.90491774,1.0523918,1.6484352,1.3012138,1.4499116,1.6146385,1.3286879,1.2070441,1.0895848,0.0081440674
-0.46640032,1.0542143,-0.088241781,-0.87619516,-0.93896145,-0.27681668,0.86915208,-0.88097407,0.10909455,-0.50974463,0.47340652,0.14579513,17.976205,6.0828538,34.524227,18.679254,-7.7817643,0.75332336,1.555787,1.3124493,1.2858589,1.6798056,1.4431603,1.5451926,0.70246283,1.4428542,1.6512899,0.97947682,1.5169269,1.2907954,1.6975778,0.88957502,-0.017484786
0.6543219,-0.58530364,-0.55758286,-0.86675888,-0.67967902,1.0363844,-0.67593237,0.23197456,-0.23418563,0.45766931,-0.4557108,0.38563533,18.511287,-30.80074,-18.044768,31.589694,-22.014302,1.5594683,1.2330997,1.1566628,1.6821144,1.3968516,1.2853743,0.88564156,1.52763,1.6277464,1.13381,0.84546825,1.4848775,1.2860419,1.6069681,1.5628571,-0.027152245
0.65773825,-0.34358062,0.31612648,0.076276535,-0.10424539,0.64228301,-0.60426124,-0.30625856,0.8402713,-0.27586173,-0.67405145,1.0570505,-25.488936,7.4568306,26.952622,22.725516,27.748315,1.5639215,1.5279751,1.1283328,1.1887938,0.9571426,0.99559879,1.5787853,1.4442356,0.71767938,0.9873957,1.2595947,1.2584098,1.2927203,1.4999569,1.6759164,-0.027539909
0.0057063174,-0.85497656,-0.57448808,0.89217848,-0.92055437,-0.98430917,0.65687698,0.57478878,-0.23657964,-0.19432037,-0.2568741,-0.42060905,31.128051,-10.840586,12.276529,-28.382219,30.049596,1.0782864,1.1097903,1.3947464,1.6031501,1.4439167,1.6576843,1.3508488,0.91623733,1.2508527,1.3311825,1.1343032,0.73304741,0.97776038,1.0187753,1.5558283,0.015301947
-0.45707709,-0.58650376,-0.93585637,-0.86856905,-0.31567555,0.90519408,0.1203427,-0.58598133,-0.95196035,-1.0370526,0.44160076,-0.028656368,-0.68181942,20.661005,-20.48265,8.1050284,1.212456,1.2912178,1.447586,1.3779464,1.6952407,1.5109753,1.0119037,1.5658257,0.98173533,1.6757085,0.83229,1.5481093,1.4237888,1.4677763,1.5667847,1.3510914,-0.005806024
-0.80054222,-0.52838295,-0.50642122,-0.8469141,0.78513095,1.0067463,0.39560058,0.93475814,0.0035287378,-0.068604348,-0.69708475,0.98057648,12.163804,-32.946018,-23.723244,3.4331519,20.984391,1.5448731,1.6326394,1.471153,1.6187689,1.4490841,1.3562924,1.0561954,1.5260797,0.7712994,1.2789857,1.6633256,1.6626428,0.6875705,1.04733,1.6258339,-0.007665013
0.76441102,0.22706112,0.75194778,-0.32672223,-0.030707298,0.6944355,0.67489829,-0.018878097,-0.61163379,-1.0663268,1.0322817,0.74161388,-8.8646465,-28.113489,-3.413907,22.464346,-21.742182,0.86208129,1.4002116,1.0564532,1.6596116,1.1915881,0.67189356,1.1150878,1.1801798,1.081569,1.679434,1.4972328,1.0414884,1.0956015,1.2742037,1.0909046,-0.024516564
-0.19003408,-0.78796633,-0.28051233,0.33155911,-0.043166867,0.2023711,-0.77956817,0.12414094,-0.52315904,-0.67279647,0.15839632,-0.96118476,2.0840375,26.418842,11.473638,-12.563955,27.606273,1.4545665,1.0996552,1.1556638,1.6910939,1.114736,1.5672741,1.1751725,0.9235387,1.1150082,0.89301407,1.5374673,1.0632762,0.83345815,1.2311843,1.5146765,0.011751575
0.19488223,0.90363785,0.35410408,0.62245423,0.39891521,-0.53319917,-0.085365048,-0.90747996,1.0449689,0.66059498,-0.7111356,0.13325851,31.091744,8.9402207,-31.71139,6.6641505,4.3775717,1.2327141,0.97579984,1.6678937,0.73940624,0.75067106,1.0785784,0.76703178,0.95313367,0.81751984,1.1060045,0.76772966,1.1323133,0.88981952,1.3966622,1.2519325,-0.0050517939
0.95047841,0.32036332,0.91314145,-0.45425442,0.67277034,-0.59751994,0.83995485,1.002879,-0.82879783,-0.41168409,-0.75912324,0.68015669,12.555199,-34.771912,18.470789,-11.446614,-23.234583,1.5703932,1.0983581,1.4052969,1.4757224,0.71633132,1.4304335,0.79646475,1.0830514,1.3948058,1.5503912,0.92438145,1.6289819,0.8987811,0.8139271,1.6226981,0.0081514337
0.33878841,0.50849521,0.51861783,-0.88150672,-0.0465681,0.21483859,-0.15437603,0.35763967,0.66905228,0.68744062,-0.33501473,-0.85851521,-21.406749,16.771106,-18.019753,32.017007,19.834431,1.4342595,1.0499698,0.84225882,1.0939178,1.3257989,0.95163637,0.85253582,1.6195155,1.3975919,1.1262879,1.4701639,0.74409081,0.73427139,1.5992706,1.3414952,-0.033306156
0.073574118,0.65764706,0.32288712,-0.65155915,0.83729899,0.34822737,0.81273299,0.90093938,-1.0167352,1.0535038,-1.0344239,0.64017581,-26.55307,-27.444221,-25.028161,-18.29835,-30.376534,0.7488974,0.66863678,0.97831894,0.95644806,0.87248021,0.82481585,0.8800613,1.1902366,1.0558873,1.5979996,0.97936945,0.76239666,0.7506374,1.5628563,1.4763999,0.012032407
0.89527764,0.58751736,0.37853821,0.052379139,0.69025063,0.71154757,0.19338196,-0.12111262,0.84048186,1.0639151,0.21743592,-0.48335515,-6.9966365,7.5306791,8.1236881,34.825168,-33.397503,1.4474543,1.264619,0.65233336,1.0167781,1.5887928,1.6399316,1.1808489,0.77712124,1.4767305,0.85924759,1.024249,1.1537792,1.5170109,1.6519942,1.2668095,-0.024756717
-0.96028468,-0.20068337,0.55687061,-0.10854436,0.9602848,0.20267985,0.011344221,-0.66066781,-0.51295118,-0.64030472,0.86668672,-0.53306566,-1.2907557,6.2683476,2.1188198,-18.995124,18.951697,1.4925539,1.1541008,1.671554,1.3582081,0.70344104,1.0835383,1.1784723,0.73317644,1.0463507,0.91537805,1.5088828,1.5439886,1.4667766,1.5645471,1.5424408,0.010057656
-1.0925601,-0.048286173,-0.072325027,0.54378101,-0.19398235,1.0258967,-1.0142937,0.30397472,0.35929033,-0.17687587,0.45047666,-0.39119882,15.11344,-18.414115,-16.030793,0.45469959,12.13594,1.0061741,0.81860244,1.4512882,1.6502892,0.95989982,1.1363068,0.80777577,1.1374398,0.9510262,1.0973464,1.2006987,1.5431372,0.80679105,1.3871893,1.6408481,-0.0072281245
-0.71503088,0.63869751,0.70937008,0.98125153,0.73223054,0.35197074,-0.046786759,0.93805419,0.42233952,-0.48248162,-0.93205526,-0.7576762,25.790758,25.262085,29.865869,-14.333581,-34.490659,0.9574271,1.5772412,0.69244084,1.0032737,1.4207201,1.3422616,1.4902452,1.200582,1.6817806,1.0361267,1.2819007,1.3045994,1.6521891,1.3919689,1.1212355,0.0071203127
0.90142686,0.57903349,0.73255246,-0.83482834,-0.60705121,-1.015845,0.62041815,-0.83473179,1.0155927,-0.46358494,-0.0081521501,-0.66806613,15.693637,2.9625809,22.096555,26.799709,-27.297152,1.1265519,0.65843017,1.6359449,1.3765022,1.5717608,0.98339506,1.2206988,1.6839226,1.3379235,1.0297395,1.0309753,0.80211785,1.5946995,1.1650969,1.6843761,-0.028502447
0.90855199,-0.62029137,0.76640088,0.68385138,0.91595103,0.58494153,1.0689501,-0.92373785,0.48886019,0.38017721,-0.98942837,0.38386753,-17.231166,-14.204233,-30.53753,-4.263503,23.305521,0.81329219,1.451858,0.72755223,1.0202775,1.6032686,1.3359253,1.0460959,0.83438185,1.0057277,0.66514683,1.1228225,0.9770063,0.94482449,0.81528005,1.2617878,0.0084997954
0.40416999,-0.18071184,-0.2462471,0.059138444,-0.060079941,-0.36984984,0.83140772,0.29369565,-0.87006026,1.0109381,0.47514334,0.74802487,-9.0943408,31.413495,26.617567,-8.5594955,-9.4408856,1.4305457,1.6315201,1.5589347,0.66490699,1.2918412,1.4248009,1.6791213,1.4915202,1.6301996,1.4153597,1.5503294,0.93642175,1.3402899,0.9018935,1.674021,0.00930983
-0.7429576,-0.31414358,0.2635472,0.42040931,0.063170549,-0.46506074,-0.62171259,1.0702601,-0.89791584,-0.94539821,-0.70283805,1.0459859,5.1243302,24.617974,-15.709982,2.3266927,-25.27532,1.590376,0.94936327,1.4985549,1.2122721,0.75787644,1.429306,0.74553183,0.80343243,1.6388323,1.6039615,1.4307914,1.5618039,1.6389036,0.70205927,0.96020489,-0.0029724925
-0.33792889,0.74285372,0.76740041,-0.10994709,-0.62420748,0.92185247,0.81025885,-1.0978693,0.88303865,-0.59561233,-0.085580383,-0.12837997,-11.156315,25.819182,12.9875,20.907644,-5.220188,0.7895077,0.70584088,1.5175932,0.93882476,0.77769398,1.6527327,1.0777778,0.96113516,0.89855776,1.2602764,1.1646307,1.1978905,1.5949135,1.6111982,1.2578455,-0.019597216
0.17628887,0.67934232,-0.098010141,-0.11941247,0.82639986,-0.30696412,-0.022523076,-0.29758787,-0.77206839,0.82329621,0.30867724,0.2264711,-11.71491,17.513078,-7.7021913,-20.729118,-4.2850776,1.335509,1.3992032,0.90898437,1.1502647,1.2486578,1.1911523,0.69719731,1.1452028,1.2235993,1.0836293,1.6584085,0.92138404,1.6516389,1.5946871,0.95573492,0.016922516
0.65289863,-0.31590101,-0.68496957,0.082679467,-0.24679221,-0.30606916,-0.37473384,0.11336544,0.89952654,-0.57205485,0.0043239039,0.10106231,26.66269,-20.176488,-26.232025,-21.637599,-13.13181,1.2300218,0.87662267,1.1471782,0.82373978,1.6944509,0.83616364,1.5523623,1.503406,0.84538393,1.1176551,1.2787516,0.87840906,0.72101799,1.4493946,1.3246145,0.023572913
-0.3755223,0.056328121,1.0873437,0.34136943,-0.094690925,0.68878189,0.21662313,-0.94919017,-0.65993264,0.84738124,0.46861903,1.0497083,-33.466421,-20.134256,-16.432535,-31.610061,29.70378,1.046558,1.2497598,0.81331096,0.71728573,0.67133532,1.182699,1.4212656,1.0604481,1.6019744,1.6329581,1.5761846,0.78405055,1.3875461,1.3379358,1.2367512,0.036111468
0.94837872,0.216713,0.5611858,-0.15383651,0.62890918,-1.0686127,-0.0021583875,-1.0901811,0.35121689,0.47796222,-0.25549691,0.73475925,34.019052,-1.7957083,-10.468662,33.194917,6.9695023,1.5713736,0.77588211,1.6505787,1.6270144,1.4307235,1.4703178,1.2315038,1.6335302,0.69221869,1.4694769,0.74771363,0.72297382,0.72102476,1.5630863,1.1411784,-0.027377046
-0.8161533,0.99001767,0.72389512,1.0018578,-0.39758529,0.89408658,0.36126936,0.098062067,0.99213496,-1.0757281,-0.83861519,-0.47834855,11.454038,8.0179799,8.1884749,3.6983751,-1.409246,0.79703184,1.1641393,1.3388102,1.2337324,1.2896851,0.88757565,1.4838854,1.411425,1.5692599,0.9516152,1.5466524,1.0871749,1.3979191,1.3769615,0.89187573,-0.0019174591
0.2729717,0.48174704,-0.41832915,-0.28782167,0.6338107,-0.055899414,-0.47940528,0.19236417,0.36582941,-0.23020334,-0.78442424,-0.12467552,10.661797,-7.1770394,-14.501349,15.82072,-31.162864,0.96129087,1.4156366,0.95352113,1.0295525,1.0391972,1.4367115,1.3099644,1.5223208,1.6450639,1.338786,0.82567485,1.6672567,1.5828028,0.71638704,1.316987,-0.012177567
-0.57588366,-0.57223206,-0.77502554,-0.49693665,0.22400866,0.028994111,-0.89946782,-0.64015919,-1.0856069,0.2613078,0.16783437,-0.67205831,-20.058749,-7.3887158,-2.1470937,33.796374,-34.333948,1.6150784,1.3731605,1.0586561,0.8831956,1.3684335,1.4123193,0.85029007,1.6751252,1.5299198,1.2623696,1.6954065,1.1464099,1.5605475,1.5212951,1.2065574,-0.034285617
0.28278306,0.44767503,0.90224368,-1.0865552,-0.28286916,0.30428018,1.0949035,-0.15002059,0.98869153,0.4266543,-0.53470983,0.91428961,-30.21022,-33.159265,32.226485,-29.465453,24.133338,1.610232,0.76849477,1.3915894,1.0425759,1.5234236,1.2805845,1.2333401,0.99677395,1.3797265,1.1639434,1.1974455,1.4668505,0.7070861,1.4460305,1.4844494,0.025384544
0.55844351,-0.062212547,-1.0267161,0.43739557,-0.33362991,0.42492078,-1.0815887,-0.37824288,0.51299919,-0.75193727,0.50346286,-0.49367946,-0.33081504,-30.008349,-0.32582253,-16.099183,-28.976292,0.95698819,1.5504366,1.6873855,0.73867777,1.1072696,1.030331,1.5231859,1.4853255,1.465638,1.3282231,0.74569635,1.4684953,1.0511904,1.4065575,1.6622526,0.018850565
0.63802357,0.37814006,-0.041980527,0.34915552,1.0183679,-0.0014422427,-0.049510162,-0.85187498,0.9740297,0.30617496,-0.046131727,0.951602,-18.700576,-0.57680548,-34.369774,-12.797714,18.81962,0.74532149,1.468364,0.94307303,0.77835572,1.2245184,0.77991568,1.1928045,1.1651997,1.3107233,1.6759174,1.193067,1.3768818,1.6515955,0.86576996,1.4457215,0.0089832728
0.76794747,0.28808206,-0.65577785,0.3052596,-0.03678299,-0.26043959,-0.96958146,-0.31450061,0.86043633,-0.02583606,-1.0010356,1.0229843,19.628384,-15.755919,0.26178291,-10.214657,32.253557,1.2580462,1.4820313,0.69950114,1.0156818,1.0145561,0.99434089,1.4373866,1.1067422,1.6162153,1.5807554,0.95648789,1.5420245,1.0062839,1.614254,1.1672926,0.0048349762
-0.81368407,0.70706388,-0.39400247,-0.46463778,-0.11037997,0.89674771,-1.0944708,0.82563302,-0.00065822851,-0.067272216,-0.29909024,0.36687558,-7.645542,21.374921,8.2941288,29.423453,-30.026687,0.7470059,1.428216,1.3260871,1.5962098,1.3483921,1.6253889,1.4104783,1.409233,1.4797357,0.96731758,0.85663354,1.1899101,0.81958641,1.1888588,0.99951982,-0.034083955
0.32397266,0.000080921387,-0.83906911,0.68903932,0.14507085,-0.61267386,-0.95386351,-0.03663192,0.079476435,0.89773149,0.04603587,-0.36356517,28.659146,4.2591758,-26.033153,30.802243,-26.698443,0.86401902,1.4176066,1.5133328,0.73383843,1.6725657,1.5613271,0.97538428,0.98367269,1.6868415,1.0457852,0.86251793,1.3887957,1.3401433,1.5878363,1.3141868,-0.031738067
-0.1814126,-1.0283215,-0.15561193,-0.62219568,-0.45160415,-0.96563103,0.10686011,-0.67905234,0.57344334,-0.85816335,0.84291737,0.2142863,-20.379808,-13.432007,-1.7461579,-17.67504,15.601351,1.0535788,1.6481706,1.0530862,0.72044444,1.2597017,0.9570315,1.2284251,1.3404404,1.3311745,1.0000508,0.80356027,1.6874042,1.0532098,0.69655285,0.81372337,0.017265435
0.36374456,-0.084533879,-0.13270598,-0.48685682,0.30386822,0.76848677,0.55566839,-0.52218665,0.27640896,1.0748172,0.92248792,0.49478235,30.356959,-20.597054,-24.680502,14.806328,-0.051151223,0.87952092,1.5580317,1.2380293,1.059034,0.93411229,1.3752581,1.6634568,0.71873038,0.80144695,0.81882398,0.9746403,1.0795404,1.1861048,0.91399362,1.3407548,-0.017844289
0.40015488,0.50986971,-0.57042831,0.95220677,0.78030902,-0.86729859,-0.95418421,-1.0284493,-0.10464701,0.48964661,0.40280957,-1.0541798,21.290951,-2.992386,-33.031459,10.270888,2.8205236,1.3930996,1.2249424,1.6074778,0.67968971,0.89490229,0.72274743,1.1160217,1.1263989,1.235768,0.85253232,1.5606851,0.68461527,0.72886119,0.9700547,0.65940555,-0.000028850228
0.11313026,-0.85400473,0.36518241,-0.10888509,-0.36811256,-0.75769799,0.44402308,1.0991854,-0.75515491,-0.79667885,0.62894387,-0.48551833,25.742012,-24.011797,-16.273059,-11.29945,0.14643344,1.3416021,0.9059157,1.0251444,1.5016227,1.3231512,1.6021753,0.81008258,1.0578413,0.8386491,1.3255069,1.2942058,1.267511,0.95727727,1.1591033,0.69991378,0.010768634
0.99658656,-1.0275497,-0.37933904,-0.31727473,0.41708814,-0.77777651,-0.55110779,0.20319802,-0.076254607,0.47278635,0.71821591,0.11333999,15.017754,-16.606837,-21.105069,-22.898586,3.4657979,1.3199691,1.6710774,0.69719522,1.1100311,1.2427794,1.0933114,1.6347156,0.66541911,1.4990555,1.2261818,1.4376973,1.0786883,1.564294,1.4896149,1.1073005,0.013818716
0.78309427,-0.23708965,0.030347539,-0.14355159,-0.24261422,-0.45822203,-0.0374268,-0.085371122,-1.0095589,0.71373494,-0.4283318,0.92955266,15.267794,-14.193644,7.4269069,14.024108,13.175339,1.5939195,0.65435142,1.334372,1.1896525,0.68985932,0.66566574,1.4441394,1.200685,1.3122941,0.77738398,1.6926282,0.65294942,0.87090845,0.6583273,0.95686948,-0.01598898
1.0059662,0.47859265,-0.65553147,0.048085766,-1.0968039,-1.0016701,-0.84568045,-0.47197852,-0.33573418,0.24430248,0.24440539,-0.22516754,9.0958299,-6.3862535,-23.763264,30.814864,-24.580748,1.3454463,1.4666143,0.93722799,1.2407967,1.370752,1.5295426,1.222555,1.3815112,0.70920213,1.3102518,1.101938,0.67220699,1.1328886,1.1081592,1.2820111,-0.017217549
-0.23798714,0.34002971,-0.62020236,0.063342367,0.22356907,-0.76191537,-0.065848433,-0.5598357,0.85383392,-1.0368421,-0.41887324,-0.63585262,29.388956,20.189695,-31.793438,27.684653,5.9659813,1.6287057,1.5058779,1.4403726,0.89254736,1.043405,0.7576554,0.86431123,1.0789076,1.0503707,1.2806888,0.88647693,0.8677385,0.93097872,1.2092973,1.1597797,-0.023828502
0.82221952,-0.19427627,0.48430406,0.77418896,-0.36883234,0.33957773,0.57988657,-0.32340235,0.78867427,-1.0158612,0.348156,-0.38670752,-32.114108,28.19305,10.595505,-1.341002,1.7787645,1.2604348,0.6771122,1.6747287,1.1652107,1.4965827,1.6655795,0.69491768,1.6814171,1.2280345,1.075683,1.4542107,1.4191344,0.9417004,0.80857801,0.97056164,0.0015662083
-0.82827288,-0.38527669,1.0479388,-0.0026665543,-0.83448161,0.8221859,-0.75940224,0.38914026,0.11279576,0.12139059,-0.56698632,-0.57439161,10.007645,-11.504204,-11.159862,-33.804525,-32.659289,0.65488269,0.81339917,1.149921,0.72145895,1.5105409,1.0609073,0.91867074,1.1991915,1.4120984,1.3370128,1.4744686,1.6944461,0.75499754,1.3436921,1.3839504,0.02367116
-0.88244559,-0.43238587,0.96525243,0.12723657,0.92544839,-0.32826689,0.39750492,-0.045697663,-0.54954323,0.10934555,-0.68943417,-0.18390755,32.507939,10.922671,-32.662626,-20.753084,12.918385,0.8643309,1.4094148,1.3845871,0.95566482,1.3586155,1.2515361,1.2664694,1.3010878,1.4328298,1.1708346,1.5165009,1.4797954,0.92206961,1.6239136,0.76563539,0.012337233
0.96143268,-0.29684639,0.69428431,0.33296857,-0.54455772,0.33449387,0.90083167,-0.62789944,0.44633988,0.45351089,0.02546638,-0.81395358,18.323376,30.987375,4.8167047,34.355105,-23.750997,1.5800237,1.2582169,1.2020751,1.5768649,0.66916846,1.5142244,1.0187016,1.3678172,1.5543595,1.4693158,1.1905032,1.3379457,1.4029704,1.2234003,0.88876748,-0.034655746
0.81676345,0.46831758,0.38142488,0.18807629,0.87007235,-0.80781287,0.42424113,0.69022384,0.26120232,0.59413864,-0.49245638,0.75394249,6.7380792,-13.103662,-13.245623,-19.189347,-25.352179,1.1138244,0.94624994,1.6728063,1.4062456,1.6700828,0.78133366,0.87475631,1.2792698,1.1876542,0.70423534,0.78343499,1.5418224,0.75971638,0.85327021,1.3623921,0.010084205
-1.0492689,-0.36090578,-0.58473142,0.26337427,-0.28682569,-0.21962418,1.0903018,-0.5217128,-0.55608562,0.1070812,0.83782651,0.41780017,6.1647536,11.013217,19.135901,-32.90683,4.9047042,0.77545376,0.75142411,1.1350584,0.82577559,1.2603469,1.2998185,1.0991455,0.98800117,0.93565604,1.0709965,1.4373452,1.4602274,0.6923755,0.95506189,0.67521225,0.032588739
0.14082822,0.65226461,0.023653797,-0.49043058,-0.38434186,-0.83335923,-0.1061029,0.21079014,-0.024187407,0.31850346,0.44213192,0.10215347,-19.585645,34.057977,22.418794,-17.327719,-26.981159,0.98999185,0.79300191,1.6831106,1.3406287,1.3462087,1.6799946,1.4695103,1.3090474,0.81036793,1.6537907,1.0099583,1.4188542,1.4826202,1.1475252,1.4062683,0.017476643
-0.36403463,-0.39244832,-0.73345815,1.0068046,-0.82367,0.0063287459,0.80971959,0.83448533,-0.75955476,0.024922187,1.0353748,-0.051594244,-22.065596,3.5212684,31.958541,17.201682,8.677663,0.65721868,1.2243309,0.77887619,1.5721565,1.3349065,0.72431347,1.1864948,1.1676982,1.3034773,1.69336,1.4016559,1.1809358,1.1871825,1.1758349,1.5568785,-0.012223717
-0.87674993,0.73266249,1.0143134,0.027218188,0.040194806,0.42584866,-0.88042868,0.47905241,0.47438476,-1.0058562,-0.82959842,-0.67239739,8.5418212,-7.6115424,32.807176,0.21165542,-12.707342,1.1404555,1.2355546,1.4662019,1.3555673,1.4697097,1.510089,0.81603811,1.402532,1.2046244,1.3717521,1.5380997,1.1913925,1.5844569,1.2170218,0.78589198,-0.00080507115
-0.70890036,0.31599086,-0.0040619056,-0.095887585,0.36854416,-0.78485711,-0.80257702,0.45851271,0.52458075,0.37719856,-0.47196194,-0.057086719,-20.448308,25.291309,31.027203,-25.794011,-9.9403879,1.5035044,1.4479774,1.6555398,1.0073309,1.3601806,1.305845,1.586198,1.079345,1.0506075,1.0609916,1.2854658,1.3745186,0.7846068,1.2865547,0.77502979,0.027283147
-0.41759654,1.0296035,-0.28860079,0.7339278,0.28925021,-0.8146451,-0.051012445,0.2886352,-0.1555665,0.14140853,-0.59004603,-1.0946535,-1.4703239,-1.7333487,-12.391344,-11.322057,-29.806576,1.6381338,1.4150028,0.80202548,1.0922961,1.3713609,1.2628894,0.98255888,0.81707218,0.93204576,1.2931435,1.2619876,1.5760611,0.8086653,1.3876161,1.4642238,0.014167012
-1.0790105,-1.0276924,-0.57819301,0.19861865,-0.072710743,0.65839833,-0.24518216,0.36471523,0.83584298,0.06725393,-0.0082308908,0.20765399,1.441224,2.6521854,-14.719515,-10.889628,28.019988,0.75419048,1.4293303,1.1537455,0.95003974,1.3179313,1.02153,1.6539358,1.3492638,1.5772795,1.3371102,1.0116128,0.87673699,0.9686708,1.5501033,1.3362507,0.0080562201
0.18856437,0.2768979,0.49601396,-0.3377364,-0.42015673,-0.21637222,0.76800327,-0.97332126,0.60499977,-0.47593383,-0.83915735,-0.79395381,7.8716735,-0.78310023,-1.5656213,6.6031564,29.249516,0.97431128,0.7997351,1.4478611,0.7508395,0.75955538,1.2972185,1.5015335,0.87332458,1.3661462,0.76958989,0.8973198,1.4539128,1.662541,1.0768616,1.3124457,-0.0069457201
0.10340891,0.69280117,-0.40382324,-0.58875285,0.84774621,0.0054255987,1.0243277,-0.99405305,-0.37398979,-0.57609362,0.29720891,1.0003133,1.0373399,4.5720387,-17.745152,27.230951,10.586728,1.0421164,1.1505722,1.1664575,1.4516207,0.93841542,1.2480102,0.80698108,1.4309608,1.2578193,0.8189502,0.99608569,1.3622381,1.2360392,1.2116233,1.4026433,-0.022085315
-0.41856301,0.17987816,-0.57076289,-0.27282082,-0.14498065,-0.070523056,0.041899533,0.48870021,-0.10956131,-0.73777493,1.0254024,-0.5255217,-25.401883,0.55915365,17.69536,-24.083563,-32.436227,1.2400236,0.97686204,1.6702533,1.5464716,1.1976576,0.83156021,0.83248726,0.66345328,1.0092997,0.84952201,1.3664691,0.94606602,0.68160806,1.6366796,1.1236437,0.023875972
-0.094881206,-0.31016379,-1.0205242,-1.0532926,0.18537803,-0.49727305,-1.0317235,-0.15610439,-0.10246093,-0.15390801,-0.57290646,1.0850455,-28.65938,-8.2003788,6.2337996,-18.530394,-10.334991,0.72209974,0.73038768,1.4257497,0.82574976,0.82617356,1.6489448,1.464973,0.65087762,0.70022353,1.6068635,0.85432944,1.3148539,0.74875423,1.4123745,0.72901204,0.019870246
0.48256662,0.16164978,0.94093186,0.40675123,-0.7802148,0.25177566,0.49651993,-0.63035367,0.98129836,-0.67983861,0.55322053,0.11985921,2.6909831,7.3534579,-30.433655,-8.4403994,32.207054,1.084471,1.1039417,0.74781465,1.3708385,0.88266811,0.90287152,1.3117056,1.3855889,0.99296737,1.4525952,1.5672696,1.1003586,1.4275143,1.0826123,1.364673,0.0045096201
0.07098209,1.075728,0.83684245,-0.72762884,0.01984195,-0.78179887,0.017584855,0.86726466,0.38382607,0.96080172,0.094152344,-0.94425162,31.034531,27.362284,-22.098522,10.142725,18.779947,1.2436642,1.2635789,1.0207887,0.74642251,1.0730929,0.97193037,0.68365543,1.3968417,1.1182758,1.2117882,1.0250774,1.4263747,0.83035423,1.5635687,0.84939008,-0.011806166
0.15526066,-0.88342422,0.71260479,0.36911833,0.068732238,0.64742787,0.099817036,-0.2997181,0.81000669,-0.93759389,0.71650926,0.018148815,-20.684991,-32.642048,-24.896356,26.937155,-27.241035,1.6238602,0.91763113,1.5764316,0.73633311,1.6005068,1.118308,0.70183825,1.4454567,1.290467,1.4281925,0.93074238,1.4371875,0.91112431,1.4162323,1.5165024,-0.027424193
0.69400553,0.04570416,0.65873035,0.93683492,-0.2778157,-0.52764482,0.90373729,-0.17364232,-0.18108786,0.031307567,0.59782998,-0.027253228,-20.025082,-1.5499665,-10.286753,10.541806,6.1404869,1.5224585,0.8091894,0.74632817,1.5874982,0.88301171,1.4277776,1.308322,1.2172998,1.2579433,0.80284076,1.144707,1.290034,1.5010109,1.539923,1.3860787,-0.010622472
-0.73513139,-0.72595535,-0.44239949,-0.20088766,-0.67755713,-0.68599544,0.4339121,0.49578184,0.15913622,0.47883498,-0.98082678,-0.19070968,33.482981,18.45419,-10.42232,-27.930997,-16.269342,0.89242326,1.0578134,1.4192959,1.5556986,0.87632981,1.4751119,0.95647424,1.3124799,0.74899593,1.2746159,0.66945082,1.0098897,1.3162988,0.88474972,1.2386087,0.024273592
0.35912174,-0.81122193,0.30519872,-1.0601541,-0.7813725,0.58638529,-1.0552596,0.11287687,-0.71464077,0.59798458,0.37190335,0.69517195,-4.5274044,-2.0851454,24.961521,18.289968,29.497974,1.6617705,0.72733065,1.4961857,1.2936964,1.1050173,0.97597161,1.4048989,1.0854645,1.0020119,1.2148126,1.4545494,0.81191291,1.3702294,1.1447194,1.4986482,-0.019163578
-1.0362749,0.31723325,1.0847712,1.0881304,0.36899301,0.16153731,-0.94924112,0.68272421,-0.43561224,-0.4814933,0.28471369,-0.090955017,-9.4263596,-18.825979,-8.2329171,19.361473,-21.714949,1.4278608,1.6559288,1.2448548,1.325103,0.80692171,1.4831938,1.3380152,1.520975,1.0768646,1.36259,0.85013653,1.194648,1.6994489,0.83685805,1.6731717,-0.019438438
0.15111287,-0.22366483,-0.84744155,0.7168834,-0.29091935,-0.84918448,0.011903488,-0.057534166,0.63381103,-0.050409078,-0.56615064,0.27614557,33.302158,-10.635188,34.389632,-3.4622651,-20.289075,0.74767554,1.1328653,0.71633165,1.4360709,1.0431335,1.445565,1.0104958,1.0026323,1.1406834,0.86521896,1.6350367,0.81112822,0.78199103,1.423306,0.70340138,0.0027960143
0.6114808,0.69408832,-0.76198054,1.038039,0.74391286,0.97549362,0.71993192,0.36587491,0.53446796,-0.58124931,-0.58899707,-1.0577245,14.91433,-4.8630934,25.988485,-11.527462,17.953769,0.85984399,1.598012,1.1870469,0.99652771,1.441225,1.569297,1.5747049,1.1158483,1.3626369,1.6383196,1.3877159,1.0413799,1.3724664,0.94241573,1.2812113,0.0091109088
0.19477171,-0.95390291,-0.6989661,0.14830628,0.98654487,-0.46641685,0.77646184,0.44652786,-0.78534881,-0.27005444,0.16811405,-0.36971699,27.536571,-32.84347,19.796507,9.892169,7.6839458,1.08616,1.1415495,0.72190772,0.65312914,0.74146749,0.74412511,1.3107915,0.72258885,1.6008283,1.271717,1.2982266,1.6448771,1.3491033,0.97951127,1.0458466,-0.010243844
-0.69408375,0.83881082,-0.63189271,-0.69518426,-0.064644638,-0.11968834,0.5881182,-0.51870738,-0.62365429,-0.77631096,-0.10981309,-0.57130351,-17.908963,4.0628679,34.620559,27.73795,-8.2731862,0.76338108,1.5458916,0.89931051,1.3117107,1.4709625,1.5663524,1.4354721,1.4793012,1.0151296,1.1828504,0.81645603,1.0764937,1.4297697,1.189343,0.73780003,-0.024494524
-0.25110393,-0.20231096,-0.40870525,0.92565761,0.98889453,-0.55970157,0.90902697,0.76531273,-0.011814647,-0.64843302,0.59947537,-0.96178405,31.474786,6.727732,22.992535,-34.467234,29.206202,1.6046067,0.72563284,1.3111937,1.1828614,1.0022004,1.2325504,1.3742222,1.0517215,0.88256062,1.1963197,1.4453369,1.3780128,0.71046313,1.5038657,1.2200926,0.019479059
-0.48024658,-0.75269629,0.94131307,0.21656003,0.18927437,-0.98481252,0.99343415,0.96775232,0.35968594,-0.12514807,-1.0097259,0.10601444,15.968513,2.7954129,12.505281,-33.750166,-29.041969,1.1993582,1.063278,0.86337875,1.1567253,1.6816035,1.2104363,1.4022423,1.5859895,0.72612002,1.0992238,1.2545405,1.361917,1.0893276,0.82869712,1.0124773,0.033938051
-0.98150703,-0.62804604,0.18158466,-0.47803289,-0.93225727,0.24539164,0.95688665,0.26696992,0.76909922,-0.14650676,0.66946797,1.0765229,31.909436,31.893826,-20.465168,21.92407,-2.1528935,1.2697807,1.3035289,1.5107369,1.2058714,1.3297813,0.68467822,0.73683918,0.65610124,1.3435863,0.65422929,1.3817168,1.0149206,0.82068461,0.74630312,1.1665225,-0.015445492
0.66876164,0.20076858,0.87528098,0.96815456,0.52294158,-0.78296583,0.19667512,0.24911126,-0.30168931,0.66659586,-1.0135303,-0.059454764,-27.313344,4.6331826,29.900255,3.587361,22.776261,0.73437305,1.2078676,1.2809074,1.4114926,1.6564564,0.66315332,1.2179044,0.91902376,0.83237029,0.79740436,1.1251545,1.3210624,1.1465338,1.54406,1.6166412,-0.0069573686
0.44739669,0.62243167,0.019668958,0.70894505,0.43522137,0.50950445,-0.1119335,-1.0232029,0.106675,0.60818772,0.32517247,0.37331158,5.5091855,-17.118946,-18.120539,18.095723,-15.178985,0.67694555,0.97389419,1.1396612,1.5365208,0.90489287,1.6845141,0.77896714,1.0006629,1.6411603,0.83050934,1.0204247,0.92797599,1.1423815,1.0557004,1.6064762,-0.0093640991
1.0901705,-0.52859433,0.33913077,-0.33485667,-0.40106469,-0.40713362,0.95063046,0.67675035,0.32110344,0.15762624,-0.70917984,0.016936853,30.935613,-25.154285,31.939788,-17.980608,-10.080393,0.85763988,1.3033989,1.4247416,0.68238151,0.98605078,0.70542298,0.79396837,1.1263812,0.93891223,1.1979205,1.0496932,1.4433814,1.0609927,1.3043254,1.2477036,0.019899579
-0.56646693,-0.64149204,0.70346572,0.70688263,0.95789964,-0.30064047,0.70149392,0.55357543,-0.51277735,0.08219651,0.43260977,0.59871596,-16.887157,27.554311,-14.695351,-24.756709,-6.0090549,1.4122117,1.1419961,0.87844497,1.3245989,0.73434597,0.75268989,1.4089179,1.4337564,0.99410882,0.68700905,1.0611071,1.127667,1.5498696,1.6080891,1.503673,0.021010667
-0.090086898,-1.0994683,0.39796186,1.0366815,-0.080314165,0.41635518,0.097992548,-0.17627396,-0.42880055,-0.35152852,0.88179104,0.42703053,-25.741778,27.938208,-2.5340076,-29.066458,10.038251,1.368328,0.68859714,1.5020582,1.2929744,1.5700565,0.68900918,1.0772763,0.93215425,1.0164183,0.79172507,1.2233094,1.4618389,1.5267402,1.3724423,1.5870536,0.028198866
-0.86834233,-0.90331943,0.59931537,0.74742018,0.54691082,-0.36993213,-0.55164064,0.043921046,-0.72157812,0.55505915,0.23397968,0.47908422,32.116776,16.649228,33.576951,-12.180736,28.363109,1.1566777,0.88257309,1.405994,1.6413346,1.6612984,1.191485,1.0377314,0.95091368,1.306251,1.0605274,0.83462855,0.95210172,1.3236544,1.6589566,0.68417623,0.0064680641
-0.99517737,0.52158073,0.53553849,-0.18168279,1.02793,0.17252193,-1.0564003,0.73293234,-1.0476349,0.71285895,0.2426971,-0.34787925,20.368458,32.674822,15.736182,18.013721,6.6106931,1.413779,1.2332517,1.6117638,1.3144611,1.4976665,0.98042128,1.6404098,0.81670383,1.0412014,1.5221228,1.4687247,0.7058365,1.444012,1.160002,1.1031363,-0.010915112
-0.65599103,-1.0785259,0.51847391,1.0978599,-1.0411913,-0.94538497,-0.4802643,-1.0504825,-0.96490267,-0.84623836,-1.0523075,-0.8500985,1.3930617,33.188031,31.235971,-17.032552,33.905436,0.8550262,1.4753547,0.83639184,1.18759,0.67587749,0.87298812,0.96138273,0.85955929,1.0129099,1.677112,1.322157,1.6918935,0.90467384,1.1531462,1.3776035,0.018028748
0.013463866,-0.22164229,0.15862328,0.65431361,-0.72455853,1.0428365,0.0070332832,-0.54381197,-0.32644643,0.20640401,1.0280766,0.43781069,1.4626929,13.478801,18.203526,-23.339361,15.356182,1.1952349,1.0628518,1.050308,1.2763184,0.93277383,0.92983106,0.82054346,1.5238813,1.6234578,1.5051233,1.3578672,1.2746197,0.73403363,0.75314057,1.6336373,0.021176358
0.56068182,0.17218748,-0.080161675,0.78014298,0.74020534,0.2383209,0.87119458,0.46065528,-0.8501524,-0.8620895,0.82961427,0.93882498,5.8054108,-8.4613271,30.475776,16.366804,-23.118353,1.4727365,0.93155338,1.4175786,1.0427633,1.5230579,1.4336226,0.8446976,1.1325526,0.71079165,0.72519034,1.2239891,1.3349261,1.0535305,0.8367068,1.2311369,-0.015227159
-0.95893619,0.47224101,0.34918744,-0.64419137,-0.68196853,-0.058483804,0.067053121,1.0149911,0.42192269,-0.89078868,0.088555792,-0.44355954,2.9953614,13.038828,-26.419769,-27.053826,26.342965,1.1181601,1.3667766,0.86450675,1.2150212,0.76197358,0.98989687,1.2967161,1.4569965,0.99010047,1.5686763,1.6423339,1.6564688,0.8715128,1.3655537,1.3106152,0.026332641
-0.55465876,-0.10184168,-0.74176714,-0.098187818,-0.90650691,-0.19383941,-0.9698377,-0.22294904,0.18725715,0.29752861,-0.22378219,-0.62088913,-15.393829,-4.0786246,-19.443764,-31.336687,4.3044762,0.65498492,1.4814711,0.7355564,1.1464058,1.4927762,0.68954933,0.70561064,0.79799909,1.6707718,0.81155949,0.68041071,1.4627539,1.1549512,1.2648494,1.3746557,0.019267653
-0.38975862,0.48996816,-0.79023713,-1.0607447,0.28793231,-0.97349158,-0.058415803,-0.98917685,0.21293844,0.89652475,-0.44357615,-0.18494127,-30.512314,-0.45598114,-33.675047,-26.522447,-2.7594824,1.6456958,1.4591694,0.76076202,1.6272556,1.2847554,0.98419372,0.99378215,1.4965911,0.75651286,1.6116377,1.2942566,1.0702851,1.0317107,1.6117585,1.2250609,0.028973887
0.67667686,-0.91398123,-0.46519595,-0.69494285,-0.40555041,-1.0287165,-0.19685819,1.0722412,-0.58895159,-0.2933286,0.44168486,-0.81432809,27.970123,-26.135398,-7.6422641,6.467395,-12.492283,0.7578829,1.5378945,0.89288098,1.4005963,1.2218177,1.5895504,0.72381399,1.1917405,1.1331907,0.93590133,0.9937282,1.6399254,1.0760241,0.88629441,0.95016607,-0.0077177795
0.3479013,-0.26928769,-0.1398441,0.49392169,-0.31677846,-0.038518104,-0.83401287,-0.096226423,-0.92806433,0.34457224,0.95623428,0.29808487,10.464465,-33.73774,-30.192175,-9.8844043,-17.18323,1.4968352,0.65928385,1.2836661,1.5764592,1.199975,0.93061422,1.3832001,0.74430353,1.1593682,0.95162422,1.6983016,1.5054344,1.3355657,1.3029727,1.6128049,0.0050496398
-0.44652481,0.836569,-0.92525792,-0.8686666,0.24391136,0.26811377,0.20172688,-0.61141856,0.35203585,1.0475112,-0.5922924,0.7345929,15.024781,31.492293,20.964232,-34.147195,18.09151,0.93500651,0.65446394,1.1255084,0.97039717,1.1652959,0.82826826,1.1547023,1.2821121,0.65870004,0.92154154,1.1485972,1.5728994,1.2206558,0.96251649,1.0147254,0.036551185
-1.0176688,0.75584121,-0.86336493,-0.81450011,0.18658368,-0.025904785,0.04302617,-0.36795605,-0.32628784,0.67273545,1.0152649,0.62481836,17.466843,-14.764551,2.1923041,26.054312,-25.175781,1.484803,1.0832308,1.2600315,1.2497633,0.87105665,1.0491249,1.3418643,1.1138998,1.1644117,0.66796059,1.1636184,0.98444177,0.96282057,0.87537931,1.2500996,-0.023832931
0.20676839,0.55483189,0.81251889,-0.49819844,1.0081747,0.21280412,0.83816486,-0.4929331,-0.66100651,0.3918959,0.24532897,-0.096294059,4.2746725,24.419885,15.015459,14.814406,-4.270297,0.86177838,1.5591651,1.3870732,0.73978822,0.87062455,1.1368091,0.85049666,0.94732018,0.76028112,0.89483923,0.71291224,0.66605802,0.6870752,1.1228781,0.86239282,-0.0077670628
0.44215055,0.41522311,0.86330958,-0.11577624,0.3654229,-0.46509151,1.0603124,-0.95579975,0.40769859,-0.25171713,0.4871452,0.14480174,-23.467138,-32.190777,-0.39516921,8.3910975,-20.824448,1.2276195,1.4503617,0.77984178,1.0008407,1.4796374,1.416606,1.49701,1.4966306,1.4202391,1.6579141,1.0114528,1.3368331,1.6031536,1.5020979,0.90960141,-0.011276482
-0.32292635,-0.0077114544,0.14136248,0.83518961,0.081639707,-0.129114,0.50734915,1.048797,-0.97332323,0.57192007,-0.07048041,0.75865516,7.9389164,9.3675521,10.447971,-30.948287,22.144149,0.97566613,1.520578,0.70419252,1.1136806,1.6796745,1.3395791,1.5562928,1.4135733,0.92675257,1.5804366,0.8484651,1.4530003,1.0254678,1.6865302,1.0630986,0.030143159
-0.36954416,-0.62837637,-0.97217182,0.13161717,-0.21984152,-0.36344679,0.69084017,-0.3757084,-0.87229306,0.86927139,-1.0748426,0.8483463,-28.791822,5.8444163,17.105259,-1.9150017,14.566191,1.5346259,1.6073838,1.1996174,1.2190469,1.2219849,1.251035,1.2459856,1.4295249,1.2749769,1.4859616,1.655839,0.78561074,1.3596535,0.84654483,0.67896855,-0.0013288497
0.41775243,-0.60858886,-0.46970245,0.53325576,1.0364496,0.41965645,0.60459707,-0.64676235,0.089972288,-0.82677909,0.53069973,-0.13956307,26.068447,2.3959278,18.358575,-7.4371731,23.431843,1.1596754,0.86504395,0.79364682,0.97213392,0.95482675,0.92317009,1.2196277,1.5326915,1.6453596,1.0594352,1.3769141,1.1448258,1.1865294,0.70003641,1.6119872,-0.0047630412
-0.63944053,-0.0026138725,0.050942656,0.73754422,-0.50474403,0.9521946,0.57577249,0.90282549,-0.10455391,-0.14477409,-0.99715647,0.24561013,7.3464904,-7.5362529,-31.803137,4.6813387,-0.73968113,1.5976894,1.015526,1.54539,0.86996802,1.6525253,0.74344531,1.4353951,1.2355742,0.74521348,0.70291239,1.6485086,1.4841874,1.2380166,0.84492213,0.70618872,-0.0090611618
-0.23299129,0.73892393,0.6929119,-0.74190349,-0.19064286,-0.024227131,-0.34914894,-0.90785554,-0.86910449,-0.51835888,0.8353752,1.0017242,-14.160373,6.6120684,-30.966142,2.0561071,-23.007256,1.1307282,1.548117,1.5526175,1.5915763,1.1726526,1.6221154,0.9943492,1.577038,1.4775725,1.360903,0.84611443,0.7952421,1.5340576,1.5063023,1.2226024,-0.0057808333
-0.097243994,-0.43747354,-0.97678767,-0.47794945,0.47018798,1.029743,-0.14337656,0.50007561,-0.24614298,-0.3899533,-0.58281307,-0.4816511,-5.3564921,-6.5623722,26.20973,-3.0604728,12.633064,1.3836283,1.6409271,1.1120036,0.79381096,1.6308199,1.3401951,1.4085496,1.5429614,1.0017763,1.4540596,0.98037838,0.91944736,1.6516983,1.5433827,0.73249761,0.00072199955
0.025725062,-0.86450835,-0.23995075,0.32439397,0.48377254,0.63744129,-0.61179551,0.61398006,0.91597008,0.90508492,0.48485917,-0.89163484,-29.861823,12.338234,28.693259,17.602318,22.150727,1.5840037,0.95062232,1.659298,1.1717165,1.6390154,1.5314773,1.1894194,0.9712385,1.6554465,1.5395851,0.95634161,1.1834649,1.6951691,1.3573306,0.65508292,-0.015688874
-0.30639608,0.7281612,0.13107044,-0.61225985,-0.59286971,-0.17183448,-0.58436703,-0.2096639,-0.83914675,-0.6158535,0.58383021,-0.016082285,6.2439388,11.879248,14.525725,-26.141047,-32.571349,0.77502904,0.96303106,1.2630281,1.2138676,1.3224051,1.6631343,1.5981956,1.1240706,0.95383755,1.0977853,1.2269527,0.74450911,1.4645525,0.934603,1.2226035,0.02465564
-0.058897697,-0.29190976,0.09782707,-0.75834995,0.4820741,0.68023138,-0.54932233,-0.57619499,0.79270174,0.70030662,0.39057817,0.089408375,21.998888,-4.6960144,34.086332,8.9816797,-34.908995,1.5427651,0.85350049,1.032734,0.96049961,0.7169032,1.5921534,1.4216854,0.76578503,0.99895857,1.3467251,0.90839878,0.75834277,0.86697495,0.69793352,0.91859165,-0.007835242
-0.53445572,0.78688736,-0.2609768,0.99700605,-0.57459711,-0.94028573,-0.54297427,0.55803101,-0.39769951,-1.025655,0.67700227,0.15690388,10.975095,8.4285383,-21.556106,26.52609,-6.0028566,0.87484611,0.68850568,1.0149891,0.92122664,1.1060776,0.94596992,1.166364,0.93000432,1.6325633,1.2410181,0.89052948,0.72890915,0.72602908,1.6707503,1.5007455,-0.020622248
0.21836897,-0.19534798,0.065013628,-0.27603763,0.76783021,0.51635558,0.68101948,-0.49839494,-0.095293859,-0.64826684,-1.0057051,-0.48823666,-28.522462,-17.022652,-9.7099447,-25.039935,-6.1852014,1.1047887,1.3339314,1.1353597,1.6912076,0.92627695,0.93676308,0.7770248,0.90583267,0.67967418,1.6838839,0.6862444,0.80958036,1.0170516,0.93571797,1.0618652,0.020116062
0.19610459,-0.54325826,0.18333429,0.33945589,0.73114049,-0.37557022,-0.74908181,0.11460056,-0.3330055,-0.076160061,-0.13729788,-0.69399384,4.7961125,-31.736648,2.1504554,22.703516,7.9879773,1.084029,1.0259327,1.1002035,0.92064186,0.72779703,0.93465182,0.99322179,1.5285786,0.77047147,1.0139916,0.95605895,1.6827375,1.3689305,1.3648757,1.4659283,-0.014736964
-0.45510099,-0.36085836,0.21226229,0.52804994,-0.69222177,-0.8537192,0.76585065,0.23267441,0.53257089,0.52149125,-0.96838332,0.030607142,-5.6860838,-16.010889,-15.004329,32.243723,-19.739915,1.6436492,0.661679,1.6389627,1.6957421,1.5370143,0.79898866,1.5023363,0.71647198,1.6945555,1.5437052,0.90279403,1.0593336,0.71903203,1.6713905,0.70971204,-0.030996273
0.63936202,0.88234417,0.92700093,-0.62405703,-0.94769023,0.35924144,-0.9985847,0.43152179,-0.094093035,-0.25804883,-0.37225419,0.0056205047,-3.1231354,9.463519,13.363672,-26.765,-19.35878,1.1296449,1.1924544,1.5812202,1.4179917,1.6872929,1.28173,1.5861169,0.76661401,1.2817441,0.77226858,0.76810278,1.1033952,1.0125517,0.90680937,1.3450396,0.01549277
-0.51366153,0.61563999,0.22597435,0.079551138,-0.045851938,-0.94332995,1.0716845,1.0509351,-0.22420559,1.0594923,0.65476507,0.26570695,-21.186409,10.018389,29.069074,33.934048,-30.456606,1.5622626,0.94683989,1.0880465,1.3470815,1.6495205,1.6902402,1.4668997,1.5337115,0.93955995,1.5841626,1.5208285,0.71393315,1.0244667,1.6620801,0.68047468,-0.034298773
0.65529897,0.44260807,-0.6916678,-0.33963571,0.64478829,-0.28124715,-1.0229388,0.14826839,0.34966588,0.79958619,-0.1457205,0.6895703,8.681847,-34.197262,16.622748,8.5327329,-20.357539,1.3376305,1.3555284,0.81577893,1.2465083,0.76446317,0.83248912,0.69465584,1.4807303,0.88460081,0.83574755,0.8591265,1.0890401,1.2465077,0.75544015,1.4325732,-0.012920106
-0.24655244,-0.6744094,-0.56076844,0.57114497,0.097155771,-1.0452958,0.44125018,0.67649049,0.35191709,-0.94845829,0.6451694,-0.47319388,-30.88116,30.335705,-27.81446,-17.637163,22.206444,0.9306124,1.3525646,1.4027856,1.267895,1.1115478,1.5342275,1.2115954,0.93412001,1.504925,1.1749539,1.4499282,0.84390015,1.3797751,0.92949143,1.4123896,0.015361812
-0.40256227,0.81237544,-0.71016726,1.0143252,0.22604064,-1.0054213,-0.11803203,-0.16280477,-0.56085054,-0.80875376,0.0044314601,-0.29035508,-5.1574579,-21.394805,7.508399,-16.337715,22.029136,1.3802617,0.70870393,1.3370197,1.589771,1.2814868,1.698187,1.6796932,1.6539139,0.98082381,1.0557116,0.74425858,1.4540148,1.2766932,0.93179583,1.2924669,0.015173725
0.55855599,-0.37079299,0.37368203,-0.19812401,-0.41039882,1.0504069,-0.30560241,0.87266525,0.98791934,0.64318717,-0.80179598,0.39080408,-16.292675,9.0151364,-32.602208,14.689605,-1.8137221,0.67658,1.1299811,1.5915641,0.96835266,1.4531169,0.88523836,1.0510618,1.3449687,0.7893551,1.2911005,1.5767297,1.5467148,1.086212,0.9651965,0.90762213,-0.0059049016
0.37736515,0.12883971,-0.71921179,0.74176436,0.051494144,-0.9891724,0.28787551,0.27094161,-0.65123232,-0.26702456,0.51164936,0.75162064,24.583082,27.865961,-26.800911,7.0805443,2.7078066,1.3265902,1.6515284,0.78807311,0.74475065,1.324156,1.6902303,1.3003108,0.97296822,1.3269138,0.79091453,1.2505198,0.98627665,1.3515838,0.66926274,0.9988986,-0.0083315891
0.44773219,-0.33613121,0.1688578,-1.0642361,0.98383767,0.21516868,0.99514653,-1.0399442,0.22292897,-0.52443951,-0.20254337,0.083331053,-9.267901,-15.612541,30.01927,-26.131574,-13.370085,1.0097518,1.0980645,0.66986874,0.68399116,0.7393937,1.5898956,1.2752139,1.2700774,1.0400383,0.87330384,1.0176259,1.1380003,0.92113421,1.6526306,1.4616698,0.012887757
-0.81700752,-0.17222947,-0.62561328,-0.71434191,-0.97649418,0.05644893,0.91865497,-0.15135803,0.50142312,0.41029318,-0.62666707,-0.8323523,-24.683825,28.95947,11.807862,4.7356476,2.0295736,1.490644,1.6045141,1.2689234,1.5953667,0.82732651,1.0766551,0.99225585,1.0439941,1.2094021,0.82084662,1.3692093,0.80058481,1.0288382,1.6333855,1.4100214,-0.0069223042
-0.19844892,0.72624716,0.94848563,-0.18556459,-0.43923081,0.27639208,0.79114405,0.90967989,0.74345734,-0.083134294,-0.80014937,-0.52314228,-12.449184,-3.4295909,-31.133876,-17.046319,12.515073,1.0373573,0.96473593,1.5668561,1.5010546,1.2242145,0.92309117,0.94324359,1.5450468,1.4010937,1.1820823,1.5567562,0.80207586,0.88903847,0.86962102,1.0705228,0.017960134
-0.73084063,1.0170732,0.22918091,-1.0055943,-0.82597269,0.88915478,1.0388941,-0.27916878,0.92145721,0.76450328,-0.42140383,0.8147557,-9.2022977,-33.017439,-34.103899,-24.237721,-33.378936,0.87827389,1.5992957,0.71358853,1.5324267,1.396361,1.4398122,0.92310498,1.1754097,0.71091692,0.7307345,0.95478573,1.2837472,0.83875461,0.99876063,1.169901,0.026622133
0.84128362,-0.85465933,0.35886325,-0.7574659,-0.053469138,0.78216661,-0.43446326,-0.96260369,0.4078324,-0.20194558,-0.86511751,0.51738593,12.897006,-30.015425,20.75054,14.325534,-30.748376,1.5057315,1.0799723,1.0937448,1.5681098,1.5709347,0.74966917,1.0397802,0.73618083,1.141223,1.5355904,1.017759,1.2748467,1.3982487,1.6663815,1.5742922,-0.016041962
0.74272867,0.86478363,0.46842209,-0.061057811,0.78801471,1.0935123,0.65913888,-0.99348592,0.36122172,-0.70264924,-0.17893281,1.0653203,-11.300074,-10.339336,-33.22175,32.05037,20.562874,1.3284525,1.4503836,1.1465232,1.3658677,1.3379732,0.81551938,1.0842556,1.6833764,1.6069502,1.261572,0.89062385,1.2651283,0.81166323,1.3739329,1.4395457,-0.025898422
1.0892217,-1.0817211,-0.40329931,-0.57957375,-1.0162312,0.72799615,-0.44381132,0.26078001,0.093683425,-0.028920083,-0.055457706,0.34702789,14.167843,-21.055113,-23.290857,-9.4371434,9.9301788,1.4227323,1.5612432,1.6649743,1.02345,1.3749352,1.4859535,1.5201074,1.1954816,1.0098915,1.3461044,0.9766852,0.79813748,0.84669791,1.1517787,1.4939389,0.01088656
0.32709815,-0.24846521,0.16429591,-0.76688182,0.029387593,-0.88357349,0.40294585,-0.96286067,0.48702641,0.34729306,0.50365944,0.61116602,-6.3104615,-9.9263423,-22.034576,34.879318,-33.307763,0.97152107,1.1546948,1.1551817,0.9393906,0.83774458,0.82316261,1.4440129,1.1748842,1.3288173,1.2830878,1.3062002,1.2560934,1.2110303,0.88555773,1.1688143,-0.039848521
-0.027706315,0.55230841,0.18361219,0.61188434,0.87904713,0.49156425,-0.35422914,-0.52522591,-0.22483151,-0.66392803,-0.32963216,-0.55735424,24.720628,29.602868,-24.591649,-31.840397,8.4425846,1.2427997,1.4353973,1.2725127,1.0206891,1.1711318,1.2624688,1.2623562,1.4706363,1.3337495,1.2279362,1.5229663,0.94460581,1.3397713,1.6361892,1.2826671,0.021433229
0.85901837,0.33268557,-0.90264574,0.92643194,0.80847051,-0.36677062,-0.19490734,0.87340957,0.30303842,0.016792855,0.75081467,0.42112555,-34.811589,-18.372656,-19.224016,21.969386,-10.535952,1.5088552,1.078547,1.2895548,0.79821107,1.0333777,1.2796032,1.5411229,1.6024487,1.2050027,1.4297936,1.5903497,1.5578351,1.0850448,1.2979981,0.95429142,-0.013250483
0.42068462,0.29217544,-0.03091618,-0.61713232,1.0818448,0.28369658,0.40741518,-0.61672401,-0.85215923,0.59487531,0.89315912,0.1673724,11.459118,23.39099,12.3659,3.682901,18.516825,1.0591905,1.4642736,1.4970696,1.4482352,0.73959761,0.81695899,1.1297661,1.128896,1.2056933,1.4874007,1.6941097,1.4020995,1.2856933,0.99806903,1.0961215,0.0067968567
0.91784337,-0.59726261,0.76668145,1.001218,-0.15628857,-0.99884575,0.44230174,0.75706677,-0.057344325,-0.57375892,-0.047512552,-0.26476238,-33.486059,-0.19001305,26.450689,-13.271107,-27.495231,1.5898085,0.86088769,1.2894553,1.2252871,1.0997808,1.1650785,1.3739036,0.94816909,1.3779209,1.2672636,0.99856848,1.0904648,1.0420116,1.4881247,1.2615633,0.012679782
-0.90164352,0.17788142,1.0558516,1.0397723,-0.91278078,-0.08125999,-0.086325861,0.53705242,1.0726463,-0.37645503,-0.22629199,-1.0198213,-7.5040344,19.693178,23.24384,-10.783926,-15.438096,1.5039131,0.96721649,1.2575362,1.3110651,1.1219629,1.2309358,1.5384065,1.0983449,1.1835509,1.0392634,1.4996165,1.2045157,1.6457737,0.66863332,0.92028563,0.0091925984
-0.28149676,-0.82004868,-0.70534488,0.69684539,-0.6053346,-0.75324162,0.5722674,-0.83023804,-0.42703885,0.66891337,0.55190623,0.02149248,18.120454,-19.52341,30.055672,25.680755,-3.5500115,0.79934703,1.2254577,0.81692378,1.5879611,1.3122776,1.5491659,1.3321051,0.89047177,0.80909873,1.322358,0.87054654,0.87566059,0.72746415,1.639935,1.23714,-0.024992583
-0.75887796,0.40423998,0.99551092,0.6861325,-0.32939208,-0.92066884,-0.70901496,0.58896157,0.46108505,-0.22436606,0.56159577,0.13912187,17.893812,21.305504,31.603802,5.0999555,34.952545,1.2863451,1.4516058,0.68835119,1.5683723,0.73352896,0.67127063,1.1454331,0.89450824,1.4500307,1.5162371,1.2469282,1.5215586,1.4360143,1.1429388,0.97162918,-0.003212912
-0.6352483,0.084415705,0.34567884,-0.23712244,-0.52064813,-0.25515583,-0.12998601,-0.95373406,-0.060162378,0.44375547,0.9996767,0.32878908,-13.293776,11.502635,-15.21782,14.104879,-29.294424,1.6042379,0.82580656,0.73083056,1.5191505,0.86215194,1.5375771,0.80809781,1.2998801,1.0854452,0.67752833,1.3186548,1.6312096,1.5898483,1.5307361,1.3311665,-0.014685078
-0.64979329,-0.27144533,0.98162793,0.46090629,-1.029687,1.0839968,-0.9328667,0.99839112,0.71324491,0.13212438,-0.49156453,0.34941004,28.577812,-32.707706,-8.4091001,-1.7453358,-3.8589156,1.6730734,1.6947302,1.3307314,0.90289455,1.6987504,1.6987869,1.2607909,1.4132868,1.3615902,0.84701134,1.1696123,0.92437705,1.5551624,1.3146327,1.2311874,-0.0017594637
0.81860745,0.67284787,0.70560015,-0.80478191,0.78596855,-0.30961221,-0.54668022,-0.15253337,0.53957181,-0.56619961,-0.54685409,-0.87570583,21.894041,-16.850951,6.0746347,-33.615104,0.94963282,1.1821825,1.1410206,1.2839279,0.72567507,0.97088145,0.90452936,0.82499201,0.69079557,0.65118181,1.6127265,0.69366656,1.6539238,1.1480866,1.3918584,1.3645229,0.030409196
-0.81254315,0.090605528,1.0196317,-0.75211554,-0.29371727,0.50675147,-0.19983837,-0.63512062,0.031264971,-0.1180823,-1.0076969,-0.97872623,-2.3120906,-9.3072708,22.699791,15.390563,19.190497,0.79522737,1.2863436,1.4274622,1.2574285,1.6015139,1.243737,1.4376199,0.82823922,0.66657168,0.92026565,0.70475473,1.1128135,0.75599979,1.3884481,0.74794253,-0.015179738
0.51338947,-0.78981036,-0.48552454,0.70437555,0.6045424,0.63348711,-1.0963037,0.80729224,-0.37806938,-0.96922525,-0.92502092,0.91539713,2.293283,-26.793209,-3.4711516,-29.64555,7.2472258,1.2368537,1.2495052,0.7345664,1.3075522,0.88014472,1.5423877,0.81085901,1.5073897,1.6486495,0.70217988,0.88727014,1.5992769,1.4461393,1.212433,1.3610848,0.023784345
-0.88491093,-0.084184867,-0.86420301,0.49368315,0.072301133,-0.94536725,-0.18252974,-0.012066843,-0.48886324,-0.43141461,-0.30364083,0.85413698,-10.869826,10.839628,-28.367309,0.63593004,-21.923869,1.2580376,1.3383532,0.90247885,1.0120559,0.97370422,1.096843,1.1408522,1.6022688,1.3319701,0.7214778,0.77736563,1.3841856,1.5566422,0.98623702,0.6855731,0.0041029393
-0.20502872,0.095313514,0.9786164,0.42581084,0.68297755,-0.57595723,0.39042124,-0.34892063,0.73027541,0.47882557,1.0601526,0.75667459,-1.6360424,13.035342,-14.998734,-13.721276,-33.484707,1.5129537,0.6636677,1.4630516,0.90775622,1.5088219,1.5700319,1.3254951,1.0967019,0.86935075,0.72804795,0.95196916,1.1957406,1.1624966,1.0305597,1.1675435,0.0095204432
-0.77868834,-0.48248407,-0.97334466,0.21179533,-0.72291184,0.13023256,0.69943447,-1.0728457,-0.77575535,0.4317565,-0.5475593,0.46656968,-12.952294,10.789977,-22.859801,25.321824,-16.106906,0.89347857,0.94438571,0.79055452,1.4997459,1.2799349,0.81567354,1.5751117,1.6526851,1.3284597,1.5726792,0.66915453,1.2801928,0.95079965,1.4896479,1.6623971,-0.025269669
-0.87492556,0.60717023,0.81710572,-0.37639397,0.79993616,-0.86114238,-0.84503032,-0.54076854,0.24487758,-1.0855097,-0.30404482,0.6616225,-32.927625,5.4053497,-12.287921,-23.09374,13.509966,0.90490194,0.78696867,1.0824651,0.99009712,1.5122701,0.72318723,1.1577907,0.688282,1.4555202,1.3779675,1.000212,1.4125868,1.1457761,1.4094791,1.4160019,0.015036631
-0.79634822,-0.41156098,-0.88920752,0.27376385,0.60072706,0.2833946,-0.26980078,0.033121705,0.30043341,0.21662,-1.0018389,0.71650669,-0.79465914,14.163858,-18.035295,-19.196989,-13.797926,1.2989846,0.73475836,1.3837096,0.90706017,1.3603436,0.89416751,0.97339533,1.1552366,0.81216297,1.3730014,1.5342589,0.69007491,1.1390333,1.4821089,0.95443708,0.017532308
-1.049254,-0.11008864,-0.80423253,-0.97613406,-0.48832504,-0.1823474,0.85328639,0.75639537,-0.34602854,0.95708804,-0.7464762,-0.07529579,-31.999936,-12.92756,6.4915715,-26.158305,27.368927,1.4684266,0.94637515,1.6771507,0.92229932,1.2846079,1.6554926,1.2635926,1.2515907,1.1352562,1.000726,1.6519158,0.99931689,1.0689343,1.4281214,0.78594811,0.027784514
-0.93226872,0.052954497,-0.6352928,-0.66349199,0.40157207,0.13831928,0.26777251,1.0636495,0.15272805,0.53331268,-0.20590105,0.82790646,26.23518,4.6712688,-29.985151,-30.435437,31.607772,1.2024548,1.6575872,0.76792854,1.3248907,1.4373718,0.85824754,1.0164809,0.79395068,0.8290817,1.1761078,0.8941068,1.0029968,0.96761054,1.5802776,1.3251938,0.02911394
0.22324242,0.34535128,0.85480914,-0.040185703,-0.27284212,-0.50295401,0.24954582,0.40454163,-0.53189553,-0.16623456,-1.0283142,-0.032311721,3.7648945,-3.4180323,23.131167,-14.48432,22.037853,1.4778111,1.1714304,1.0308874,1.424216,1.2986302,1.0773539,1.1863342,1.6182042,1.4081314,0.81437306,0.71806749,1.2103826,1.5496525,1.1103808,0.82002857,0.0059249494
0.19922306,-0.90992407,-0.44909034,-0.49923139,-0.95879099,0.71357194,-0.96880859,-0.51958811,-0.032226665,-0.65130171,0.76598766,0.33624781,-12.9928,30.015908,-12.638587,33.276498,-21.891222,1.088397,0.93873632,1.3913608,1.4010041,0.72642109,0.90930611,1.3078155,1.1048436,1.2069092,0.92348349,1.2369436,0.66190492,1.2360521,1.427995,0.76210315,-0.018266586
-0.22474755,0.74719161,-1.0955573,0.15683349,-0.83826276,1.0466166,-0.23438477,-0.69013504,-0.96787516,-0.22521283,-0.47535467,0.09830162,19.737668,0.98548969,-26.874847,24.443443,-9.0503205,1.1939432,1.4028549,1.3820455,1.2892283,1.6102091,1.4344987,0.8689368,1.1208056,0.67989086,1.1257412,0.68223841,0.68090615,1.3897122,0.99336891,0.85132192,-0.015032523
-0.015666599,0.58525862,-0.19917133,-0.41973841,0.21695976,0.31024238,0.14229126,1.0512889,-0.87577435,-0.46368605,0.49162624,0.6876611,-32.710448,15.508299,-32.026457,31.331361,-23.809887,1.4333409,1.3612684,0.68771018,1.2950001,0.96748984,1.6517742,0.71949918,1.1226597,1.3919051,1.0985807,0.94653898,1.2806267,0.89296207,0.66352445,1.1554334,-0.031852174
-0.43034054,0.15532115,0.13320014,-0.0041526307,0.5784112,-0.9296825,-0.46273048,-1.0410441,-0.67050963,-0.99085731,0.55802403,-0.51504469,-20.372383,-28.646419,-0.36755617,-17.516632,17.967271,1.1139554,1.0482698,1.6699174,1.1518734,0.98548314,1.6651231,1.4234104,1.4077955,1.4694708,1.6956499,1.0386786,1.122018,1.1067159,1.1736353,1.3385666,0.012681363
0.34318457,-0.37518621,-0.8923728,-0.14637509,0.68340604,0.028452937,1.0005816,0.14412823,-1.0614498,-0.56680728,0.23559356,-0.98485957,6.4512136,-4.4528237,-8.6078185,18.394628,-31.491177,1.1418115,0.92639112,0.75554385,1.0755447,1.2303883,0.73627268,1.6348828,1.3753095,1.4769797,0.84716204,1.6024516,1.2540623,0.67441853,1.5523119,0.65618709,-0.014883738
-1.0231696,0.66739494,-0.77813447,0.030033207,-1.0282988,0.22547591,0.49870431,0.89655011,-0.017326418,-0.92195008,-0.25175624,-0.1700945,2.263075,25.502156,4.7280794,14.830177,-19.220284,1.3952359,1.4303293,1.1439196,0.65634363,1.2173159,1.5289873,1.3392504,1.281566,0.93020027,0.72589203,1.4673078,1.0422841,0.81870491,1.0734032,0.93834596,-0.0079505527
-0.093082983,-0.87503783,0.91938221,1.0758811,-0.98838171,0.3822953,-0.57644323,1.0187751,0.24561417,0.29874617,0.44757888,-0.71365345,-12.768203,24.81405,-10.259974,-29.381463,-34.254179,0.72528878,0.77845618,0.81295734,1.0740239,0.86931995,1.2604405,0.7727743,0.86769006,1.1668442,1.6500777,1.6061608,1.6440001,1.3101134,0.87541201,0.74961636,0.016463581
0.056993567,-0.9232038,0.66808482,-0.17896228,0.57008854,-0.065414115,0.14240227,0.71802773,-0.8502369,-0.083285001,1.0651594,-0.86005867,-7.1331596,22.987365,18.650441,-2.0336664,-19.830461,0.86657265,1.2866091,1.6885408,1.2556275,0.73213778,1.4396317,1.0394634,0.66104523,1.4871383,1.4838986,1.6337545,1.3118611,0.84870679,1.3149376,1.1056635,0.0035504957
0.3366626,-0.034227099,0.91323238,1.0740211,0.7375034,1.0082509,-0.70577159,0.12238251,0.71038286,0.41021614,0.27753739,0.24836635,11.882356,-3.238817,25.202979,16.474524,-32.675735,0.70870588,1.3696439,0.75504089,1.0222723,1.531262,0.71992237,0.8852821,0.7363065,1.1532838,1.5913263,1.1713515,0.75510317,1.0189428,1.2215122,0.65553357,-0.020454739
0.16291267,0.17525049,0.82018665,0.82506228,-0.79655602,0.49417817,-0.40431985,-0.13875742,-1.034139,1.0298118,1.0121757,-0.71582394,16.058278,-28.522585,-19.089126,-20.947526,34.930793,1.0525095,1.5268682,1.424178,0.66045276,0.97960998,1.654932,1.2920794,1.2286967,0.65534946,1.3083244,1.2575829,1.0460926,0.77899463,1.462801,0.89628166,0.015204129
-0.77316934,-0.087405117,-0.0090837043,-0.93089349,-1.0237685,-0.60253056,0.19287678,0.18477439,0.35305512,0.58550806,-0.40509056,0.10257663,-3.2025926,4.025714,-29.825095,-0.37974399,-12.35729,1.1903436,0.75571706,0.836562,0.89753438,0.86030259,0.90558672,0.74598825,1.1244385,0.83745856,1.2660043,0.83428355,1.4535944,1.5616841,0.67383613,1.2138625,0.0057401053
0.1292474,-0.46437597,-0.10832045,0.32529322,0.20367623,-0.83551602,1.0296715,0.85488648,-0.93936453,-0.45404772,-0.2514191,1.0979952,-30.755825,-33.143868,11.005854,-34.608232,-30.551964,1.6721978,1.6785608,1.5210917,0.93844305,0.66235062,1.3768361,0.88362794,1.2848088,0.83233768,1.2993503,1.6310793,1.4994072,0.83720568,1.2158326,0.74928388,0.039391569
-0.65115921,0.96176085,0.82037095,-0.47553358,-0.70953217,0.6927216,0.45793869,-0.32651299,-0.91231651,-1.0747815,-0.32295699,-0.52268433,22.548575,-6.0942669,-16.343137,0.89443104,-17.297564,1.0227038,1.4335193,1.2089247,1.1979017,0.73328756,0.81395167,0.9856862,0.87799452,1.1039144,1.3397032,1.5419091,1.1662769,1.565522,1.1277624,1.0519407,-0.0063096324
0.50671011,-0.89502851,-0.79859991,-0.87075499,0.33025421,0.016533006,0.78176601,-0.5699402,0.35932491,0.40432525,0.22961473,-0.31175535,26.054785,-17.235303,-13.737376,-24.070154,-17.080385,1.1745193,1.4952256,0.90702566,0.78033094,0.82211133,1.6251872,1.1710273,1.60556,0.99675465,1.0553991,0.74196456,0.69843189,0.89485609,0.9962992,0.75071334,0.030424883
-0.91297219,-1.0992067,0.39685454,0.018910059,-1.0502887,0.093094237,1.0641704,0.11146146,-0.31303979,-0.97696789,0.89137028,0.88981392,-34.298489,-4.7119852,-24.335124,9.5694663,-25.980638,1.2263613,1.3048871,1.2374683,1.0801248,1.5580085,0.84832193,1.1466805,0.85935811,0.78179162,1.221722,1.0321625,0.80477047,1.0272825,0.68751361,1.141276,-0.002091611
0.42125196,1.0309669,0.63390153,-0.72842546,-0.17431608,-0.50944363,-1.0649118,0.62398562,-0.25243872,-0.64505429,0.20884592,0.28605154,12.832542,6.5295635,-17.626986,-16.748412,-20.563394,0.89063156,1.3946884,1.6776695,1.2411181,1.5214246,1.2837434,0.77457447,0.67312896,0.87845637,1.5162765,0.85919983,1.2715371,1.4239614,1.2193597,1.228281,0.017532499
-0.32784422,0.9039496,-1.0037043,0.15133532,-0.88311335,-0.65995353,0.49641279,-0.23196578,0.38177069,-0.59723981,-1.0492802,-0.55083011,15.02297,1.0523339,-23.42435,-13.043394,19.681905,0.78169356,1.6737305,1.1884972,1.2221207,1.4317885,1.5198222,1.6524742,0.93363687,0.73479769,0.99485544,1.6853278,0.80446503,1.143767,1.24148,1.3047323,0.0037227015
-0.91924355,-0.94451176,1.0010075,0.70463292,0.53194024,0.91765331,0.60672744,-0.027588401,0.33498114,0.29390557,0.45889075,0.28108682,16.78931,7.9373617,-16.761956,31.811587,-2.6572332,1.173218,1.6756083,1.2492665,0.92157365,1.688376,1.6354943,1.1530236,1.4181277,0.82151425,1.0399606,1.6677844,1.0031475,1.3997431,1.5821005,1.5132893,-0.025216377
-0.25517538,-0.45864888,-0.61419596,-0.14643945,-0.39832786,-0.59064757,-0.20916307,0.98102003,-0.95949572,-0.13538472,0.67283544,0.49664036,-25.637013,-31.277018,27.157119,29.706569,-31.698973,1.2555068,0.80330573,1.60935,1.6951092,1.3997517,0.6763538,1.528339,0.94377983,1.1076479,1.0876328,0.69511496,0.79706514,0.67378846,1.4626955,1.2224527,-0.037898169
-0.96946155,-0.49824905,0.15755129,0.23016966,0.21836887,-0.1970863,-0.56243035,-0.9712604,0.056057385,0.9353068,0.42838996,0.048071383,27.393154,6.7394365,9.7086392,3.0992565,9.2037873,0.99578527,1.5629785,1.4297946,1.6075165,1.3293965,1.5675388,1.42413,0.90258832,0.75188936,1.6045169,1.3160518,0.9330424,1.2436754,1.453087,1.4333677,-0.0074605229
-0.86608598,-0.36584941,-0.10586031,-0.11028846,0.23568425,0.53925084,0.63653693,-0.41763414,0.39762968,-0.14795162,0.57597488,-0.093822616,-3.5442964,1.0108288,-21.000851,-21.299544,-1.4296408,0.90540542,0.84891894,0.68069088,0.92162867,1.5631371,0.94450309,0.66343233,0.65718818,0.71181834,1.1807814,0.69317073,0.67048999,1.675303,1.3675424,1.1345398,0.020578608
0.80611288,-0.40742256,0.4926493,0.28937336,-0.94402372,0.4069553,0.45054698,0.79063474,-1.0529258,-0.24717967,-0.22079673,-1.0239363,31.067271,17.631254,18.486087,-34.339818,0.68193377,0.89391257,0.88852859,0.70006835,1.0987091,1.0036245,1.0166809,1.006193,1.1350574,0.80940596,1.2359092,1.1257266,1.4865295,0.7020474,0.76062191,1.3724772,0.023062446
-0.10701654,0.24895023,-0.80903477,-0.32019822,-0.33734751,-0.48145412,0.94333028,-1.066177,-0.84841377,-0.22946498,0.62952071,0.41294032,-3.7719411,24.985813,6.5512685,-2.8295837,-26.813179,1.3385471,1.0116385,1.3075164,1.3281827,1.1160278,1.2297445,1.4659529,1.3696908,1.5439471,0.76943185,1.3911248,1.6348029,1.0822188,1.0521955,1.4999951,0.0050572274
