Iamnikhilramesh/Machine-Learning-Algorithms/Supervised Learning/Regression/pumadyn-32nh.csv
"theta1	      u  [-3.1416","theta2	      u  [-3.1416","theta3	      u  [-3.1416","theta4	      u  [-3.1416","theta5	      u  [-3.1416","theta6	      u  [-3.1416","thetad1      u  (-Inf","thetad2      u  (-Inf","thetad3      u  (-Inf","thetad4      u  (-Inf","thetad5      u  (-Inf","thetad6      u  (-Inf","tau1     u  (-Inf","tau2     u  (-Inf","tau3     u  (-Inf","tau4     u  (-Inf","tau5     u  (-Inf","dm1   u	 [0","dm2   u	 [0","dm3   u	 [0","dm4   u	 [0","dm5   u	 [0","da1    u	 [0","da2    u	 [0","da3    u	 [0","da4    u	 [0","da5    u	 [0","db1      u	 [0","db2      u	 [0","db3      u	 [0","db4      u	 [0","db5      u	 [0","thetadd6     u  (-Inf"
-1.7401807,-2.1306206,0.10336791,-1.5671344,-1.2853146,-0.69133238,1.5279243,2.0161694,-1.0295267,0.63763789,0.80742561,-1.2780879,-55.829076,-69.28689,-54.752783,19.970995,-47.493702,2.475346,2.1399076,0.67769382,1.9999633,2.1331314,1.5401919,1.2552086,1.7905894,2.1859226,2.301153,1.7286334,0.39216498,2.3667643,1.9569616,1.6538788,-0.0014699771
0.76679131,-0.92228064,-1.7233158,-1.426237,1.1582769,0.2804585,1.2770291,-1.9038696,-1.214811,1.4526886,0.45006724,0.89586181,21.220862,-40.978981,66.263149,-65.247723,31.522055,1.2426925,0.68323882,0.69488143,0.62216052,2.4018791,0.38262795,1.8279184,1.8244721,2.402558,0.54280517,0.67655025,0.77997741,2.0803161,0.37335332,1.1992062,0.033311715
-0.6637066,-0.69203661,-0.88337313,1.8854693,-1.7327852,-0.35614744,-1.0360656,-0.87654858,-1.224004,-2.2567772,0.36448217,-0.25388296,-73.17709,-37.349399,18.649072,-65.044366,-0.65827036,1.9217519,1.6338284,2.2546447,0.81285231,1.1087123,1.1281722,1.9395491,1.5012752,1.9326414,2.4032036,2.3923189,1.7039995,0.37031264,1.844586,0.70773954,-0.034916122
-1.3542113,0.60899618,0.089989329,-0.22621507,0.90117262,0.39009559,1.4034945,-1.6866448,2.2923186,-1.4927584,-0.031501169,-1.6525814,-3.6439001,-43.028581,-31.363402,-24.694798,4.5342869,1.4914114,0.40174456,1.3707603,2.1179183,2.3527258,2.2625314,0.61458963,1.1579463,0.60362373,1.3539529,0.8862881,2.3441219,1.6566964,1.846551,2.2324018,0.013534662
-1.8789443,-1.6978039,-1.4747116,1.6889632,-1.0273537,-0.54031396,-0.28322092,-0.58120875,0.40688098,0.77219964,0.44016583,-0.58354505,-36.930704,5.660511,36.208916,13.246825,39.38044,2.3809158,1.302055,1.6382853,0.66030048,2.1701387,0.27188441,1.3112527,0.97341604,1.9533559,1.8024409,1.1244142,1.7797219,1.7866252,0.8093289,0.39075151,-0.01677216
-0.55354276,-1.137385,2.1317923,0.74029458,1.4241569,1.5806958,-1.6948192,1.5644702,-1.0793218,-2.1766376,-0.47205989,1.7524938,55.12176,31.426042,27.490947,40.342722,40.136125,1.6426738,2.4185323,1.2723055,1.1387695,2.2984919,2.002606,1.549129,0.71105727,2.4894848,1.2710653,0.54377692,1.2587644,0.8026081,2.1842725,1.5683411,-0.026957313
1.0149933,0.14371246,-2.0801955,-0.63230909,-0.78172722,-0.34893219,-2.2914318,2.2611163,1.8773035,-2.3162817,-0.70186357,-1.1113743,33.16821,58.111338,27.253185,-55.714549,55.579672,0.28826818,2.1733776,0.70671074,1.4373872,1.4158337,1.4170869,2.229678,1.9474136,0.93108587,1.5102227,1.5636324,1.4704909,2.0411643,1.5986007,1.932066,0.049320358
0.7501713,-2.223846,-2.2224513,-2.3433411,1.6136064,0.084545981,-2.17717,0.0041586903,-0.79072756,-0.82121421,0.44012692,-1.2375171,48.860393,-53.375463,68.588026,8.9487557,-48.263355,1.9418627,2.1364461,0.99958159,0.71783113,1.5877531,1.866888,2.0368388,0.89992232,1.9945025,0.35382742,1.5274377,0.64518667,2.402407,0.25457862,0.70282857,0.025539924
0.13571209,0.11690618,-0.22404644,-0.34969276,-0.93714661,-1.8190238,1.6460785,-0.79453134,1.2221115,-1.2764122,-1.8652292,-2.0950948,-40.991799,0.82942204,-9.9037139,48.279855,-60.474409,1.4741031,2.0015864,2.4118867,2.0800004,1.8164821,0.86485765,2.1625521,1.0123853,2.1591367,2.1107565,1.2342329,0.2529131,1.9604552,1.8700441,1.0817607,-0.044402014
-2.0390696,-2.1493976,0.24924312,-0.28470242,-1.9187002,-0.71677349,-1.9458067,0.80671613,0.93496898,-1.7936746,-1.1359344,-1.7613555,3.9814929,16.951026,45.899383,-19.066592,-52.210578,1.3273073,0.80409794,2.4741246,1.8629044,0.33406747,2.4220088,1.2024601,1.7467154,0.54656747,0.90942088,1.8868042,1.5181006,1.2174866,2.2974491,2.4762503,0.024022471
0.44911531,-0.96605157,-2.2486354,0.54483368,0.84787852,0.029955867,-0.75736968,-0.9495258,2.181432,0.94100533,0.69919582,-1.3139681,-51.138422,16.54382,-48.010482,-62.16546,-64.88009,2.2798772,1.8960423,1.533656,1.6558432,1.0064629,1.6212496,2.3415267,0.78861286,0.96626239,0.97193405,1.7956442,1.6418927,0.54023027,2.4001581,0.70798135,0.038500146
-2.2669522,-1.0006246,1.0190461,2.2861841,-0.92318045,2.0030811,0.47672346,1.2299647,-1.2331408,-0.30996125,-2.3288827,-0.42811168,17.348906,-16.933754,-55.596651,-62.911592,-5.1337741,0.87486903,1.6738111,1.4939136,1.9557673,1.8317774,1.432772,0.34933756,0.3164364,0.84664472,2.0578813,1.3107746,1.9381375,0.27703382,2.3573805,1.7445193,0.042457657
1.0711606,1.6707753,-0.40594865,0.76025669,2.3476183,-0.4114932,1.8208913,1.4664474,0.78725939,-0.91974758,-1.5617597,-0.48928493,-9.3283083,-30.877571,40.659167,-41.374034,26.616826,2.1100191,2.3409796,0.59405924,0.35372495,2.0552275,1.7089457,0.25114602,1.5110861,0.32350974,0.47818809,1.4071702,2.0596332,1.5055127,1.1527347,0.76144878,-0.072497785
-0.43022186,-1.9340583,0.34098097,0.60209218,1.864116,2.2360047,-0.77089169,-2.0194,-1.4311352,-1.0552087,-2.173374,-2.1705367,-51.170708,73.916987,22.79352,-9.3100062,-23.274258,1.8180784,0.69439889,1.5121656,0.46717811,0.8624579,2.3298766,0.73556792,0.44005721,1.7914602,1.0720588,1.5922174,0.39749964,2.0264507,1.8076686,1.2355893,-0.013887141
-1.7291181,0.014424662,2.1034611,0.52922679,-2.2757755,1.5021647,-2.0986191,0.74095613,-1.5944525,1.3925164,2.2998389,-2.334696,26.333688,-59.711421,-69.845221,11.372168,32.030817,1.254022,2.0985505,0.838311,1.492894,0.5701099,0.58712262,0.76984707,0.56978167,1.8205771,2.1895009,1.6909447,1.4573637,1.9115515,1.1956348,1.7833887,0.038883611
-2.0114591,0.085011762,0.93881693,1.6179119,1.7600624,1.7029873,-0.94258063,1.0991171,0.29696654,0.69663606,-1.9242909,-0.43144905,31.907156,13.573574,-18.937253,21.585007,-70.79383,0.89641254,1.5055687,2.0924214,1.3261733,1.9949029,0.33228229,1.668509,2.3803629,1.0092237,0.77285766,1.6686618,0.44907121,0.28974575,2.2568659,2.1457607,0.022818035
1.9364709,-2.2049606,-0.54570947,-1.4300248,-1.2429205,0.2554563,0.46767848,0.0073777647,1.4759776,0.74039346,-1.6263789,2.0176932,32.424944,16.040305,39.401788,-24.144134,-40.465139,1.4110738,2.4179322,2.4356456,0.89549051,1.7590229,0.39865747,1.2360996,2.3764013,1.9264068,1.1190741,2.0291009,1.3483578,1.3493798,0.52657767,2.4409275,-0.0036431311
1.1372593,0.46662056,1.0764323,0.73664833,1.4026624,-1.5344925,0.68993129,-1.5141735,-1.8133713,-2.311483,-0.160189,-1.5223752,54.519373,-42.892019,13.836779,54.745008,-0.65218663,1.2054894,0.90993975,1.6074379,1.9585304,1.0206116,0.91939647,0.79651093,0.95927226,0.48894136,2.1373675,0.73619564,1.9901419,1.314673,2.2083722,1.61109,-0.03291041
-2.1673854,-0.47930951,-2.2821207,-1.468639,0.077463012,1.3014873,-0.81273647,1.5537802,-1.6763715,0.59873892,2.054533,-1.8502416,1.4228458,63.76887,13.395839,-6.1406995,-6.7366343,1.7858063,0.5462281,1.9557234,1.0933301,1.349194,1.9036685,1.4565514,1.7599177,1.9375543,1.7248174,1.5063583,1.8637816,1.5775502,1.3853754,0.25392552,0.034492576
-0.8352224,0.62392054,1.167098,-2.2592485,1.2405701,-2.0594724,-1.0561623,0.64951465,-2.2125391,-0.68380792,0.75705618,0.39303618,-32.160593,-73.084044,26.471879,12.864226,59.046841,1.378929,2.1599994,0.86043798,2.1310766,0.7540855,1.1650283,0.38097235,1.0022349,0.31229925,1.0634549,0.98603024,2.4602605,0.59866679,1.2926591,1.2214691,-0.017037297
0.74525389,-0.047797967,-2.2343116,0.95256653,1.8003149,-0.35759623,-1.8238841,0.069452208,-1.3892055,1.5100736,-1.1192367,0.84546161,57.948494,-9.6629721,44.428629,11.964385,-64.575505,0.31731893,2.1793011,1.2628059,1.2292811,0.27723587,1.2532695,0.70117691,0.68036058,1.8202535,1.2501723,0.39530074,1.0695368,1.9552021,1.3324415,1.5941509,-0.010530293
0.040984778,0.82236521,0.055232383,-0.049964085,-0.94114384,1.6853079,-1.2007974,1.3599539,1.6589069,-1.956529,-0.33196634,0.11028447,50.365252,38.787844,7.2881021,-58.867242,18.270859,1.7999676,2.3051235,0.9602668,1.4541056,1.1526254,1.175271,1.5300723,2.1755924,1.9310928,1.1266478,1.0697689,1.3552639,0.42052681,2.0440244,2.4189218,-0.018555244
-0.64111273,2.0519205,1.3659455,-1.313904,-0.52915928,-1.3020464,0.83978261,0.62141087,1.3985079,-0.67444726,-2.1396704,-1.1993613,61.608435,2.9662251,53.345095,21.006694,-40.494079,0.86515827,0.4651093,2.092077,2.287546,0.28623629,1.7733205,2.1981218,0.33259669,2.4525409,1.3545612,2.1095436,1.0993018,0.46475492,0.63591451,1.8152176,-0.033921139
1.5434539,-0.87151068,-1.3749957,0.0022865091,0.73024728,2.2051495,-0.99219325,1.3526315,1.1133421,-0.95545728,1.4511734,-1.4540623,0.76257979,66.678503,15.594646,49.223612,51.247735,1.6852165,1.934176,1.1968055,1.2097204,2.2714187,1.4842592,1.6951343,2.1216364,1.8431694,1.6488149,2.1313987,1.6686025,1.7029994,1.5610265,0.42300352,-0.046467734
-0.95261863,2.0364479,0.49818519,-0.91665069,-1.348546,1.5788762,0.70945307,1.433656,1.0107112,-1.1384692,-1.9524163,-1.8968055,-9.490231,-52.311605,-51.14515,53.459046,-13.81892,0.5561962,0.73950582,1.374375,2.119916,2.1776269,2.3748386,0.41205464,1.4023691,2.3682557,2.2729636,0.44907668,0.38184255,2.1277879,1.7313896,1.7150241,-0.0087689916
-0.44888099,0.19198909,-1.2257767,0.93641436,-1.0630582,-2.1531366,-1.3315756,-0.65578502,0.49893144,2.2007315,0.15324255,-2.1291637,32.732113,-71.371129,15.433883,47.270194,70.151884,2.0158249,0.96829041,1.3069422,0.52790701,2.2830477,1.1829516,2.3677901,1.1988385,1.6293943,1.9794737,2.0137898,0.51498276,1.0652427,1.7845043,1.1642573,-0.010382734
-0.94846249,1.20292,1.3281773,0.089074089,-1.4714799,-0.54472924,0.90750462,-1.5729595,-0.22791925,0.53332302,0.59620027,1.7989306,-1.9230925,-71.415488,19.898252,-70.08254,72.742513,0.37618302,1.5080819,1.5820113,2.1139162,0.33974849,1.152847,0.39999668,1.2442054,1.3605314,1.2018778,0.96027701,1.6257261,1.0790127,1.4665788,1.5394902,0.019694689
-1.388672,1.0526643,1.8211068,0.37638942,1.9509276,0.43709072,-0.4307528,-1.4329083,2.1310123,1.7681838,1.5407522,0.84476718,-13.559081,-37.467004,-7.9290506,-63.552849,17.261948,1.6983981,0.72769554,0.87902182,1.719785,2.4271927,0.5772834,1.9020652,1.5094855,0.42310855,0.4354407,0.70179021,1.9880176,1.6118251,1.4449267,2.1323495,-0.031435357
1.0941803,2.146508,-1.6904494,-0.39042748,-2.2692673,-2.2122966,-1.3204891,1.8925897,0.12987646,0.9974945,-1.7898621,1.6783659,-2.0550945,-39.973991,7.1332851,39.122859,-62.116624,1.4634503,0.70998298,2.4338807,0.48287208,1.3810572,1.9287766,0.44821081,1.5790513,1.8655139,1.4425008,1.8606558,0.79127382,0.68915536,1.1340859,2.3314196,0.022691636
1.1414279,-0.15757132,0.061455797,0.87439243,-2.0276673,0.99227395,0.0036634501,0.31054845,-1.9392515,-2.1174982,-0.830712,1.0319819,-56.81431,21.899778,-30.424916,-1.5605013,22.653852,2.0242603,0.9920519,2.41635,0.59474601,0.64611303,2.2217145,0.8551589,1.1555827,1.3785758,0.7237003,1.2310158,2.433093,0.7436841,1.848643,1.3928823,-0.000036067561
-1.9947074,-1.1115566,-2.0222392,-2.0250029,-1.3501309,-1.4968488,1.9066833,1.3807866,-1.6356877,1.0743377,-1.4804032,0.2775082,-37.710443,-49.412459,74.793648,56.835249,30.022698,1.2473651,0.46569481,0.68261127,1.397579,0.61063148,2.1332578,1.4138772,2.2840212,1.794767,0.39922003,1.6910248,0.55384356,1.6987748,0.30768648,2.2866854,-0.018916265
0.4109043,-2.293692,1.9733476,0.25938015,0.44236482,-1.3242739,-0.45789642,-0.53384909,-0.012990209,-1.5565486,2.2719126,-0.45226283,-3.1172315,-41.309858,55.210645,25.31245,26.338811,1.7709379,0.40311232,1.8587203,2.012684,2.1795139,0.33994779,2.2524587,2.323713,0.64385434,0.25981842,1.0182015,0.91191316,1.0245421,1.7286175,2.374961,-0.015964607
2.2920439,-1.3972675,-2.041198,-0.22309544,1.49662,-1.0400498,-1.8654964,-1.8749096,0.13907266,0.04933946,-0.13215156,-1.5360164,-43.340257,-19.70144,-72.093883,18.107763,-12.820616,2.483507,2.0520319,2.0004339,1.0421335,0.38718673,1.9472967,1.2152682,1.0130192,1.5633101,0.55366707,0.98243017,0.4538778,2.324171,1.5921783,1.9910942,-0.020785278
0.40970848,1.1701192,1.3935576,0.94967814,0.37902424,-0.88944313,-1.1728221,0.30273079,-1.3836509,0.61835352,1.849851,-1.8971843,-62.173629,-52.180043,60.023304,61.667558,-53.349802,2.1232772,2.4202796,1.3892985,0.93986366,0.53853746,0.94906168,2.1296202,1.026605,0.39976989,1.9325601,1.0377232,0.51423045,1.9211269,2.3791582,1.0123321,-0.050859563
-0.22970844,-1.263145,-0.36524368,1.5923094,0.28635176,1.3648962,-0.098764182,-1.1686857,-0.862762,-0.41997344,0.66508321,0.26684253,-43.671305,-33.614873,-65.172166,-48.601009,62.840017,1.4074259,1.8579124,1.9335655,2.1848095,1.5924893,0.46701534,0.3767427,1.9144933,1.1395893,0.32779323,0.47085557,1.9195186,2.349575,1.0568536,0.28849415,0.068579223
0.20147987,-1.9354292,0.86317181,-2.117039,2.1750748,-2.231168,1.9501263,1.1076778,-1.9073763,1.1092827,1.5032273,1.6231979,33.980924,67.385168,42.522447,74.772302,-1.9208225,0.87605333,1.3282717,1.2628354,1.7250718,1.2816925,1.4059239,1.3637216,0.81889159,1.3610084,2.4678037,1.3765335,2.3977261,0.33179388,2.4596729,1.972051,0.045995242
-0.76332675,-2.1098156,1.055836,-1.4215362,0.05273997,0.47155092,-0.88201841,1.0922777,-1.5567761,-1.5525994,-2.0407746,2.1814221,24.685592,-9.2522156,48.012994,-45.609713,-62.44532,1.8476374,2.491834,0.25333332,2.273188,1.9702381,2.0425571,0.25800488,2.0380698,1.3398647,0.35622466,1.317886,2.2098681,2.0029706,0.92708808,1.8193732,0.016451476
1.7408688,-0.44077103,-0.16328065,-1.6475174,0.17352505,-0.53333278,-0.76020961,-1.5564494,-0.77305415,-0.6646043,-1.6425493,-1.1511644,46.146241,-70.121589,16.460362,49.303009,35.67813,0.50988669,0.91564111,0.68010841,2.0820397,2.3417591,2.4451725,1.2635963,1.0131263,1.1142692,2.2731323,1.0344431,1.6349978,1.6574327,0.72112082,0.62767096,-0.030120502
-1.7995147,-0.33165263,0.6704253,0.51600226,1.6542933,0.61306887,-2.146119,-1.1967471,-1.2523027,-1.9218233,-1.3706033,-1.572738,-38.749968,29.279816,-44.135009,-27.103207,26.393993,2.1826614,1.4907373,0.32116151,1.5114338,1.6685397,0.64680935,0.4247877,1.6568587,2.3235672,0.44353356,1.7185332,1.6370007,1.5706974,0.96082507,1.8370262,-0.0012562938
1.0985779,0.65926003,1.3567668,-0.070369822,0.10403561,0.23013302,-1.025659,-0.33212176,2.2104733,-1.0494031,1.1537115,-1.0506579,-34.550956,-47.916528,16.919586,-32.516721,-58.523769,0.49012977,1.8610504,0.67396916,2.3996198,0.66034239,0.6245472,2.0147373,0.69047416,0.79921474,1.4021756,1.3645268,0.85157429,1.6591313,2.2699843,2.1260816,0.041164035
1.9446143,-1.9968746,0.16217492,1.9129741,-1.2750761,1.7405174,-1.6347469,-1.9641567,-1.2966026,-1.9125419,-0.88567738,0.85702157,-57.666257,-46.778924,-63.380839,58.235097,7.276735,2.1262841,1.2067875,2.47739,0.49349332,2.1422323,1.4989601,1.27243,0.98111016,0.76846299,2.0574682,1.1186481,1.6181432,1.8831537,0.91398712,2.1315081,-0.0023196589
-0.24843139,-0.20970467,0.36061096,0.65624028,-2.2722511,-0.52463213,-0.6123995,-0.74082559,-0.9239657,-1.7697853,-0.18205952,-1.5339498,12.279189,-23.677137,8.364626,34.269391,-34.342255,1.5207138,2.3875174,2.0042576,2.3067524,1.33774,0.64580482,1.5416305,0.6829783,0.81625088,1.9785214,1.7588627,2.2053455,2.4924526,1.6500583,0.53055759,0.035422956
0.95580188,-0.37189707,-1.8463223,-0.057030857,-1.9026576,0.3048783,1.7227834,1.9026031,-1.2220693,1.9846729,2.1087819,0.42034678,28.561818,38.474667,-6.2641494,18.441612,48.17782,1.7442966,0.39375435,2.0793795,0.3820203,0.61515806,1.7114661,2.1112366,0.30326855,2.2845999,0.27017151,1.7726205,1.6833278,1.6910152,0.39208425,1.0100005,0.024436855
-2.1905599,1.1549201,0.41164477,0.72654594,1.257797,0.017685713,0.36327201,-1.7434037,0.24856693,-2.2246251,-1.1801047,0.42544782,57.530297,11.707631,-29.853552,1.3593613,46.78547,1.7259006,1.7112191,2.4591325,1.8893694,1.8820291,2.2623075,1.3520744,0.81360316,2.4783864,1.4910059,0.33605306,2.0437334,2.0280182,1.1522136,1.0042405,0.0071516884
-2.3139171,1.3422103,0.32280909,1.4927278,-0.48339302,-0.22794583,0.086658488,0.34101403,1.1577766,1.2979411,0.8476855,1.4983012,-33.684587,-36.845386,-60.403461,-0.97728615,74.751681,0.64763145,0.74180826,1.8214782,1.5838071,0.79636209,0.70760268,0.6782281,1.9796479,0.44146431,0.69058023,0.33186013,1.3232165,1.8000858,2.0413856,0.81705744,-0.033253696
1.3811086,-0.93565762,-0.35558411,-0.99289047,-0.94083146,2.2230989,-0.90942512,2.2818908,2.3164264,-1.5791523,-0.63841424,0.28153841,18.38072,74.765774,38.368351,6.8689188,-54.082281,1.9616207,1.2089103,2.1551445,0.2639056,2.2114086,0.89469172,1.8337396,0.66071678,2.4168542,2.317951,0.5522551,2.0014796,0.61784809,1.9228243,1.6584753,-0.011251416
2.3459672,0.11251104,1.3050244,2.0876132,-1.9337367,1.0348888,-0.051571164,0.3230231,0.37714819,0.56647381,1.6996431,-0.60080445,29.579107,36.050172,45.244196,69.209555,-45.010709,0.70025362,0.91256041,0.65274141,1.1249448,1.6977034,0.30103632,0.76735704,1.469763,1.0564302,2.1718768,2.4833342,1.3974608,0.87438701,0.32242718,0.28366397,0.0572589
-0.17728418,-1.3853518,0.30582526,-1.2112274,0.42082775,-0.44389026,-0.75190506,1.3588788,-2.2736844,-1.0506332,-0.67127783,-0.70724792,-65.915176,63.630504,-62.112349,-72.241979,-70.940627,2.1382026,1.2715543,2.0130906,2.2632902,2.1179186,2.3573571,1.3500175,2.244039,0.31416188,0.86863646,0.4230514,1.7249397,1.3123181,0.88034456,1.4510722,0.049001833
1.1409347,0.97914723,0.86519863,-1.0389802,1.9736387,0.43891013,1.8737864,-0.1671879,-1.343126,-1.5746387,-0.17587985,-1.3447771,-33.446255,68.789013,-63.055658,-26.450808,41.261765,1.9222525,1.0485352,2.2315893,0.3206367,1.6909905,2.2266977,1.3590104,0.38770786,1.7060194,0.56722844,1.658346,0.32078711,1.9688803,1.7218857,1.7334608,-0.029475201
-1.7801444,0.071247448,0.50905374,-2.0321348,1.3054554,-0.093351073,0.27405051,1.9629356,-0.37643753,1.9528846,0.34296399,0.94400829,-21.212957,23.830817,24.536802,40.031451,58.602332,1.8159827,1.4711412,1.7199553,0.788075,0.9265124,1.1439616,1.8133093,1.5401411,0.40224781,0.82897972,2.1620805,2.0872003,1.3248805,0.51576342,0.68574382,-0.00065008942
1.9296947,1.7183266,-2.317437,-1.2692513,0.67891764,1.8750979,-1.6874864,2.2847399,-1.6350613,2.1776911,-0.67167848,1.983816,58.680947,0.67154904,36.724664,-18.572986,-6.1765945,1.2246386,1.0015412,2.1530909,1.7481732,0.29697535,2.2646297,2.1310078,1.8481738,0.25717741,1.6307134,1.6503256,0.52155328,1.2459097,0.75496075,2.375335,0.035393508
1.3208406,-0.69588463,0.4165443,-1.7499339,-1.118686,0.6756864,-0.59614876,-0.93329912,1.5845225,1.360092,-0.73234595,0.22170017,-44.083167,-55.784126,-63.806682,-48.909545,-22.716987,0.55908823,2.0959078,1.4221902,0.25030851,0.93504985,0.63290718,0.77090876,0.41356314,2.0056497,0.95527402,0.79044941,0.33328861,0.58165492,1.124163,2.0572333,0.055191906
0.61892063,1.9565718,1.0526191,1.0601802,0.90585002,-1.1074484,1.0519545,-0.68353613,0.61258749,-0.81197701,0.18087014,0.39354362,-60.684583,74.211504,22.744721,70.517801,42.67949,1.5879072,2.2060231,0.38098791,1.2638215,0.2984457,2.2268426,1.5433771,0.78921198,2.0357708,0.9501503,2.4260495,1.6140771,1.0438589,2.3857573,1.6727829,-0.065544359
1.7542112,2.3223483,-1.0105796,-1.3613611,-1.7468736,-1.522084,1.8942982,0.56949628,0.66196749,-0.26284621,-2.1478103,-1.3482534,56.798271,8.5365852,74.387901,-12.551862,-59.147691,0.69636694,0.83912762,1.7179058,2.3436076,2.0122935,2.3670622,2.4640164,0.72287024,0.78018196,1.0182562,1.8325466,0.86052138,1.2827793,1.6719419,1.5782335,-0.016677709
0.5122887,0.5015143,-1.5130526,-1.8237597,2.1610416,2.2442404,0.9871508,-1.2781307,2.2382936,-0.00142158,-0.3305508,0.33935748,50.629556,-19.048316,-45.03928,74.813978,-51.473296,0.44972861,2.3387908,2.0573395,1.2048839,1.9843175,2.4241211,0.70336411,1.4406135,1.6411794,2.052784,1.1400418,1.1817136,1.8104463,0.67164091,1.5187988,0.033765967
0.68293366,-1.3134596,2.2269439,-2.2600169,-2.2489034,0.75177861,1.2282854,-1.1828716,1.0455148,-0.53133306,-0.13762989,0.63749924,-48.475216,-72.954374,-44.17151,-40.574727,-39.437166,1.8181416,1.7559246,2.3242915,1.3672514,1.6437763,0.69773935,1.4053259,0.31305515,0.2679003,1.8504162,1.9458119,1.0100289,0.806368,2.3769058,1.4065146,-0.031978361
1.9196081,1.8383766,-1.53841,0.82168321,-1.9823878,-1.4017881,2.0931087,0.89479921,1.6570237,-0.6207331,0.56800595,-0.82404335,0.46538474,21.721374,-28.860767,37.084315,26.076353,0.85403577,0.27911965,1.4138955,0.34126883,1.9552539,2.2029588,0.62790385,2.1800499,0.34851165,2.1852298,1.9077402,2.3894927,1.4535516,0.84176217,0.99677954,0.017756178
-1.0497709,-0.31495328,-1.4069326,0.45091445,0.99759753,-0.058230293,1.5003738,0.78879299,1.2935545,-2.1917971,-0.78915771,2.0013972,14.32465,4.3925578,25.719579,-31.043849,-53.970985,0.7698706,0.96511115,1.8731007,0.70333824,1.0057335,0.61244347,1.0874509,1.5368113,0.68739955,0.87429883,1.0904963,0.97194127,1.9169901,0.35241339,0.26184957,-0.028624198
0.064488703,0.012159262,1.7279896,-0.13142285,1.2865399,-2.2776109,-1.0704618,0.64975827,1.8820517,2.0885623,-0.1190677,1.5944428,-49.525797,-30.066366,24.579083,0.6536492,35.88216,2.4469886,0.28720536,2.3104724,0.85905278,1.3500092,2.1047316,1.2244174,1.7828027,1.8153657,2.3513056,0.89354126,0.4979371,0.32882808,2.1135564,1.0426338,0.01353903
1.4074296,-1.5239766,-1.6400714,-1.9171259,2.180116,-2.3265434,1.1884757,-1.1050544,-1.1240744,-0.35018501,0.2143243,1.8833814,27.811096,21.082723,37.321143,-43.55042,48.098064,1.8875401,0.38608459,1.423707,0.99349524,1.9244535,2.0400339,0.59954148,2.4937033,2.4211794,0.76243835,2.051333,1.5041826,1.2964565,2.0446397,1.5095611,-0.024748086
0.66724612,-1.080282,0.53523962,-0.17826835,0.92315901,2.3489078,-2.3016702,-0.1706597,1.5673002,-0.6393212,-0.824501,1.7476294,2.7491082,4.2620783,-67.250219,-24.433592,44.615597,1.440066,1.4391947,0.29511668,0.27608179,2.1067149,0.80720776,0.74074929,2.0232873,0.38923487,0.37049204,0.35977894,0.30465292,0.80154457,2.3095867,1.7234276,0.030236109
-1.5240193,2.3549473,0.24342348,0.86478452,1.4258563,1.8692515,-0.98787267,-1.4295785,1.5460435,0.24076114,-1.4695727,-1.4773431,-4.0952413,21.279058,37.1313,65.758577,4.4002542,1.4510778,2.014512,1.4033939,1.5906391,0.87073323,1.9134782,2.0781728,0.35059678,1.230017,1.3951142,1.9337298,0.44655125,0.68678696,1.8284929,2.4800204,-0.013988258
1.2096095,0.66162702,-1.2727496,-1.5684557,0.068429817,0.2770245,0.11037662,-1.5814522,-1.5935059,-1.5472109,-1.0120264,-2.1164663,-74.389863,-20.419849,3.6000226,55.580329,-61.415955,0.35567674,1.1090512,2.3237517,1.2954524,0.91856141,0.26161012,1.8812842,0.99323549,2.0588539,1.906812,0.2893865,0.71889053,1.3931639,0.65506983,2.0086186,-0.043994108
-0.047139049,-0.58464157,-0.73978205,-2.2347745,-2.115254,-0.81080922,0.9583683,0.35050679,0.48146446,0.80133981,0.11043038,-0.67790714,30.91789,36.969014,38.223497,-27.68681,-32.223985,2.2973207,0.31907209,2.3946598,0.5465904,1.2948187,1.5178746,1.9187842,1.255258,0.37090456,0.54294229,0.73099533,2.3384295,0.48391651,0.93476018,0.26438504,-0.042865394
-0.22112456,1.6344741,2.0909594,-2.2418775,1.0278609,-0.3591129,0.95977572,0.44300985,0.091903212,-1.0463054,1.3814195,-0.42283498,-9.7063116,66.021007,65.061002,-19.737253,-74.007812,0.63557866,0.6705642,1.4224291,2.0154296,1.0759276,1.364425,1.3901763,2.1923447,2.2374759,0.2577463,2.1921046,0.45206884,1.1709217,0.4315917,1.2616594,0.0068343791
1.7476906,1.1153797,0.30272782,-1.4336983,-1.7226601,0.17025084,0.98571849,-1.7889738,-2.2406599,-2.0705711,0.90334736,-0.75816714,-6.8538206,7.8374338,23.750699,27.99471,-42.917267,1.9673245,0.32250489,1.589748,1.6452828,1.2687244,1.7016615,1.5751789,2.0323428,1.8362234,1.9071046,0.70626385,0.67660254,1.6588063,1.3072001,0.36168659,0.017671246
-1.0649843,-1.5377721,2.1170754,-1.5635527,-2.3489668,1.3101273,-1.6833554,1.0288151,1.5403452,-1.2827749,-0.41743709,0.88199751,-45.949029,-65.330418,-8.3425132,37.381406,69.28781,2.4283123,1.3947024,1.7627873,0.66646502,2.2776127,2.0863441,0.434729,2.2402648,2.1310555,0.40038448,1.0119999,2.4318437,2.2474978,2.1961553,1.0314676,0.018864904
-0.52324828,-0.91592351,1.4483781,-1.3105334,-0.42865976,0.75821599,1.0363248,0.52049418,1.7517806,-0.82959086,1.0253553,-0.060358512,-40.803427,16.802795,-45.425307,36.868518,-0.81538445,0.56250293,0.98668922,2.2857196,1.0891753,1.2697448,0.85038509,1.922171,1.9283532,2.3321746,1.1078667,0.41576929,0.8345259,0.87686197,1.4191357,0.66287542,-0.028539516
-1.9431429,-1.5470849,1.1065229,2.2432678,-1.2224388,0.48724101,-1.0724511,0.20298978,-0.12040385,-2.0126684,-1.389019,-0.06743915,71.172414,-55.230134,-52.869482,22.614033,-25.945688,1.0873168,1.5334685,0.75493518,1.9456497,0.53512587,2.1104391,0.39967986,0.41940792,1.2388792,1.8423359,1.1399582,2.0282851,1.1385076,2.3974622,0.3978172,-0.016014529
-1.594504,0.52799133,0.52189286,1.6974239,-0.19878977,0.024088245,-0.41432042,1.4276926,-0.25583245,-2.0773021,0.87369696,0.42068964,61.982956,-2.4610729,36.74841,-69.47159,-9.0160172,0.89197476,1.1698392,2.4868387,1.7973619,1.2619151,2.0075463,1.330047,1.850385,1.4199092,2.4139324,0.46223645,1.0579786,1.1960377,1.8053211,2.2809679,0.078086238
1.7849115,-0.060288974,-0.11315874,1.9461559,0.34975191,1.9312343,-0.68070243,1.1146955,-1.77063,-0.24138222,0.45602433,2.0564836,-65.374291,4.2902373,-43.981844,-2.8467868,4.0540528,1.9219791,0.95339796,0.75946337,1.5508884,1.0311211,2.0515679,0.95240586,2.0852056,1.5507647,1.2021635,1.2612145,1.4826446,1.5574121,0.42565471,0.47870319,-0.016570345
-0.65012873,1.3164933,1.6370792,-1.2498481,1.6322651,-2.0491727,-2.3062124,-1.1119819,0.2551317,-0.27542848,-1.5604233,-1.5892888,-43.154701,-51.063122,-67.888834,42.366993,12.043015,2.2294025,1.8170929,2.1308334,1.1667485,2.292095,2.4902453,0.55353763,1.0570263,0.94047665,1.841123,1.0041466,0.9421258,0.30836821,2.4944958,2.2416873,-0.0084688561
-0.18170914,-0.35745544,0.54243104,-1.8342349,0.46312787,-1.0764891,-1.6907571,-0.84933025,-0.86734238,-2.0042772,-1.7299852,-0.42100941,66.943569,-29.434833,-11.244142,19.697928,13.08032,0.48897117,0.38844105,0.52865927,1.4263888,1.0660567,1.9647884,0.4492957,1.8128971,1.3610632,1.1386308,2.218073,0.40311956,1.9803656,1.2545251,1.5530368,-0.031553518
-0.49438558,-1.1966749,-0.039068709,-1.6057221,0.47985253,1.9838893,-1.6365713,0.36093234,1.3452061,-1.1637808,1.463321,0.077591875,-39.633017,37.890433,74.499446,62.1915,52.545921,0.46429759,1.9496705,0.61251778,2.3363398,1.3635853,0.77888617,1.7397755,0.90602277,1.02462,0.78810021,1.3501753,0.39616275,2.0573144,0.78307003,2.3079188,-0.035460562
-1.430737,0.92473596,0.57847679,0.80088308,1.8590399,1.7442731,0.2261453,-2.0739114,1.3130213,-0.1690143,0.94729503,-1.9747754,-22.115053,12.296755,-28.436748,-36.423019,-11.677188,0.49756598,0.84137418,1.2258154,0.52965484,2.4088454,0.46405747,2.4138232,0.87669263,0.82302755,1.124106,1.0992681,2.1492841,0.76764559,1.8194783,1.7226132,-0.024606116
-1.9154357,2.3129606,1.4314793,2.1261131,-0.46293083,-0.32432734,1.2644516,-1.2359715,-0.76316523,0.60476586,-0.32320465,1.2840105,74.325279,-15.028695,12.717056,-14.441944,-25.760667,0.48216258,0.70640579,0.81210336,2.0212457,2.0762211,1.2978473,0.66877239,0.55763825,2.4759851,1.6307542,2.3358392,1.9493012,1.1549821,0.28467846,0.34085176,-0.016506535
0.67130646,1.188433,-1.8238999,-0.19586896,1.9902941,2.3362126,1.1000673,2.1295596,0.91390587,2.3402249,-2.1515934,1.0434124,58.320485,-57.60389,-48.587028,-2.1845945,33.520936,1.1704802,2.0110901,2.3916715,2.0736695,1.1628225,1.5582947,1.7585752,1.8730282,1.7347725,2.3221196,0.86377771,2.0119104,0.42794622,0.74208827,2.0275542,-0.01628689
2.0505802,-2.311055,2.3207827,0.95074693,-0.50743299,0.99777274,-1.825901,-0.84094603,-1.3254423,-1.245795,-0.93215697,1.9311781,-51.742994,55.492695,-34.273299,-31.342897,19.937416,1.1972609,2.1133343,1.8101953,0.95237481,1.5633707,1.5714336,2.0838981,2.0756933,1.4279393,2.3752249,2.4053017,1.6554089,0.45778263,0.45270306,0.58037797,0.041914491
1.6493556,-2.2651949,0.26025905,1.0768451,-1.7506486,1.005119,-0.87885074,-2.2173042,-0.66031963,-0.31603679,-0.76801999,-0.87851487,-40.895722,-34.401984,55.850916,-13.663045,15.209578,1.7856314,2.1074245,1.4833912,0.60594455,2.1099942,1.9228284,1.7273454,1.2447681,1.816654,1.5046017,1.5902593,1.2378087,1.8499845,1.4401688,0.91777943,0.0036360108
-1.5836013,-0.014916881,-0.95140014,-1.046273,1.9260397,1.5493823,-0.19281159,1.5392461,-0.90697051,1.1249548,1.0106294,2.199,-21.458639,-55.338908,68.972053,13.296786,-20.915097,0.32447761,0.99526529,2.4236746,2.1993943,1.4701151,2.4746269,1.304395,0.46620754,0.30010711,0.90015219,1.3579193,2.2991042,1.0442914,0.6549595,2.4042504,0.054035139
1.2802551,0.48007998,1.0943159,-0.28715795,-0.77729111,-1.1894736,-1.5291818,0.41029273,1.5648429,0.47254631,1.7103949,1.0339261,-66.682791,62.328014,-53.060406,-36.242756,17.996443,2.3681543,0.5695778,0.64410069,2.1502828,1.8025252,0.29046855,0.90499739,1.7910899,1.5976358,1.4648936,2.4673821,1.0407676,2.1818215,0.87453417,0.54574575,0.051898529
-1.6257958,-2.3189288,1.9334862,-0.53142147,-1.6234874,-1.221108,-0.70869005,1.9656438,-1.9836217,1.4222133,1.9018613,0.44880148,-48.64478,-72.82265,69.728738,-19.101263,-34.930336,1.7626508,0.62276163,1.2547749,1.2510484,1.6206282,0.89811931,0.94122141,0.85829319,2.0836846,0.73682367,1.2953861,2.0541725,1.9774942,2.4950622,0.50960104,0.030270058
-1.592398,-1.7755655,1.6305459,2.043544,1.9524646,-2.0036875,-1.243428,1.1512688,0.30617254,-0.086845778,1.2235905,0.019293211,-28.452151,4.7033826,-0.24937814,8.7016211,-1.8536999,2.0479863,1.5061234,2.4167205,2.3221626,1.5866407,1.1708678,1.7745175,2.064898,2.2415197,0.72192717,0.67991762,1.1255039,2.0932323,1.4553199,1.3120335,0.0026465827
-1.6276348,-0.24031477,-0.45300401,1.5821972,-0.022965564,0.43365799,-1.5758668,-1.9678239,-1.6711947,-1.9306712,0.7198575,1.9424189,-38.061424,51.641326,35.772974,36.372887,69.105926,1.5744953,1.7919727,0.68564537,0.64166537,1.719929,0.34655625,0.82084765,0.486414,2.4101045,1.376018,0.4839705,1.8422394,1.7682269,2.0899373,2.3261756,-0.0086898027
0.33235618,1.7292915,-1.8125221,-2.1765914,0.30465179,-2.0842471,1.9582984,1.7967644,1.2313137,-2.1233292,0.12813759,0.046668576,66.914858,-61.988022,67.314089,47.885486,61.368769,1.7485863,0.49063385,1.333146,2.1846298,0.82233054,0.65937538,2.3720329,0.50717221,0.29331635,1.5178454,1.4269203,0.99988655,1.3432206,0.50810129,2.4084257,-0.060293274
2.1686337,-2.1029376,-1.1542229,1.8811175,0.52357701,1.7285878,0.49767903,0.00099533764,-2.1209162,-1.7275438,-1.8007429,-2.1233386,-0.93521738,31.801533,38.365193,-46.195039,-0.016559602,1.7002415,2.4585309,0.77837342,2.1219979,1.1680892,2.3255406,2.1108491,0.54014058,0.89269377,2.0042248,1.7568834,0.44005172,1.6992754,1.9713367,0.25602857,-0.034696739
-2.2048572,1.1924503,-0.27823494,-1.6046919,-1.0542701,-0.53543835,1.5506496,2.2569033,1.7546941,1.0140229,-2.0279267,1.3457467,-47.829817,-25.728672,28.205423,48.544563,38.466676,1.516407,2.003236,0.88695047,2.2266,1.9657605,1.0362115,2.106854,0.89491686,1.1176854,1.1884083,1.8283649,0.32962173,1.952378,1.11686,0.81644663,-0.0039945992
-1.2703079,1.7698057,0.52490433,0.47497506,0.11881755,-1.0863285,-2.1277623,1.0185051,-2.0937111,-1.5944542,1.3636756,-1.7648338,-56.819975,-73.326787,-3.308369,46.242223,43.038686,2.1429929,0.78199598,2.2564001,1.0664057,1.0797874,0.98658342,0.50749415,1.2041002,2.3122915,2.1832358,2.1445422,2.0711072,0.84844678,0.84497942,1.0690474,-0.063423912
-1.8766081,-0.13281284,1.486908,0.66406547,2.0111863,0.041790983,0.23509203,2.2097962,1.7075363,0.11380995,-0.42604841,2.2355718,43.861488,-69.967569,55.069561,54.112745,22.899683,0.9997014,0.48149333,0.70834006,1.8214462,1.0465817,0.89797058,0.69147125,1.8072225,0.48817017,0.42603719,2.4069894,0.77110014,1.3800307,0.42562969,2.3082804,-0.01413501
1.8724512,0.95332173,0.35578214,-0.3912189,-1.4334907,1.7668628,-1.8119545,-2.0624206,1.2311118,-0.80368761,-1.8708902,1.7205121,45.474472,39.456375,-6.7062155,-61.364734,42.913647,2.1199135,2.1356462,1.056143,1.8451064,0.45306151,2.1047942,2.2758881,2.3517553,1.7015013,1.131867,1.0386958,1.1098805,0.51125534,1.4185515,2.0949339,0.0091180099
-1.1961205,-0.1453719,-2.2480047,1.7198097,-0.95224801,-1.1593311,0.85033467,-1.1009422,2.0162468,0.27148383,1.2361798,-0.44915293,10.625259,-71.269034,-68.648353,27.129454,-35.266168,0.34762213,0.7351897,0.83330009,0.52456122,2.3004496,1.1561161,1.343627,0.58925378,0.58835299,1.1986604,0.88476908,1.5638675,0.92144367,1.453717,1.3720818,-0.011286436
0.95064981,-2.1396708,-1.2071062,-1.0000284,1.6147339,0.18428391,1.2201542,-1.1846458,-0.49935173,0.16028528,-1.5717907,0.5658065,-2.8996883,14.938982,-20.533618,41.484964,37.794555,0.82121982,2.2414596,1.9619088,1.5508599,0.55295729,0.30309465,1.6118384,1.6674206,2.0872441,2.062236,2.49982,1.7244704,2.4245529,1.2111379,1.3440258,-0.05184006
-1.7441906,1.1609452,-1.9965934,0.17688417,-0.62520401,0.82361637,2.2339464,2.3347508,0.0943564,-2.2270664,0.20091958,-1.9274504,-54.041377,-23.424852,48.50718,10.170448,-65.282324,2.1246966,1.5259394,2.4642134,1.7842169,0.83276757,0.57458361,1.5266761,1.3446295,1.6882137,0.55786806,1.8385213,2.2780298,2.3470941,2.1109342,1.9705113,-0.022563924
1.588532,-1.9378911,1.897405,0.95014932,-1.1266877,-1.8608074,1.535773,1.9818804,2.2977481,0.22481422,-0.88336491,2.0235514,16.465557,-13.38758,-5.0649028,74.179123,-71.482214,0.60131525,0.80540231,1.8967026,1.3802991,0.43625979,0.96825438,0.70141016,2.350585,2.2825655,2.0782571,1.7670561,0.41237295,2.2521543,1.707181,2.0913979,-0.032703123
1.5699673,1.773703,0.052852379,-2.3515773,-0.15284492,-0.61250085,2.2680717,0.96618981,-0.14036778,1.7455742,-1.467641,-1.9980343,-15.243886,-3.9964886,31.016013,36.132153,73.095679,1.6611961,0.97292149,0.39152282,0.57395257,2.1707874,2.1741029,1.6470518,1.7488923,1.1322767,1.1745957,1.4295203,1.9475995,1.8047346,1.4249198,1.1264189,-0.043092917
0.7292035,-1.2004876,1.8548156,1.4319853,1.205701,0.9440374,-0.17708897,1.8955358,-2.1912912,-1.7114138,0.68983814,1.6327321,34.604603,49.556529,-53.421437,45.902328,30.432063,0.95026469,2.0986186,1.9834634,1.5691707,2.3019521,1.6597631,1.6388334,0.8731854,0.37706046,0.50515685,2.4212226,1.4882245,0.83965427,1.5693416,0.67509057,-0.030966428
-0.79132873,-1.5002897,0.62437231,-0.66478856,-0.027122924,1.2467538,-1.8023651,-1.1137973,-1.9826162,-0.52829468,-0.9078821,-0.058903306,-12.292563,-51.104798,-18.331665,-0.28868696,-51.961731,1.0627496,0.38218592,1.1488411,0.57195289,2.3122349,1.2321911,1.9356026,0.42356469,1.3517157,1.5358236,2.0866431,0.96131248,1.0289221,1.0943018,1.930739,0.040888437
1.1620087,1.7409717,1.2887217,1.4061201,0.029994231,-0.11258097,2.2320441,-1.3630011,-1.0369897,-2.2714392,-1.0149454,0.66021731,-44.679428,-27.150995,-26.7805,50.143023,53.790076,1.372121,2.4881248,0.91281553,0.44054303,0.95678367,1.4131531,1.3642127,2.3226491,0.76333981,1.4521371,1.8188486,2.3880143,1.3555884,1.3735731,2.1425266,-0.074576394
1.191663,0.62676717,1.8863976,-0.26778398,-0.31386948,-2.0411614,0.39159846,-1.6120724,2.1356529,-0.3492911,1.1011805,1.9899036,15.463291,-58.471108,-73.91351,35.63424,-45.332611,0.54710658,0.97031967,1.6627646,0.33491739,0.95655713,2.1056988,1.72989,1.2616518,2.0813353,1.7524249,2.0048122,0.37914976,1.8700467,1.1254494,1.1782339,-0.027343661
0.9457201,-0.17026646,-1.2483105,-0.79837083,-2.0471147,-0.7047399,-2.3299306,0.8080871,0.41480658,2.030881,1.1839993,-0.94271575,-37.301492,73.826333,-0.82330758,-37.330579,34.954916,0.43417833,1.9852056,1.599878,0.89893206,1.1011315,1.9675846,2.4448841,0.9175789,1.7485482,2.099214,0.73929648,2.3559426,2.3274561,0.55447422,1.0482184,-0.02169501
0.066695133,-0.60346956,-1.4518671,-0.78064939,-1.0833295,1.1522886,-1.4043883,0.80192769,0.56615517,1.0565202,0.65385,-0.034151704,29.404162,-54.252582,26.848672,45.624523,11.356733,2.4641875,1.3499884,1.7545525,1.7633936,1.8560691,2.453188,0.98041847,0.39318779,1.5571515,0.54536888,1.0148219,0.36104431,1.3217939,0.39091117,1.5439598,-0.0096120347
0.43440352,1.5294553,-0.5266213,-1.0576928,-1.5109371,0.74377097,-1.4092251,-0.37985172,1.1192298,-0.96185772,2.2639133,1.7625417,30.598919,-73.974576,59.296697,-0.40924478,21.822964,1.8034162,1.7664648,1.7245119,0.8710724,0.86390034,1.8230826,1.5486761,2.0987549,2.0229229,1.0156429,0.66026185,1.5208299,2.0879445,0.33240074,1.4092086,-0.032721628
-2.2115149,-2.3189842,1.0013585,1.8904754,2.292917,-0.86030036,-1.4587061,2.0859263,-2.0101534,-1.5317672,-0.63039327,-1.5692886,6.6292479,-32.230796,-52.994909,14.570516,-63.334953,0.31660655,1.456312,2.2358687,2.4949448,0.78652835,1.9319528,2.080774,1.3180322,2.4167571,0.68734456,2.2000555,1.3327123,1.6448246,0.31763579,0.75466206,0.016495695
1.0056844,-0.80130266,0.51388943,-0.86927531,-1.5043131,-1.0227151,2.021481,-1.2926795,-1.9505057,1.9415365,-1.890331,0.13270262,43.702469,-42.602625,-72.318126,-0.74922553,7.7665063,1.8500592,0.44479845,0.47752109,1.4468765,1.1532261,2.271035,1.7846833,1.9229523,1.5598073,2.4311661,2.1086983,0.39299172,0.51189982,1.0002446,0.61083959,0.01067299
-0.51121852,-1.3644784,-2.3037436,-2.0309623,2.1622844,-0.42958192,-0.60348179,-1.6574044,-1.0638325,-1.0289513,0.88280964,-1.9312998,-13.40566,-8.9256459,-13.329983,62.982233,-7.6134443,1.2376373,1.2194678,1.8455138,0.55103091,1.6765438,2.4210383,0.64007408,1.975071,2.2686949,0.70454228,0.99218276,2.365685,1.8178188,0.83133499,1.2471871,0.076046348
1.2527572,0.13673862,-1.4798034,0.93404947,1.6017901,-0.59284223,-1.9090579,1.1201999,1.2055032,2.3327569,-0.43122657,0.029284203,66.563213,27.923753,-35.478675,-40.093819,-56.808316,0.96455335,1.4982275,2.460162,1.1924036,1.4767055,0.73955423,2.1880141,1.4527936,1.6014289,2.215866,1.5600151,1.4230788,1.6853631,2.1475101,2.452548,0.0086700625
0.20665539,0.22649072,-0.9808047,-0.44796459,1.4566532,1.110185,-2.1803509,-1.6210402,2.2106096,1.240458,0.7681921,-0.94112101,65.857674,19.918939,-22.386303,-46.596992,-5.6426313,0.83943233,2.3392275,0.39719034,1.327965,0.6072636,1.7792437,0.49822979,0.7480827,1.5258716,1.3233929,0.26410594,1.0784712,1.3647911,0.79435563,0.73513542,0.025148953
1.6669823,1.8196793,-0.054864667,1.5177807,1.1778694,-0.29491342,0.82336651,-1.9654599,0.36163054,-1.0573817,-0.99534843,0.15982426,3.3285376,-7.268474,-61.243076,-12.385947,29.384937,2.4645247,0.26667103,1.4400575,1.2969289,0.98408826,1.3214363,1.1292793,0.29755789,0.80540001,1.8580149,1.4061278,0.29025085,1.7459898,1.8497638,2.2305872,-0.027207272
0.21837502,-0.72205226,-1.1307682,0.24444751,-0.77385859,-0.047752638,-1.4724629,1.7823696,-0.37143397,1.2247069,-0.066996099,0.25753298,-74.124214,-55.664411,-1.7481059,19.584596,58.3107,0.29405049,0.35652738,1.9056619,1.2096064,0.35532981,2.0281615,1.3110292,1.7177508,1.9874618,1.2707619,2.1949952,1.7840114,1.8802646,1.856451,2.1227576,-0.051818904
-1.9651276,1.2340419,1.3185244,-1.9249645,-2.3274835,-0.47398575,-2.341064,2.1858744,0.20627519,-1.451215,0.75435795,2.1676965,31.695595,57.859926,1.7721604,-65.300187,49.750075,2.117655,2.4275186,1.5546305,0.92539948,0.43906629,0.88713623,0.8486815,0.29001541,2.2890322,0.51484316,0.96892266,0.68311682,0.89438051,1.1032048,0.81306936,-0.040192149
-2.3421324,-1.6347096,-1.3370339,1.8538631,-0.43804192,-1.4189161,1.6774718,-0.95396372,-1.7209898,-0.032483908,0.68008645,-2.042754,60.484452,12.184429,33.70446,70.857999,60.395167,1.5486569,1.7767154,0.75601641,2.1178452,1.1246335,0.96454485,1.3553454,1.7905327,1.2338389,0.38057205,1.0244844,0.75962889,2.0827576,0.90772541,0.39103285,-0.093007119
-0.075062462,1.3454417,-1.9156041,-0.51591482,-0.18470026,1.2070638,0.28601422,0.4041551,2.0821975,1.2936506,-0.57645072,0.2644518,27.332474,-73.106133,-44.77273,54.729876,45.027988,1.905837,1.9022489,2.3469471,1.8899576,0.5181187,2.0209208,1.1161487,2.3612958,2.299039,2.1991143,1.263229,1.590193,2.3740537,0.72042946,0.25797791,-0.028678074
0.43941596,0.95057138,1.2545212,1.5090026,-0.27161506,1.2706578,-0.60079814,1.0352507,1.3191749,-0.41787597,-1.7818665,-0.59861981,-1.6778661,0.10474379,-39.57113,28.010211,67.621,0.7172204,0.32332702,1.9071736,1.8669829,1.3815398,1.0396344,1.134953,1.1547081,2.4297328,0.51899288,0.96340687,2.4792877,0.88848184,0.96427466,1.3141279,-0.022243843
1.4095243,0.69525092,-1.6424528,0.46964039,-0.0055741118,0.563683,1.9183353,-0.70464691,-0.76710267,0.40174989,-0.64299273,-1.2709002,39.440669,29.320524,40.040321,57.682927,26.956291,2.1908387,1.6755244,1.0389027,2.337424,1.5845411,1.8816983,1.2039398,1.8666727,0.6688257,1.4535306,0.48813159,2.0275912,0.7250906,2.097735,0.63200029,-0.026849863
-0.20118519,2.1757757,0.12440235,-1.47042,-1.5802959,-1.0094849,-1.812845,1.8211258,0.69548293,2.2569643,-1.932074,0.7046568,29.709827,-16.935754,60.785963,-20.326783,67.765269,1.0882191,0.94793744,1.2345793,1.5741,1.8992049,0.68604756,0.6513592,0.39408166,0.83037601,0.87966592,1.2951212,2.10153,1.413877,2.281415,0.74268356,0.028517554
-1.2406197,1.226333,-1.0108525,-1.2349271,-2.0591479,-0.31471498,-2.1143145,0.84217388,-1.6000922,0.85491742,0.52308227,-1.8740794,-1.4235936,73.662764,-49.929818,-70.446213,-39.510222,1.4005953,1.805412,1.5600389,1.8239376,2.419334,1.2465076,1.803655,1.2788037,2.3537059,0.73489814,0.43304594,0.95311123,0.44051151,0.42686608,0.58817127,-0.039355139
-2.0534479,1.2382151,0.771303,-0.49249648,2.2790541,1.7638653,-0.35516445,1.3479707,-1.8231997,2.1488216,-0.50496281,0.10265426,18.328662,-50.178481,-49.734442,63.237318,-70.390584,1.3069284,0.29600973,1.7855006,2.1583536,2.4497187,1.1724022,0.56396357,0.78573407,2.0825128,1.2926537,1.1310628,1.0220728,0.72729882,0.96119588,1.319074,0.047984613
1.15725,1.8710827,1.5150489,-2.3232518,-0.038294425,1.9828873,0.37150777,0.01567145,-0.50371741,2.1844084,-0.86991513,1.8794172,7.0512938,11.095282,28.412957,-63.428535,6.619617,0.71354591,1.5661007,2.4543412,2.3625863,1.4878179,0.75527927,0.97873008,1.2663851,0.63412874,1.0517861,0.61839461,2.1082387,1.6677607,1.0537084,1.426727,0.095421615
1.832404,1.7515766,0.45449752,-0.042635285,-0.28810809,2.1032055,0.94576585,0.59866334,0.78435494,2.1014564,-0.178179,-2.2874768,-62.152633,0.70272958,-39.223998,12.259744,-50.484012,2.353217,1.5173454,2.0245225,0.89899826,2.2137067,1.2678181,2.2195727,0.85904527,1.2239088,2.2350046,1.4725648,0.89721464,1.4864447,2.4261557,1.1489237,-0.047026564
1.2250174,0.44047881,-0.035722442,-1.9136785,-1.1402782,0.63032263,0.38209251,-1.1573407,1.3173508,1.9111224,0.59136207,0.59387939,15.630172,46.293801,9.9131724,-39.311034,49.450284,0.78875924,1.1766205,1.7104326,0.49067067,1.9519027,2.1279293,1.8569059,0.76813032,0.96620634,2.2799229,0.41419657,1.4017933,1.690414,1.5375861,2.459218,0.046908421
-0.62583631,-0.37872528,1.2017443,0.41787102,1.6986263,1.1603939,-1.8379562,-0.82017266,-0.90405912,-1.7794842,1.741202,0.44617142,44.313336,24.241838,32.572806,-48.848751,-50.960218,1.5492267,2.3537437,1.3702604,0.46664743,0.943279,1.6901838,2.1699255,1.1875756,1.3323455,2.2313651,1.0539128,0.36220174,0.52469846,2.356955,1.3418909,-0.0075816706
-1.4968046,-2.0623344,-2.0325956,-1.7258161,-1.0365343,0.67050682,1.8861276,-0.094806353,-0.62289865,1.8707259,0.2304935,0.32056124,44.950319,-69.99291,-70.84028,-62.587338,44.606628,1.4289751,1.7843201,0.31719861,2.4070807,2.3056477,0.77030306,1.4835738,1.4242472,1.0723379,1.7836777,0.7709531,1.158702,2.0540366,1.9434936,0.29619718,0.059646295
-1.9666295,-0.44592556,-1.972361,2.1851776,-2.0793321,-0.25876116,0.53618355,1.549251,2.3130671,-1.4898259,2.1315012,0.5590312,-27.57265,-63.533602,40.746529,-73.081028,-72.833206,2.0096505,0.6961164,1.1283844,1.0071291,1.5681602,1.0683161,1.6879897,1.2925881,2.2784545,0.48521247,2.465988,2.3606725,0.82279028,1.6362793,0.69642657,-0.024650615
0.97667396,1.7084257,0.92454403,2.0649675,-0.83550957,0.50978039,0.75590097,-0.17309757,-1.7068622,1.7913709,0.11818207,-2.3420737,-20.592377,-46.072136,-34.388051,-9.9708114,-29.427561,0.78968052,0.91041704,0.62913962,0.4496745,1.4293393,1.155975,1.2218262,0.98371253,1.7564485,2.1295556,2.1915532,2.4350528,2.1828883,0.80410829,0.39805201,0.002208679
1.9583741,-1.6440081,-2.1078975,0.30781096,-0.82424288,1.3735771,-0.28328782,-1.7055598,0.11938127,-1.0366624,-1.4821204,-0.3102253,-65.393864,-24.664976,55.745149,8.7125743,32.236593,1.3811635,1.4651376,2.0668167,0.73823701,0.29947532,1.5316729,2.075976,1.6778802,2.3819158,2.3594217,2.3002252,1.8856766,0.56727338,2.4136278,2.0921474,0.024758544
-0.32128557,0.55125415,0.37178742,0.0033101268,-0.91536632,1.3882498,1.2766349,0.89547666,-1.094236,1.6294013,1.6550286,-1.1662686,65.610553,66.565734,70.283586,6.2227603,35.932296,1.5864732,0.60506533,0.83294816,1.3596574,2.2624558,1.5941821,1.9180238,1.9753037,1.6799386,0.97724241,1.0131604,1.686414,1.8102501,1.8726208,1.6382295,-0.032371039
1.2527245,-0.4132293,0.91646156,-1.830071,-0.2396572,1.1740949,2.2407353,-1.3741477,0.11855331,-0.81513702,-1.0931488,1.0519691,-13.977828,-25.362431,33.624497,-73.079086,-40.200768,0.56041879,1.9586838,1.3482479,1.7516503,2.4872905,0.39150911,0.34369296,2.1975225,1.5099186,0.95152044,0.70400036,0.88405575,0.82494203,1.8006853,0.86804338,0.073454788
0.69124077,1.6447241,0.0048932009,2.1294156,-1.5064029,1.5516212,-0.26319324,1.4444014,-2.1731273,1.9762406,1.7584157,2.301491,59.525981,-46.829069,-6.1692827,-37.134441,31.452171,1.6246275,0.61374513,0.46440303,1.4717855,1.2994648,0.8549378,1.9396441,0.84849436,1.6446367,1.6596664,2.2638796,0.77415328,0.94423706,2.0421912,0.85717128,-0.018916785
-0.30853882,-1.9840405,-0.90463311,-2.0018636,1.1357951,-0.57999128,2.0193258,0.18245865,-1.1826726,-0.32133432,-0.26820248,2.0771315,30.907287,8.770804,-39.097845,32.512397,-14.145243,1.5384666,1.5075889,2.2969444,0.74466331,0.3063236,1.8806791,2.0743752,1.774186,0.99464408,0.98310237,0.50156662,0.58017388,0.98238773,1.9905062,0.68766621,0.0040696642
-1.0870715,-0.47913072,0.72282409,-0.034354913,2.2208295,-1.3525362,0.48883776,2.2023201,-1.4209821,-0.058468379,2.2112593,-1.977087,-58.762008,-13.069083,-52.078382,-31.363283,-22.690856,0.39677412,1.0825526,2.4622387,2.3465274,1.5854132,0.78933553,1.8621927,1.8722603,2.3296864,2.0392278,0.55238391,1.9164412,2.3769554,2.2394712,2.2925685,0.024099838
0.15582036,-1.2154217,0.61369754,-1.004889,0.032833636,0.48541741,1.2651406,0.91889301,1.336178,-2.1028274,0.69712433,1.5695777,-1.9394942,-47.078996,-6.6908421,47.016977,14.335852,2.0150376,1.237414,1.967659,1.4448649,1.0938744,1.4969772,1.696384,0.62585253,1.4534278,1.0112902,1.7538641,1.4443802,1.9480269,2.2376687,1.248233,-0.051892416
0.36977878,-0.76904292,0.77860557,-0.28037185,0.17932374,-2.0348479,-1.8814037,-0.62137892,-0.86159578,0.33100736,-2.0907331,1.3342324,-57.792098,-61.79104,-72.016667,-34.124469,70.055505,2.4679947,2.3371899,2.1508983,0.89784855,0.89053009,1.6392662,1.396561,1.5010535,0.45539756,0.86678713,0.84136744,1.1125346,2.3688248,0.58851058,1.5973855,0.038661936
0.80139326,1.008849,0.54976052,-1.1697661,-0.17118342,2.1899729,-1.5965564,-0.98006183,-2.0997311,0.90074906,-2.0163029,-1.2137907,-7.9218838,56.899669,62.744144,40.831651,7.5667507,0.99068356,1.9185816,2.3502473,1.1069549,0.84102021,2.0267495,2.3292158,0.87967993,1.5306284,0.27088186,2.4614299,2.2518598,1.2580082,1.5930031,2.3535997,-0.030810075
-0.36655863,-1.6584217,0.68718671,-0.51836394,1.0644748,-2.3125872,0.13126874,0.83563002,1.5145014,-2.1009213,-0.25422507,1.3760095,-57.717132,-1.8328537,-54.771955,-2.2504108,-22.653791,0.74102465,2.1512483,2.2808442,2.3989616,0.84830163,0.65557643,1.5229766,2.1672093,0.53730479,0.48152547,1.2485415,2.2370817,0.38163686,0.92068886,2.267691,0.0033850344
0.95688765,-0.97289617,0.52382029,1.1050732,1.4399592,-1.4350779,-1.3472552,-0.28880353,-0.16031014,1.1539671,-1.4687091,-1.0997014,-22.040666,62.528721,20.221749,-33.063119,58.162069,1.0733315,0.48250046,1.8853093,1.1438646,2.4324916,1.8864213,1.8321368,0.7224027,1.9221766,2.0214889,1.6647379,2.0001022,2.2170017,0.39784292,1.0459191,0.038172491
-0.76062198,0.93770746,1.8205973,1.2366488,-1.9919302,-1.558726,-1.3368764,-0.21069877,-2.2100795,-1.7558441,-1.4912737,1.3600208,-61.407322,-72.857519,-66.329749,-4.0987832,-38.249872,1.8911069,1.8333535,0.92150227,2.4386597,2.0540663,2.4419961,1.8784974,1.4059021,0.99690163,0.67564577,1.3284584,2.150783,1.2093078,2.0854027,0.36239306,0.0020894996
0.24108464,-0.74490617,1.1795189,-0.84584071,1.2328025,-0.66343002,-0.75606807,2.0769694,-1.7525256,-2.2668061,1.4548317,-1.2294279,26.442666,-28.113267,0.32991496,-5.1193182,59.619743,1.8102379,1.6682469,2.4761988,0.72355075,0.96747756,1.145324,2.2104933,1.2609866,2.1518051,0.38817849,0.61595467,1.6001045,2.4563687,0.43949417,1.32847,-0.0050045149
2.0314079,0.61484085,-0.63894475,0.79006465,-0.89557907,-0.62695853,-0.39020723,1.4326157,-2.3350681,-0.71442869,-0.23579995,0.029446065,3.1565106,-48.526894,-41.512313,-47.439178,-60.263416,0.6664327,1.7344353,1.1534647,1.78075,1.0658339,0.4700938,0.36649616,0.70097843,1.8444666,0.94939536,0.98775183,2.1450325,1.3109885,1.0342798,1.1410766,0.065529703
-1.6761893,-1.0514661,-0.53251323,-1.1231363,1.2784198,-2.0919195,0.24309907,0.12488621,1.9493549,2.2801402,1.1692097,0.24547399,74.515472,31.537955,-41.590685,-14.648821,-52.735953,1.627528,2.113399,0.64700798,1.5130942,0.32423998,1.5013282,0.57270498,1.4525824,0.3020922,0.5135652,1.9903464,0.25175019,0.4155243,1.2169185,1.7486485,-0.0027034588
0.33703787,0.30396038,0.43241327,1.0659429,-1.2009175,-0.65772616,0.86103476,-0.33530998,0.46246107,1.8537537,-2.2779561,-2.1595853,-42.351463,-51.032818,-8.5718104,-66.417125,27.375768,2.1929178,0.61930443,1.6495829,1.5393728,0.98893811,1.8327571,2.1483944,1.5651049,1.4687149,1.4417813,1.0186276,1.3245789,2.1978684,0.5748718,1.8704219,0.056207988
-1.4548409,1.0761509,0.71943118,-0.51033884,-0.71697918,-0.69041163,-1.8465182,1.3625211,-2.3189444,1.6715581,-1.386114,1.6327817,61.145386,20.50368,55.34719,70.229707,0.68757524,1.4661548,1.1641562,1.473881,0.5187428,1.2601829,2.1434409,1.5608478,1.9184114,1.7411788,1.9916083,1.2106572,2.2650938,0.93099046,2.1566642,1.0560287,-0.049019883
1.6728291,1.1267778,-1.3362562,0.78791281,0.63760958,0.33162516,-1.1320266,-2.056748,2.3219611,1.9078182,1.6054032,-1.1272904,68.299551,-39.445912,32.555341,-42.381035,51.949689,0.90134896,1.2219133,2.4463435,0.69598561,1.1801941,1.0214577,1.6402166,1.6204253,1.9872095,1.5306639,0.86885952,1.9219018,1.9043048,0.90066283,0.94016123,0.046841293
-0.70222831,2.1832086,-2.1859481,-1.445879,0.90176329,0.892696,-0.70489593,-0.23995779,0.83435433,-1.0763567,0.53408295,-0.76889101,-43.949153,-53.416882,-27.527605,-56.463859,61.91454,2.0900789,2.4566226,2.4556011,1.0375601,2.2724224,0.35357556,1.7944363,1.5909404,1.4354233,2.159626,1.3337329,0.7984436,1.9415144,0.78180144,1.2367876,0.034573155
-1.9601961,-0.70405056,-0.1690545,0.27160013,-1.5215217,1.9201024,0.72057799,-0.08545893,0.97040887,0.083590314,0.61049743,1.7595195,63.772381,72.409402,34.820126,71.854579,9.9093346,2.0678074,1.6392328,0.83640821,1.0127116,0.89347476,1.63022,2.3582678,0.90617112,1.2680308,1.2935625,0.65537873,0.45034237,1.4042488,2.4592015,0.79924323,-0.016929242
1.0595235,-0.70631215,-0.480427,-2.2142718,-1.5309616,-1.2285463,1.5105646,-2.2922092,-1.3797533,0.15231315,1.0998575,-1.3975818,66.904498,63.902654,11.910162,74.085275,1.2089343,2.40338,0.85755413,0.91232676,1.2257726,2.0599439,2.2267322,1.9375297,1.3123541,1.484732,0.64099262,1.6629601,1.3696211,0.97162745,1.1426081,1.5643079,-0.0096505605
0.41446393,0.98428117,2.3283731,1.2878178,0.35141891,1.6742477,1.4071522,-1.4737386,-0.80756648,-1.089555,0.19230513,-0.62654207,60.37492,-28.722017,-30.939004,58.159533,-62.728162,0.29173382,1.9203951,1.3304142,1.2709234,0.40956158,2.2514067,0.39176125,2.331396,1.5230949,1.9067996,2.3305398,0.63301393,0.31514109,1.5762995,0.61488824,-0.071494266
0.63168129,-0.34500859,-2.3209867,0.3317187,0.44005848,2.3246305,-0.35248979,-0.82290112,0.36256686,0.54219786,-1.0407731,0.11521076,-14.15538,-9.4736786,-74.117049,64.764629,-50.879274,1.7056061,0.37121028,1.1811865,1.9521605,1.9617088,0.44036568,2.4759466,0.98424523,1.7095429,1.2882533,1.4228594,2.4978812,0.63882635,1.2544359,2.304201,-0.087806405
-0.35478385,-1.6801846,-2.2285803,-1.6819666,0.80923202,0.80789516,1.9012973,0.39448837,-0.1652602,-1.9310879,-1.5711038,-2.0260172,14.403035,-28.188835,-69.748941,-20.454767,16.723288,0.89960587,1.1759211,1.2060634,1.557423,0.60773519,0.70534435,0.97240726,0.74889846,1.7364261,0.86371139,0.89734541,1.4342301,2.3547465,2.4742918,2.4226492,-0.0099046964
-1.3814866,-0.70428209,0.65203112,-2.3297658,-1.1329607,1.0934586,-0.55751313,-1.8938357,-2.222031,0.0068878129,-2.0462524,-0.34904232,18.142988,-20.803131,11.769878,-33.652684,49.342302,0.56616013,1.7033264,0.30624714,0.59576149,1.9633934,1.7535987,1.4832852,1.0735985,0.47027365,1.139173,2.3309017,2.2151888,1.4273964,2.2518834,1.6550986,0.01007122
1.2912554,1.5784085,2.274617,-2.1239886,-1.5292774,-1.1964973,-1.7659491,-1.6813551,1.661869,0.702964,0.75670271,-0.83538649,-67.928376,-22.219719,53.186824,60.958788,34.342904,1.392824,1.6932192,1.4356537,1.5317417,0.98326118,0.92061289,0.99090881,1.2044292,1.0916214,1.880559,2.304673,2.3893111,0.65167847,1.2601202,1.0904029,0.0063840502
0.57900203,0.20380581,-0.54259814,-0.97428225,0.78987332,0.60105393,-1.4486181,1.9902177,1.0511346,-0.32632598,0.66001729,-0.053060992,-36.751388,19.429394,-0.17825958,3.9913013,31.801364,1.9078457,1.912858,0.65366028,0.81831036,0.59219688,0.55294569,2.3582122,2.2222603,1.0281939,2.3549716,1.758449,2.001861,0.27824323,2.4339544,1.7211602,-0.010842758
-1.2254364,1.9432935,-0.63442634,1.3327781,2.0168496,0.97740862,-0.081349111,-0.64171157,1.4119388,-1.1356097,-1.0161833,-1.294224,11.606193,65.282648,-44.527925,-30.839409,-67.946784,0.90101161,2.3020961,1.8299543,2.2925188,0.61279704,0.27993087,1.5482016,0.87468636,0.85364192,0.4098074,1.8830487,1.4001133,0.45385198,1.8901891,2.1574036,-0.022872807
1.7937905,-1.6284057,0.94125717,0.21947978,-1.003921,2.1652684,-2.114296,1.1531167,-1.6232213,-1.4613564,-0.045880986,1.7100629,5.3113962,18.636659,26.33437,-48.246572,19.86063,2.0891298,2.2541361,1.2649133,0.64823128,1.8231854,1.0267501,0.58968355,1.0614716,1.4027468,1.9654333,2.2876099,1.3597715,1.9301823,1.5745619,0.6625425,0.0078019722
0.47486109,-1.7965918,1.6702908,0.87681825,1.0439452,1.362944,0.076832447,0.12835531,-1.0064716,1.7075956,1.110258,-0.95402423,62.84972,15.251134,-24.184509,30.963993,61.828877,0.74406604,1.5178604,1.679984,1.7413817,0.90241241,1.0954545,1.0538556,1.6509964,0.54682542,0.74480292,0.40262606,0.43610663,0.64414001,0.56116096,0.93220045,-0.067357344
1.8177004,-0.3272234,-0.28581151,-1.7095975,-1.7699768,1.3115861,-0.72776564,1.8047131,-1.835292,1.5451276,-1.0158261,-0.0036939102,-26.180739,-69.67729,-16.219547,-51.9298,65.84762,1.3891674,0.98728856,1.1088203,0.69323633,2.222993,2.0929801,1.7159616,1.1662189,2.390455,1.8767358,1.0494222,1.3894903,1.912741,0.9379659,2.392827,-0.033300379
-0.27717558,2.0626889,-1.4334835,1.8873527,1.6467216,0.58871111,-1.5492872,1.7907871,-0.27027196,0.28210805,0.72661814,-2.2412105,-60.45256,73.82834,32.906779,14.22876,42.772512,0.28925679,0.78880255,1.9043965,2.4422365,1.4184829,0.94233275,1.536528,0.42638239,1.4587533,0.5159441,1.4725257,2.4902633,0.85585463,1.5987067,1.4628624,0.011274967
1.4732372,1.8053547,-0.47631721,0.88551725,1.1640209,-2.1399441,-1.088196,-0.52867375,2.1459423,-1.7726814,-1.7328759,-1.8806562,-69.880594,16.858854,-3.2392345,8.1857002,27.062919,2.0722042,1.2854866,2.1732378,0.60725621,1.6551155,2.2760254,2.4087714,1.4701167,0.25181571,1.516671,1.9390968,0.65066541,2.233535,1.5221326,1.4821009,-0.017482969
0.094913305,-2.2919523,-1.7752703,1.879707,0.38054713,1.1437696,1.5004333,1.7898512,-1.862881,-0.32917663,-0.12692192,1.5354601,45.703826,-5.8047557,-60.528928,-9.6923056,1.4201935,1.6628715,2.131932,1.6309771,1.5826293,1.2513435,2.0802258,1.1048479,1.428515,0.80216854,1.546718,0.68955693,1.1333374,1.0012785,2.2374103,1.404645,-0.003045949
2.0804959,0.96891481,-1.4651549,2.0859588,-1.464058,1.6727941,0.53830625,-0.47364215,-1.2785685,-0.40620801,1.1136925,0.22147966,-12.05277,-70.903034,-67.289991,57.124427,-59.755033,0.58231965,1.0464205,0.43999007,0.66312475,2.3876044,1.2173112,1.5993301,0.69106579,1.7428165,0.26622504,0.69431128,2.2897614,1.519828,0.99967339,2.2606198,-0.02593739
1.8060313,1.4707604,-2.1228904,-1.9223789,-1.2838101,1.0323021,-1.1153077,0.90641237,-1.0809066,-0.53698623,-0.90267338,-2.0512907,-6.5166309,-25.016191,2.8697058,-68.854637,10.122223,1.7379309,1.4053946,1.4662022,1.9600276,1.4330951,1.2795621,1.6007483,2.0265806,1.7394647,2.4324789,1.6731018,0.82241423,2.0659383,1.7248558,2.1512824,0.0057512913
-1.6154577,1.7876088,-1.851767,-2.0308151,-0.075396422,0.44496399,-0.051570157,0.33995143,2.1482749,-0.26835941,-0.56036895,1.9446489,-45.080914,-24.928001,-14.920047,38.767097,-41.404823,0.76202415,1.8398187,1.5822026,0.82929197,0.66020699,0.59891098,0.89688345,0.42006479,1.0289435,1.4531976,1.6419743,1.9119795,1.6400149,0.48071711,1.1625201,-0.051214786
-0.83556292,-0.38686796,1.0070462,-1.4765123,-0.30260478,-1.2107788,-1.463946,-1.1578946,1.4312514,-1.7028984,-2.2758001,1.0886561,-37.053219,46.554498,41.455131,-13.614705,-72.353421,1.4657315,0.79979288,2.1188987,0.82963579,1.9386737,0.28864409,1.7412357,0.69791823,2.1616437,1.4961168,0.73459779,2.1349791,1.0932255,1.8406558,2.1518995,0.018021927
1.255142,-2.1945588,-0.081867408,0.072056857,-0.02437333,0.33529088,-0.78343551,-0.78578595,2.1218862,-0.81910694,-1.8421865,-1.2326659,-55.822427,42.47249,-14.868767,0.63114135,-42.407355,2.2688734,1.4549609,2.0286366,0.29487088,0.64484473,1.1554434,1.2873272,1.6087995,2.3433878,0.56944074,0.59057129,2.4817519,1.8047475,1.6411271,1.1735853,-0.0059889531
2.2472803,0.24301026,-1.3677943,-1.4855031,-0.61423361,1.419959,1.7138554,-2.0658097,0.81760413,0.14628647,-1.2303682,-0.83480175,-55.102136,-1.5974059,2.3992177,-26.348127,-32.963942,0.25049726,1.857406,2.4230287,0.34341794,2.0753373,2.1931969,0.80977862,1.199275,2.2153534,1.9453895,0.66198943,1.3063272,1.4415996,2.4645181,2.406014,0.02645727
2.0991514,-1.2183549,-1.5605903,0.31513629,-0.22966335,-0.50531632,-1.1264323,-2.2805182,1.9022807,-1.9281478,0.71817873,2.001687,19.367764,14.0139,31.614125,38.597101,-48.529317,2.3916237,1.2698035,1.8377579,0.69663872,0.90689999,2.2681555,0.63934682,1.0019766,0.47154637,2.2798259,1.0338719,1.0349541,1.2234382,1.0759674,2.03365,-0.080266009
-0.14681167,1.8280724,-0.36315437,-0.99180042,-1.4699128,2.230859,2.2807888,-2.0672551,0.086914045,-0.076225774,0.64321747,0.33577888,-63.862762,58.562762,-35.658621,-64.444735,27.335511,1.0440441,0.99926308,2.1145065,1.2608631,2.3259467,2.1867892,1.115901,0.44776326,0.80708478,0.92387169,1.7615099,1.6962884,1.2691772,0.3108999,2.2946968,0.065632952
-0.32823033,1.6403551,1.9722198,0.15374127,1.5404424,0.35060628,2.1534599,2.0530703,1.8412047,-1.1315653,0.98407568,-1.1254491,3.3749095,22.104073,-46.840194,-43.146331,-60.392743,1.8124221,2.3780139,2.0297379,0.8051303,1.8248801,0.25924405,0.3647663,0.87712798,1.3898806,1.7233966,2.375975,1.510994,1.0259841,1.2153785,0.61670061,0.012272922
-1.5454851,-0.28078936,-2.1254679,1.8820953,-1.8919253,1.6122909,1.5360985,-1.971211,-2.0480796,1.9269582,-1.8624943,1.4585817,17.04198,74.558349,2.1739923,-61.710928,74.427987,2.2926818,1.1032492,1.5585604,1.7243015,1.8349427,0.63161703,1.5873951,0.34944509,2.1236292,1.5859582,0.94953333,1.0567246,0.37050378,0.55696823,2.4649941,-0.012916642
0.063753251,1.7885832,0.38821246,-1.9718446,1.4389171,-0.10011207,-0.26075753,-0.030042165,-0.69304533,1.0126986,-0.72297569,2.1986797,-42.82795,40.636794,32.595142,26.548138,-55.452369,0.8055649,2.3792481,0.27287809,2.2620829,2.0772149,2.2512837,0.57465474,0.47213832,0.9786928,0.63996836,2.4482191,0.71850157,1.6058231,1.8181317,1.5887064,-0.011395009
1.597835,-1.0913111,-1.0470769,-2.1615313,-1.0506515,-0.97853258,0.040546852,-1.8254556,1.9318642,0.48095959,1.7407824,-1.8926613,-42.413259,-39.649934,53.561959,65.84821,10.85855,0.61968551,1.3044487,1.3690555,0.46646286,2.3412193,2.3724754,1.1944203,1.6212864,0.71012485,0.31827214,2.44983,0.79302382,0.85128106,1.2307198,1.958457,-0.052523288
1.3866898,-1.380787,1.6289754,-0.79101685,-0.97083378,2.1996815,1.3560641,2.2565015,-0.28625156,0.31912238,0.79122338,-0.27039901,-58.986369,-33.907709,-36.859217,7.139284,-10.053157,0.42389363,2.380306,2.3028257,0.59207099,0.68707893,2.2356499,1.0677995,2.0063783,1.94957,1.173466,0.44282282,1.0231732,1.22134,1.8120497,0.61974578,0.019426555
1.9734424,1.8531143,1.1135929,-1.4525073,-2.1159467,1.6839439,-0.56283743,-1.844002,1.2399467,1.6003851,-0.64403868,-0.00058662832,-13.836429,-48.862317,21.030644,62.041136,-74.624323,0.45997213,1.2515556,1.1456751,1.36057,1.8506408,1.2194562,1.6511068,2.4023734,1.9403404,1.3017613,1.2018968,1.2788826,1.4304281,1.4549753,2.2694618,0.038997818
2.0297827,1.5733389,1.892606,0.40419656,-1.93329,-0.88326217,-0.96207401,-1.3712522,1.6584529,-0.16299853,-1.6183139,0.90739776,42.760691,28.933387,-16.561637,48.561463,22.50753,1.1359699,2.4957964,1.5995685,2.4485093,1.095124,2.2489217,1.3777994,1.1738831,0.70269241,1.4013772,1.4459878,1.9663225,1.4827723,1.4532852,0.86409674,0.06716374
-1.5729551,-0.15496884,1.3897759,-1.348474,-1.9240407,-0.93882577,-1.7663575,0.88077323,1.5418608,0.62788262,1.7842496,-1.7612235,74.638346,-3.3207278,-11.471574,-52.74308,47.047141,2.4445393,1.8713092,2.0932315,1.4416551,1.1470555,2.0609691,1.4571278,2.44711,2.3277042,2.4741348,2.0342608,0.32105442,1.961637,1.482436,0.30218678,-0.0054758876
1.5251643,-1.9592401,1.2253549,1.3992284,2.0101376,1.2661879,-0.32910765,1.0324291,1.0188422,-1.1404199,-1.7520726,0.6342021,-12.388972,-21.453201,36.047649,2.8397538,27.742727,2.4551926,0.9220694,0.72044963,0.59701036,0.45313469,1.0847179,0.60371706,0.67264491,0.39304571,1.4191854,1.4985262,0.73012436,1.2000921,2.4478492,1.2518971,-0.040993972
2.1148148,-1.8582919,1.4022081,0.25453849,-0.82077384,-1.5834297,-1.8417077,2.1026149,0.44290728,-1.6319468,-2.0253306,-2.1451661,21.668309,-20.722894,10.321783,-71.79997,7.9030759,0.2799461,1.804118,2.3117053,1.3309737,1.6751337,1.2221367,1.7012868,2.0275187,1.7572821,0.3904021,1.9881494,1.5778009,1.1002215,2.4233877,1.8777482,0.072961021
1.9670752,-1.4879736,0.27660669,-2.199357,-0.61476433,1.9250185,-1.4770822,-0.45597998,-1.31101,0.98555066,0.10261673,-0.054998952,-23.527741,-30.749065,-49.541144,11.985112,-16.226548,1.0809993,1.1057366,0.61547143,2.4783113,2.4784521,0.34430091,1.1653543,1.3594113,0.37509067,1.1488225,0.25917596,1.4703007,1.0932922,0.71240538,0.39730513,-0.025837377
-0.7700804,2.1912794,1.5135478,0.72277874,-0.79653551,0.52470038,1.7595798,-1.6959498,1.4119189,-1.4706726,-1.1142258,0.24035537,36.138914,36.729865,68.840906,59.109845,9.1603037,2.2333558,0.760937,1.5681128,0.27260323,2.1424158,2.3327766,2.2255543,2.3906093,2.2212947,0.54925852,1.1378777,0.8112256,0.76867659,1.1474825,2.4886028,-0.0067337108
1.7204911,1.0755619,0.24408575,-2.1415804,-0.31484004,0.49634289,1.1063838,-0.094464697,0.40692039,1.4346543,-1.059549,0.27786678,4.1197375,-59.571729,27.94464,15.556291,4.5870987,1.3055095,1.198098,0.43299597,2.3632694,1.7191192,2.4864453,1.9365022,2.0418796,2.3701387,2.4207875,0.92623165,0.92533013,1.5235399,0.38511259,0.83728425,-0.0011223572
1.8041517,-1.8457169,0.69311413,0.14355434,-0.025370165,-2.2813532,2.0065616,-2.2866955,1.7537138,-1.3252399,2.1555457,-0.59045456,16.597223,-50.480498,-25.736754,42.370567,72.116661,2.3457159,1.4470745,2.2310727,0.63816243,1.3459312,1.0662224,0.2504437,0.95730508,1.1764366,0.86981894,2.2969774,1.2991811,0.58745801,1.90677,1.8328473,-0.051600503
0.08351354,-0.67985449,1.2289339,0.29095029,-1.458184,1.4363307,-1.1593492,0.5469893,-0.62172746,-2.0070733,-1.6009136,1.1865691,-5.1931142,19.330005,-20.61347,49.410946,49.769087,2.4106859,2.1483866,1.4327532,2.2831796,1.1501777,0.53624667,0.69782704,0.62906845,1.503367,1.0891949,1.5988456,1.547261,0.81487065,1.2810631,2.0776996,-0.028763669
0.044802465,-0.98720933,0.29444346,0.70277742,2.3333304,-0.21758798,-0.18741243,-1.9648217,1.6634031,-1.7881935,1.4490769,1.0095576,-53.426862,-45.274091,28.353974,-4.7587274,-29.930652,2.2078765,2.2797986,0.57583559,2.3187875,1.1108581,1.1916591,2.4642722,0.52326254,0.72343748,1.313768,0.49912269,2.2551066,1.8269471,1.2506752,2.0988185,-0.0028016501
-1.1155318,1.8530774,0.49369883,-0.92068178,1.5867873,1.7243886,0.60712423,1.6148735,-2.1808204,-0.087409435,1.1749939,-1.5000451,0.72580356,48.580425,41.200026,48.836074,-12.098598,2.2580606,1.9741486,0.26566892,0.34748979,0.7609023,0.9848742,1.0306708,1.2336939,2.4429828,0.46229603,2.059386,1.850644,1.2731119,1.1912979,0.89356107,0.01368902
-1.1393879,1.4571737,0.4321542,1.4242101,-2.2363725,-0.69887956,1.9169645,-0.18112835,-0.020929705,1.6636292,2.0121616,2.2965597,-28.641744,-31.797774,24.807694,-57.086627,-54.943747,0.78178142,0.90027328,1.1430296,1.8989995,1.735235,1.0953889,2.2009128,2.2408957,1.4833871,0.53698641,1.8805429,2.0343346,1.5610331,0.53263921,0.81726331,0.0086524699
-0.79694204,-1.5954286,-0.87508681,-0.21807176,1.1066031,-1.1202393,-1.8677366,-1.8262877,2.084496,2.2243272,0.88465807,0.86091547,-74.490637,-64.134595,-10.131165,-24.482817,-32.71068,1.0989901,1.9766482,1.7754571,2.1069283,2.144475,0.94094033,0.63414996,1.4084278,0.69674695,0.47606713,1.7602848,1.3571418,0.48262853,1.7877859,2.3173154,0.0015913901
-0.53459801,1.5370588,0.03033349,0.87696414,-1.2164911,1.4890905,-0.35371265,2.186353,-1.1749637,2.0072312,-0.4579318,-1.1285167,12.292106,43.421259,31.108155,-65.236378,72.194715,1.7737205,2.1700964,1.8103794,1.7965103,0.44906864,2.4965501,0.76692873,1.0210861,2.1448561,0.59663378,0.87395378,2.0412154,2.4574606,0.79028349,2.0445341,-0.007222013
1.2769138,0.87109216,-0.94661358,-0.70928736,1.3514049,-0.65223212,-1.0485243,1.7861265,1.5100747,-1.1016445,-0.36314862,-0.89506183,-43.246033,63.924466,-71.505833,1.4667852,52.258421,2.2341686,0.9219565,1.0728858,1.9908572,2.0868273,1.8056945,1.8080604,1.070986,1.5612487,1.9073791,0.82038398,1.6936336,1.6492636,0.67296446,1.2637507,0.028757641
-0.034309476,-1.7279037,1.5759369,-1.5666999,1.3052302,0.83350895,-1.1474444,-2.002449,0.72229891,0.56375503,-1.5834752,2.105624,-26.053277,-27.422366,62.303028,-23.004206,68.313062,1.9396074,2.4823615,0.79938072,1.9417753,0.66758138,0.7901962,0.57755358,1.9430185,1.3126196,1.44831,0.49578427,2.3961436,0.7354354,0.46268817,1.9000303,-0.020996825
-0.66272371,1.6901187,-0.45601974,-1.9793287,-1.8242534,-1.4244023,-0.99295561,-2.0355671,0.1677176,0.82106442,1.7547352,1.7042489,44.904854,65.877179,47.753025,-64.901447,1.3812425,0.84315146,1.8466466,1.5889363,1.5027179,1.430056,1.9507573,0.87777858,1.0745707,1.0594787,1.657933,2.3793122,1.3494069,0.98214867,2.4726908,0.26490494,-0.030735183
-0.77008471,2.1188085,-0.70953911,1.8327437,-1.9628953,1.0542715,0.55885772,0.93040185,1.5572082,-0.61036694,0.43360299,2.2121025,-61.836753,59.694098,-71.288672,51.292915,30.028318,0.41414145,0.47533121,0.64166695,1.7463606,1.3325513,1.188922,1.462572,1.698257,0.60592999,1.8654006,1.7881045,0.92201354,2.0315201,1.5085668,0.73263095,0.039668924
-1.6684139,-2.3179828,-1.017748,0.6815967,-0.22179083,-0.1388207,-0.52695329,-1.9250515,0.92298365,-0.59831839,0.30085921,0.14739239,-47.512624,55.328362,53.78064,-8.7768691,-62.839049,1.5865689,2.2141708,2.3179593,0.69170339,1.2089043,2.0545776,2.0362124,1.6219197,2.355159,0.40793062,1.8399123,0.90529696,2.3260554,1.7632642,1.93144,0.066485359
2.2766658,-0.67586685,2.2756004,0.26628053,-1.3926153,0.74988553,-2.3143824,-1.7656997,-2.2014926,1.1924125,-0.91350837,-0.37193453,71.190318,-54.321889,62.009046,-13.958212,4.3265047,0.85847715,0.67540763,1.8259984,1.055162,1.1083,0.94738608,0.96780981,2.2295069,1.3232891,0.76991933,1.7841211,1.4737854,1.1612926,0.59541393,0.62192056,0.0048059817
-1.5835677,0.55142616,-1.4496187,-0.69129988,2.0741304,-2.3444755,1.3965135,-1.2074802,2.1400236,-2.288662,1.6897321,-2.2405326,2.2127827,-9.7606728,52.371442,6.8269477,-9.4897688,0.70684687,1.4752971,1.8178239,0.91554281,1.2780186,0.40861167,2.0363823,2.2275369,1.9623411,2.0663466,1.8368598,1.3531706,1.2380699,1.7411882,2.1492646,0.0087991486
-1.9566971,1.5553091,0.45848499,1.001302,0.94167743,-2.1420902,0.54154682,2.1543114,2.2275352,-1.7463891,1.9092346,1.849708,13.147511,20.213102,-28.397622,21.166918,-47.603597,1.770216,1.7700545,1.3051711,2.2604954,2.3969832,1.3467079,0.6192974,1.5313714,1.5097363,2.3872503,2.016502,1.0988487,1.8508148,1.8950705,0.94938156,-0.038144378
-1.2966614,1.8104064,-0.39455364,-0.93172518,-0.23647218,-1.8439804,1.6041456,1.2971802,2.1954428,0.80076805,-0.074330466,-0.4890696,-44.131588,30.402997,-66.823178,-47.149746,4.222658,1.6781919,0.87185397,0.49972155,1.0701599,1.1772775,1.5027509,1.9844153,1.8182515,1.3528616,0.54537762,1.1616309,1.7797588,2.405329,2.1147483,0.82499099,0.034914696
-2.0973915,-2.1887827,-1.9632189,0.32838794,1.0086522,1.9540069,0.35459346,-1.5198232,2.1921723,-2.3300934,-1.9277009,-1.1948827,57.565685,6.4674753,-51.143174,-63.323887,-34.561593,2.4745271,1.8768421,0.58458576,0.88281456,2.4643124,1.1984571,1.9686117,1.7072231,0.54864146,2.0170208,0.81913025,0.87204415,1.445956,1.432073,2.1016247,0.068534293
-1.2962682,-1.0057206,0.19317356,-0.1679468,0.03915183,-1.7096554,1.9700105,0.72101925,-2.094005,-1.8208967,-1.5571744,1.1780008,60.912585,7.8136767,74.463818,63.388553,71.414188,0.74890462,1.8400042,2.4505686,1.955982,0.93940101,1.76275,2.2896433,1.7846225,0.90048414,2.4370131,1.3794533,1.9708633,1.3000272,1.3079612,1.9034039,-0.067227427
0.28016522,1.0603232,-1.4036379,-0.72333733,0.83309693,1.3524289,-2.2910965,-1.5288877,0.64211982,0.73706793,-0.96997183,-2.1630215,69.372925,0.7512024,25.458779,-64.298608,-66.712249,1.6335547,2.1544183,1.5582797,1.5066033,1.4810545,1.8325231,0.46645977,2.2893774,1.8161668,2.314766,1.0228125,1.9099442,1.1826219,1.3262922,1.7431393,0.024855393
-0.38350721,0.94242991,1.0800706,0.62422822,1.6258164,-2.0480706,2.0785756,1.6805015,-1.8708175,-1.7704184,-1.3987847,0.73375797,-1.6483396,46.355644,-0.69255325,60.257559,-51.206557,2.445889,2.0566529,0.91499638,1.0941539,1.6938084,2.3376446,0.79225611,1.4484489,0.5807111,1.011396,1.2828644,0.85169634,1.460407,1.311181,2.0198183,0.007661539
-1.6529766,-2.0442263,0.7168089,-2.1714722,1.5200235,1.1737258,0.75001572,-0.12631255,2.3524333,0.40236239,0.22649883,-0.84441915,49.751927,-69.361066,48.566465,-43.416132,55.061344,2.3652175,0.71115175,1.8275295,2.0378885,0.54190086,1.2277079,0.83636778,0.33329077,0.61789492,0.45989098,2.1376778,1.4499487,1.0378871,1.0181009,1.4712941,0.019372146
1.3939937,-1.1451323,-0.8425208,0.48172209,0.41887869,-0.21500074,0.88491738,0.50685265,-1.3268485,-1.3186405,-0.0259243,-2.1699235,-23.121788,42.114127,-37.862151,-49.177823,-31.665976,1.2242322,0.9205472,2.1368038,0.26096691,2.3207927,1.0631979,1.1666551,0.72209987,1.332446,1.670188,1.3499495,1.1011583,2.4167282,2.451239,1.9736117,0.061914179
2.3386939,0.39127113,2.3112929,1.6774015,-2.1357383,-1.0864453,0.62094021,-1.7994653,0.49916332,1.3855468,-1.7407934,1.7085887,-33.351834,5.7254725,-71.983224,-72.040498,15.346606,0.33103555,0.96449706,0.55213102,2.165989,0.27632603,1.7115203,0.77248424,2.1425554,2.429079,0.78098176,0.96037415,1.0082696,0.48681488,2.3976634,1.5284213,-0.047155122
0.10898765,-1.3638238,-0.72676581,-0.24076321,1.4348678,-2.1844594,0.012692458,1.2646425,1.9720763,-2.2571629,-1.4057946,0.72801261,74.678182,66.204814,4.3058248,67.996867,-26.657151,1.7240262,1.7077564,0.5122487,2.3638524,0.26728546,0.51666219,2.2914857,1.2493277,1.9504544,0.28665689,2.0924279,1.4358442,2.4839281,2.3796622,0.48280762,-0.020369311
-2.256374,-2.2843531,-1.2900119,0.47111174,1.1615645,-1.0130661,-0.74041516,1.2616269,-1.5875687,-0.72006625,-0.73862026,-1.5581825,-51.808783,-0.22301496,1.7876036,44.253131,62.379166,2.2245301,0.92815761,1.7949782,1.6980109,0.96856489,1.420041,2.3792567,0.41701046,1.4448738,1.2437298,2.3667757,2.1492907,0.87925353,1.1141062,1.7823104,-0.017067124
-2.2710508,0.79910899,0.31616492,-1.7909303,-2.1378293,1.4693031,1.658287,1.7618954,-0.47586894,-1.0051575,0.23302936,0.52928798,-39.700917,-53.309253,-18.617313,-1.1827718,71.154542,0.54090133,2.4286704,0.66351882,2.2608788,2.0891632,0.56568002,0.38409704,1.7690001,1.5848134,1.9592263,1.4660424,1.5244461,2.1158983,2.1523762,0.98656689,0.0087689357
2.3136928,-0.39849572,-1.2128918,0.72280899,-0.28816924,1.0754456,-1.7098641,-1.5384692,-0.17332649,-0.84192518,1.0675627,-2.2512858,-50.612378,7.7615122,-52.263676,4.4007324,13.109926,1.2027917,0.57008627,2.4399089,0.549601,2.393963,2.3357691,0.77070867,1.5506212,1.0401958,1.5708601,1.4453252,2.0811678,1.1877846,0.34660447,1.6312995,0.00000078019331
-2.35509,2.0706008,-0.40468076,-1.492312,-1.9544467,1.6784784,1.825952,1.6989432,1.7736063,-1.5711979,1.1049559,-0.53154596,31.719605,11.400047,50.589283,54.080704,-65.607741,1.0854833,2.2172452,2.2398816,2.4401786,0.58245407,1.0554864,2.059462,0.8781657,0.83088385,0.41485575,1.2305453,1.2754469,2.1856111,1.565177,0.42933881,-0.019174808
0.57056494,-0.22662884,-1.3406264,-1.9767333,-0.61502171,2.3114627,-0.18051672,0.83395702,1.6708768,1.3007517,0.96140083,-0.51803301,60.927498,-41.537456,-20.025551,30.558236,-7.7308051,0.90038677,0.80040191,1.1048857,2.0639125,1.4276901,0.43710973,1.7531549,0.77384935,0.3359991,1.1369057,2.4746972,2.4858402,0.76609227,0.4627297,0.34811696,-0.050627041
1.9410378,-0.84614666,0.8030356,0.33724743,-0.88637677,-1.4728428,0.10960586,-0.39840503,0.31132191,1.6356382,-1.90567,1.5120585,-23.7685,-27.18311,33.467683,-8.6465008,28.260638,0.27309794,1.456996,2.4810285,0.89664916,0.98242471,0.3621684,2.2143695,1.1590128,0.52884834,2.3541334,1.1699454,2.0215619,0.64168565,2.0606872,1.2189676,-0.031588081
2.2256607,-0.26495058,0.18311212,0.3754222,-0.1679719,-0.38265498,1.1286966,-2.0735489,-2.0195121,1.3983734,1.7783598,-1.7893804,11.131907,43.963552,-4.5839546,57.47478,-21.368548,0.75721998,2.0961414,0.84838419,2.0430684,2.1010942,0.84005069,1.4819552,1.2216347,2.2636703,1.7565838,2.1538183,0.4745253,0.59672815,2.4600614,1.7524361,-0.085868588
1.713775,1.295005,-1.3751745,1.7096569,-1.9437513,-2.3472404,2.0515435,-0.25776666,-1.5988395,-1.6542317,0.42262045,1.4117716,24.392325,11.812733,-63.392312,15.408229,66.098685,1.6839525,0.93955735,2.1403087,0.66856327,1.542851,0.94725,0.93078036,0.87551796,1.3304319,1.5697185,0.25923731,0.25139742,1.2364978,2.318986,2.1969106,0.00203559
2.3062587,1.8906114,-0.13363087,1.8755776,1.662141,0.5615933,-0.2165825,-2.137736,-1.675279,0.10967334,0.73575629,0.54722872,-41.705797,0.66917612,-3.1569485,41.166194,-69.777436,0.6345048,0.62221513,1.0697655,1.2988436,1.6646121,2.1352567,1.2601208,1.0998767,1.1279457,0.38255262,0.56191316,2.3245554,1.3022318,2.35949,1.1990756,-0.0038607913
-0.54756243,0.41391606,1.2010426,-1.9506077,0.22664855,1.6718906,-0.50946134,-0.10595516,0.49469391,1.6664575,-2.2881456,0.94328722,43.028824,35.445245,-71.771796,31.421504,-48.784457,1.0695455,2.1016942,1.9238755,1.3256704,0.2930756,1.9716085,0.32468141,2.1705091,1.9956911,2.3299756,2.3996145,0.5703411,2.222868,2.2424334,0.32861957,-0.055604902
-1.0803386,-0.41621374,-2.1191059,0.42316517,1.1420491,0.85944383,1.2002266,-1.5287822,-2.2979208,1.5850482,0.77061221,2.0344906,18.727087,46.14993,-8.1297003,14.126465,-26.500416,0.73762123,1.200049,1.7229259,1.215617,2.3750774,2.175274,1.0795643,1.7376801,1.690249,1.0154196,1.4065864,1.2484185,2.4189186,1.0147777,1.8695682,0.02495529
1.4830243,1.3634144,-1.442046,-0.64975561,-1.8373521,-0.091455473,-0.85333141,-2.1412689,0.2076454,-1.9840276,-0.68699894,-1.0382374,10.204421,55.702576,43.19733,17.531618,53.896405,1.1781362,2.4351471,1.5180099,1.9415677,1.6775881,1.973174,1.8852405,2.2363152,1.0003585,0.27574866,1.0076873,1.9501123,1.2874217,0.94633351,1.2773704,-0.021878046
-1.2790106,1.5867006,0.26692935,0.087291928,1.56246,-1.8788192,0.40414903,1.9802219,-2.014372,-1.7484966,-0.52541418,0.38078483,13.571338,-56.527305,45.588555,6.843667,-28.489459,1.0399493,1.9278424,0.49679814,1.4363761,2.4227238,1.9688209,0.72319014,1.6566981,1.874497,1.6709589,0.80557442,0.28931692,1.7994901,1.0299351,2.3690381,-0.021518112
1.1481617,-0.078721797,1.1040634,-1.3942083,2.2508647,-0.77561035,-1.2152907,-1.8971601,-1.5459295,1.6750908,1.4388511,-1.2102639,-71.144305,-72.326781,3.7965278,58.243197,-6.5831804,2.2223087,1.8421852,0.85704971,1.4344905,2.2321444,0.65072933,1.0578274,0.90527538,1.963356,1.1246638,1.4750922,0.6243016,2.3870221,0.43120734,1.5517292,0.030195836
0.60273579,-1.4558472,-1.6997817,-1.7293675,0.53633245,-0.66065849,-1.2987958,-1.0754801,1.1296539,-0.12256814,-0.68870504,-1.438284,41.891579,-28.227243,34.727035,7.2796219,-51.394817,2.2345514,0.60531421,0.51588621,0.49955739,0.56109472,2.0689033,2.0582935,1.4894828,1.736594,1.435589,0.44512275,1.428102,0.61097534,1.162605,2.4016115,0.014643359
-2.0756038,1.1430377,-1.3755265,0.50653457,-1.9603823,0.87766666,1.1660392,-1.2051676,-1.4041759,-0.34050118,-1.9630835,-2.1084497,14.335661,39.454885,-31.741988,62.404775,37.048477,1.7313083,0.34890986,2.1280258,1.2297643,1.6479197,0.58570473,1.6893158,1.0798201,1.5360121,0.75618182,0.39783028,0.83351532,1.8920284,1.5720806,1.7090158,0.019823562
0.11313199,2.3165812,1.0229055,1.1785268,1.3290875,1.2501767,-0.82306757,2.2773186,0.8699097,-1.9706237,-1.6020176,1.4800184,-64.679394,-16.578183,70.470215,-7.1034454,12.393232,0.52063262,1.5224675,0.36074744,0.83217245,1.8223428,0.36574891,1.6419685,1.8139132,0.43864504,0.55712868,0.66170461,1.0193715,0.32693967,1.8750268,1.5753987,0.012434951
-0.31054093,2.0655686,-0.15894198,0.58674464,-1.6130108,0.50210599,-0.99330255,1.5581199,0.57518768,2.0695131,0.16308865,-1.5795242,-69.262185,60.463498,-39.985752,-40.532627,68.130399,0.88935834,2.1955717,2.4731583,1.371977,2.3181977,2.4485305,1.452611,0.78335521,0.3510026,1.3006215,2.2949875,1.6048709,1.5646837,1.1397111,2.3745258,-0.012096986
1.1087022,1.1715329,1.5926833,1.859537,0.67545228,0.1814174,0.16649238,-0.92164368,-0.44274978,-0.43338965,1.3734583,-2.2807572,-67.280528,66.162511,43.330266,1.7859044,15.695493,0.53716015,0.30062778,0.65116198,1.5793893,0.79538597,2.3020633,1.2780603,1.1094278,1.9033905,1.2839155,0.51772922,2.2250043,2.1466792,1.9868518,2.2685743,0.040459641
-0.9372481,1.1874762,0.94462632,0.2960436,-0.67793315,0.53409112,-0.63154656,-2.103004,-2.2708658,-0.80311401,-1.6551494,-0.86343461,-73.205454,-64.060986,27.012373,-53.044321,-65.911353,1.0433571,0.70307138,1.0206545,1.6404634,1.2675459,2.1444221,2.3015459,1.581252,0.60290961,0.60176757,1.6576322,1.8241311,1.1716717,1.7870551,1.2847543,0.045686161
-0.54328399,1.6357974,0.77033406,2.0720415,0.24745301,-2.096771,-1.1859667,0.86235896,-1.641478,-1.9962043,2.0030355,-0.2888133,-10.32928,-54.20301,-39.984623,-21.562682,-4.0018097,0.49876137,0.68240562,2.4411843,1.7353338,0.50459286,1.9421902,0.89151032,2.3639926,0.37366045,1.861223,1.3253001,0.8190224,1.3094453,2.0969153,0.35604469,0.041269353
-1.7423356,-0.64980283,2.0814338,-2.118373,-1.3967782,1.4705947,-0.19486159,0.071651237,-2.1292336,-0.14749019,-0.15094404,-1.6511473,13.541816,47.307494,-52.951242,-1.5254027,12.557043,1.3182994,2.4085629,2.4660536,1.2127349,1.1848899,1.1941189,1.0561032,1.1770964,0.70957678,2.3570249,0.26719047,1.170165,1.2138512,1.9474558,1.6393684,-0.022828443
-1.0696478,0.19370732,-0.62181555,1.2247321,0.35706045,2.2437487,2.1480632,0.88649832,-1.1967502,-1.3039728,1.4501681,0.49994934,14.612972,50.215089,65.006809,-30.561107,-40.523457,2.4588146,1.0469802,0.84631349,0.99090265,1.1009216,0.68860429,0.87237028,2.4273533,1.0262127,0.55695969,2.3215485,0.26508995,1.8668377,1.1914148,0.60920263,-0.0074659983
-1.5842304,-1.1624904,-0.41147674,2.097498,-0.7323011,0.97536129,-1.5041336,1.9927038,0.42443533,-1.0723848,1.3172354,-0.02778005,-11.8661,66.454002,-7.5801504,-49.586984,-8.4383736,0.26881633,1.4959901,0.85480205,1.9080383,0.65019255,1.0362679,0.80400706,0.94669129,0.54048143,2.1213613,1.719012,0.68457054,0.57711573,1.334044,1.5269533,0.012056716
0.26967241,-0.93396544,-0.18947301,1.102059,-2.0954919,1.462905,-2.2017519,1.5459221,-1.7999326,2.0699331,-2.2015793,-0.26578438,9.7619847,-30.323386,54.85292,13.02319,30.76269,1.0530461,1.5452526,0.81056572,0.92803828,2.0394339,1.7649947,1.7656271,1.1451475,1.4940254,1.5854578,1.5385069,2.1854249,0.68612215,1.9049146,2.1502619,0.0023483644
0.16029659,-1.3817066,0.31020695,1.745937,-0.083064596,-1.1995347,-0.97917428,-1.3198663,-1.7783321,2.256145,-1.5643528,-1.659386,-44.005602,47.848723,43.487873,-49.315244,58.70241,2.2960684,1.7718364,2.0040644,1.3105603,0.58724066,0.50378472,1.8598492,0.73612162,0.74604266,0.98902525,1.0473427,2.4394941,0.32817258,2.3464899,0.95556264,0.071384705
-0.48962488,-1.2941832,1.0512678,1.9120863,-2.0591453,-0.27067919,-1.8498597,1.750509,1.3605016,1.4396376,-2.1287276,-1.0669803,-66.752802,-64.350951,-46.432155,64.775865,-12.037984,1.7889976,2.433387,1.1847215,0.613507,0.96215432,1.6776849,1.3498007,0.85047479,1.1797763,0.7497899,0.96879697,0.82075432,1.1678629,0.77102706,2.4018503,-0.010390859
1.6186387,-0.16027078,1.8154259,-0.85501301,-2.1295772,-1.2102439,-1.8978622,0.79082584,-2.2394638,-0.81786264,0.22131165,1.5099542,50.484589,-55.51407,-24.978181,41.715097,5.639462,1.1115795,2.0666343,2.1721708,0.67405456,1.5850444,1.3416435,1.0021843,1.7121208,1.8635289,1.8298802,1.0464297,0.5936667,0.50624828,0.5148097,0.40663912,0.038363476
-2.0763579,-2.1071526,-1.3107996,-0.19040294,-0.39016027,2.2217194,-0.53250812,-1.0373513,1.0752933,0.44324881,-0.60415617,1.1455624,-43.089995,-13.554286,43.116816,14.329676,-61.133134,1.9061919,1.1167229,0.76240656,1.5171011,2.418995,2.2993608,0.85730955,1.3015517,2.1800482,0.32017823,0.7355523,2.4275725,2.4613526,0.95296036,2.4047679,-0.0089137186
0.646137,2.2803357,-0.25801344,-1.0340393,0.1924744,2.2183765,-0.16775514,-1.4520597,0.69562535,-0.061780738,-1.6232897,2.1024508,-73.660859,-68.049375,44.152622,23.12545,19.443397,0.40271519,1.9341852,1.3512041,1.9372049,0.35321497,2.4840618,2.3771939,1.7484643,0.68935812,2.2919492,2.2908931,0.29005367,0.68198413,2.1072147,2.4573516,-0.003228974
-0.34818356,0.86596618,-2.276021,2.0889091,0.99679447,0.58185633,1.0522255,-0.84231461,-0.76519036,-0.444784,-1.6358108,-0.99534441,7.2380504,-0.087280653,33.074065,-24.186824,-7.9491064,2.1155401,0.63243274,1.797034,2.4998424,2.101046,2.2796517,0.35572193,1.868436,1.0537975,0.67425967,0.53221181,0.38388899,0.52217441,0.43530216,0.62346688,0.022546301
1.0111193,1.008214,-0.69750207,1.5065596,1.0820436,0.79781992,2.2126855,-1.5688834,2.3046048,-2.3451285,-0.15243484,1.5673014,-19.719812,69.124153,19.637474,47.017235,18.663052,1.6736836,1.6001537,1.0325281,0.94994835,1.2818862,2.4115018,2.3609133,0.37059433,2.0789603,2.3357698,0.78354587,1.3054782,0.67182553,2.371739,2.3167864,-0.016110205
-0.3058378,1.0005269,2.0513685,1.5126332,-0.511975,0.058479006,-2.0326451,2.1538392,-0.99750855,1.5537506,-2.1727883,-1.7509921,-1.7476951,26.488628,-5.6294894,35.171673,-19.684298,2.3649392,0.53229972,1.8614527,0.68581132,1.1808953,1.5578231,0.58282668,0.56805118,1.9861963,0.25082097,0.54798488,2.2318343,2.189195,1.0510452,1.6659563,-0.033381806
1.785988,-0.81747867,1.962305,-1.5501227,1.8860691,-1.0775347,-0.41509579,-2.1791729,-0.67152953,-0.2251715,-0.40908299,-0.082292694,74.772869,7.6081734,70.570842,34.14482,-28.009515,0.53632046,1.9380522,1.093511,2.1397619,0.47897549,1.1410402,2.2121204,1.6075906,2.2755834,1.7308915,2.3428791,1.0191069,0.37952707,1.4615366,2.2950082,0.019874304
1.2100594,-1.2023828,-1.7239218,-2.1854178,-1.9565074,0.029650848,-1.1714253,0.2165459,1.5227102,-0.79474358,-2.3450088,1.8579428,68.613506,-12.802884,71.927825,40.954174,-33.195754,0.30951294,1.4840457,0.3560885,1.279483,0.27099729,2.1513794,2.2337891,1.2938393,0.80647846,1.9834224,0.87985344,2.1968392,1.2765041,1.9551516,0.48279128,-0.032037649
1.8808205,0.24457925,1.4403229,-0.035269694,0.98327277,-0.48278083,0.63638241,-1.4438701,1.6793165,1.7755909,-1.2023218,-0.69929669,-12.139479,-28.218383,33.63858,13.620843,25.510055,2.0874778,1.489557,0.7340214,1.4476812,1.1773154,2.1406665,2.1822202,0.82465563,1.4871395,0.60374823,1.1964697,2.3158595,1.4001039,0.29584345,1.2408998,-0.0011910174
1.4192719,-0.40988166,0.63155572,2.2570555,-0.39945148,1.5732636,0.62596854,-2.1112578,0.37961899,-0.31839178,2.0632718,-1.0616259,-52.254695,5.3361768,-14.876839,14.960639,43.458294,2.1782656,1.86042,1.328153,1.5182265,1.0832301,0.34829118,0.72992726,2.3875128,1.928062,1.9377315,2.4532244,1.5927829,0.90299881,1.95108,1.8016286,-0.014959001
-0.84539393,-0.68302503,-0.22203964,0.39186474,-1.8491122,0.17737259,-1.8411058,-1.9198925,-1.9063419,-0.35572517,1.348647,0.11864084,20.883637,-8.7099856,11.271368,-12.115945,67.31771,0.75639654,1.7565809,2.1049348,2.3895006,1.5858857,1.9813374,1.8382712,0.32418948,0.65264648,1.779381,0.55595021,1.1050991,1.1502993,0.32987995,1.7923737,-0.038299023
-1.4677353,1.1284392,-1.687289,0.8901563,-0.9780536,-1.3340535,0.10995527,0.76178798,-0.19034099,0.65102431,-0.40168136,1.7947094,-10.238769,-32.990443,-70.372568,-1.7468354,40.937671,1.2165247,1.8807626,1.2278389,0.78804481,0.41904671,1.9180095,1.7364156,0.68626216,2.0081904,0.90585861,0.51564286,0.90952617,1.4062778,0.56104417,1.2192883,-0.01892084
-0.61975603,-1.859999,0.98556509,0.34521926,1.1493482,1.0129647,-0.96333472,1.001917,1.8539877,1.6555022,2.0802398,1.3764181,10.845187,25.053948,31.697792,-55.206264,48.325076,0.61834074,1.2028021,0.7452815,1.696181,1.7136397,0.39182862,1.2135703,1.7268344,1.6561163,1.0965991,2.2907288,2.0294741,0.87104796,0.45312748,0.96361853,0.026782777
0.33853106,1.838027,2.0103929,0.84514933,1.2844849,0.88386933,1.7417237,-0.20998905,0.29330955,0.49475718,-1.9826552,-1.18341,45.241597,25.524327,-12.636566,17.22948,-74.135677,2.1502546,1.3291511,0.29312161,0.49488708,0.81718556,1.9376645,1.3279882,0.99729266,0.49780022,0.27836271,2.1920696,2.1143398,0.70918334,2.4943161,1.4713525,-0.033495992
-1.2650145,1.2011315,-0.45648882,-0.43839556,2.0621366,-1.2910371,2.0915357,-1.9814001,1.0608782,-1.4992457,-0.67780638,-2.0477254,-49.130265,17.637986,41.636759,39.016797,-44.699793,0.33371705,1.0325329,1.03074,2.3964732,1.7752428,0.75622519,1.1267861,1.1446408,1.977343,2.2040181,0.43227563,1.5065903,1.2636849,0.25199525,2.2842411,0.034829419
-0.80505747,-1.3322136,-1.95339,0.58777476,1.5630427,-1.5095432,0.60905082,1.0083236,1.1447356,-1.1132669,2.219845,0.95210216,-41.126637,-15.39167,62.201528,71.073086,-74.63696,1.7742329,1.7818164,0.98806492,0.65707033,1.8811177,0.44474302,1.7959875,0.66164275,2.2297518,0.93908278,0.91425036,2.0557996,2.3243624,0.30824085,0.35399364,-0.015358069
1.4578087,1.67997,-1.3790352,-1.9152854,0.12661793,-1.9322923,1.7478392,-1.0998776,1.0593471,1.0410372,-0.38843066,-1.6953335,74.664579,-12.413607,14.515038,54.248631,56.744194,1.3699929,0.47056264,1.4962843,1.3002946,1.3007882,0.59779425,2.377943,0.83728686,2.280231,1.0922731,1.5845313,1.7169807,0.29388167,2.0192592,2.4388242,-0.076844274
-2.2140513,2.1752734,1.1059998,-1.8350524,0.86064884,-2.1091273,-1.513269,-0.74941297,0.83197917,1.4158152,-1.9579195,-0.14056025,-47.405448,56.643163,-48.361665,35.497943,63.929413,1.5495581,1.1737335,0.4392774,2.1853284,1.3135808,1.8524057,1.632779,0.36747348,1.3767333,1.2567411,0.54816262,0.71911641,0.68947145,1.9466977,2.3987358,-0.03986981
0.37080611,-2.3523647,0.7502025,-1.6995103,-1.8797002,-0.26581066,-0.1350407,1.7424318,2.2654443,-0.78135545,1.1869665,1.8035948,-56.655086,-2.0360418,-19.755354,71.773389,-4.6576689,1.6533785,2.3332591,1.3361479,0.88795117,1.0452719,1.3840354,2.4834756,1.5241042,0.86893468,0.9351248,1.8925378,1.133297,0.32335446,2.3684324,0.7438338,0.020319467
1.5490384,-1.2605442,0.93460438,1.5033425,-1.1524277,-0.93330729,1.4472887,-0.77042466,1.1177196,1.9316335,1.3158018,-0.56089917,-71.759222,-57.251265,27.994096,-53.233987,46.375968,1.9884691,2.4506895,1.7386975,0.78873317,0.73846511,1.8831323,0.55451024,1.653592,1.4205263,1.536339,1.7488139,2.0644648,1.7102903,0.34976377,0.72973609,0.0040221293
0.10373943,-0.035255685,1.2187204,-1.7210105,-0.37971755,-1.3381137,-2.1563624,1.0001462,0.36610217,-1.3008214,-2.1331807,-0.51211824,-74.772015,6.7387354,7.9254924,3.7515618,52.49885,2.0975985,0.58743405,1.5040622,1.523074,1.5541199,1.3431927,2.2903799,0.66424622,0.98627995,2.1570747,1.2050651,0.52953429,0.38287424,1.4674142,2.0809945,-0.0073162719
-1.7803305,1.6552144,1.9563262,1.6366711,1.3175172,-0.0034080004,-0.72959541,-0.67397775,1.0391247,0.45611167,-1.1880826,-1.7124741,54.722943,-71.49178,-62.354522,57.552554,-64.232616,1.2613479,1.4741891,1.1966609,1.0292806,0.36899979,2.2794782,1.9399161,0.91989425,2.4126512,1.4284725,2.3378989,0.56625202,0.99762946,1.6583724,0.76573968,0.00057287073
-0.18483111,-0.99218097,1.5590908,-1.9566001,-1.5275712,-0.79456973,0.57695393,-1.2317764,-0.94113514,1.8314669,0.13871995,-1.1663962,-2.6244299,-8.7939715,-50.278504,69.182573,-48.503806,2.0730444,1.9072014,2.3341408,0.40499853,2.0602175,2.32599,0.66430108,1.9083045,0.62389588,2.3180729,0.3515762,1.9411138,0.79915554,0.40723075,1.3272491,0.043551309
1.4658216,-0.30547224,-2.2803732,-0.37309246,1.6248282,0.19265312,0.50982588,1.5203682,2.2550675,-0.82508722,1.3198234,1.0573474,13.351611,0.52835756,30.105551,33.996976,37.181248,1.4534766,1.830441,1.472229,2.0032304,0.79340971,0.58695609,2.4709496,2.4998348,1.9728324,0.64472187,1.3404324,0.89731229,0.87772239,2.3801294,1.5855478,0.027460713
-1.1992903,-1.5841378,0.39292452,1.8253866,1.6208788,-0.21081052,0.62414986,0.30883644,2.2737706,-2.2118202,1.974739,0.08350092,-28.391858,-31.954761,-63.669956,-0.95174258,54.062471,0.29432026,0.39059549,0.73842691,1.2410257,1.9182198,0.77053782,0.92910282,1.9311127,1.4613308,1.0859721,1.4334596,0.65544331,1.5357815,1.3800864,1.3613367,-0.012826569
-0.2910378,-0.012478603,2.3296221,-1.2808571,-1.1721376,-2.32992,0.98677504,1.8312732,1.596333,1.9374592,0.26961824,-1.8445179,63.501167,14.109676,-8.6676375,-26.982959,-52.586629,1.0229316,1.6608573,2.0281519,1.1497806,0.61181723,1.8121073,1.5874313,0.95841097,1.7631557,2.3582755,1.0369732,1.409084,0.47531237,0.32503357,1.3391812,0.014019676
2.0821007,-0.33327634,1.6551088,0.18161748,-1.1830596,-2.1135921,-1.1548716,0.40390249,-2.1633099,2.0431829,0.59665535,0.022771112,32.167355,36.727622,31.134633,-70.222761,-33.941234,1.3702845,0.8714155,2.1303751,2.4640398,1.1167734,1.6099437,1.3230236,0.80834883,1.9187721,1.053367,2.4392372,0.50914961,2.0275297,1.9415814,1.9080062,0.04134775
2.063145,1.5193423,-0.84925263,0.43728244,-1.9207841,1.9582477,0.94448381,-2.0991493,1.253613,0.38308434,1.3751412,-2.2701359,64.906563,-65.397228,68.789115,-61.351075,-27.520551,2.3065141,1.8322335,2.3490999,2.071251,1.0153979,1.0420205,0.73805561,1.7507014,2.288995,2.1393069,1.8310142,2.1054311,1.7299488,2.249412,0.61692351,0.003535185
1.5884628,1.6105368,0.33009368,1.4026872,-1.1180334,2.2200615,-0.12261338,-1.4491522,-2.2754575,2.1353666,-0.44886329,0.48935976,49.360187,-53.336076,-19.43614,36.798822,27.802537,1.7835519,0.90719946,0.55134248,2.4130129,0.75721354,1.9879497,0.4700009,1.0550944,2.2216705,2.3657607,0.84016344,1.1268601,2.3878243,0.41306951,0.45922484,-0.030722579
1.7107147,1.6960426,0.14685222,-1.1465134,-0.49296943,-0.95745965,0.78396779,0.30698571,-0.55716964,-0.83318426,1.8921372,1.9497767,-1.7667001,7.0706281,36.046134,-22.623339,19.549003,2.2764562,0.64900621,1.3473458,2.3413196,1.8082519,2.0393729,0.74087122,1.8225908,2.282909,1.1016875,2.3122226,1.0247003,2.1386478,2.004164,0.73408068,0.01080964
2.2389442,1.5088756,2.3063658,-1.0215104,-1.2926305,-1.1281354,2.0810233,0.4068375,0.041478447,-0.30531752,0.3200619,-2.2679243,48.069284,0.45510797,-1.0003341,-12.614856,-67.892272,1.1437736,0.90329732,2.467996,2.3582331,0.32312618,0.7816586,1.0860723,0.86717576,0.62307326,1.9922653,1.002905,0.32499833,0.7468914,1.7537454,1.6995952,0.024440979
-1.6303087,1.9439079,0.26726225,0.96988243,0.6605675,-0.23043367,0.68507016,1.6078695,-2.0878725,2.2874676,1.7978303,0.29573109,-38.765791,63.347223,-23.215215,-28.126338,-69.37114,1.8136856,1.1136342,0.60066276,1.0890683,1.7204586,2.4971221,1.3807957,2.0336989,2.1279099,1.5314503,0.58497928,0.74668552,0.54351193,1.3050124,1.8435095,0.001262558
-1.5947332,1.3880969,-1.292599,-0.59804631,0.16133256,1.8926345,0.88191481,1.8788904,0.79311551,-1.4561265,-1.6821464,-2.2135262,50.14867,-1.3108922,17.835088,54.322859,-45.705154,1.1271771,0.96521038,1.2908452,2.235227,0.71065598,2.4950054,1.8063727,1.9567035,1.8158025,0.69341045,0.64950528,0.73521599,1.2751886,2.3453865,0.4103487,-0.061002154
1.2682394,1.1644882,1.0018594,0.8858273,1.6626813,0.21737145,1.2604314,1.8828442,1.2696402,1.1455741,-1.1579483,0.52881278,6.0743479,-58.435286,-71.858707,70.716946,-60.295041,1.6937201,0.85407605,0.95625124,1.4646723,0.99704115,0.77068036,1.0747642,2.0624856,2.1949613,1.2146666,2.1507905,1.3360773,1.9516105,1.7185006,1.0902838,0.013701675
1.0992502,-2.179555,2.3312148,1.9259795,0.53740741,-1.4433329,1.2827238,-0.44030191,-1.70355,0.91113367,-1.8405744,2.2995339,62.549129,63.216295,26.27115,-60.790073,-48.754622,1.8409486,0.32261565,1.2012832,2.2172283,1.9559311,2.3348026,0.27685818,1.6553875,2.3481297,1.5151867,1.7434018,1.1043469,2.0078211,1.448816,2.2508621,0.017984056
2.3350995,1.2417149,-1.6691499,-0.55114795,1.4132111,1.3981937,-1.2429601,-0.40932185,0.61550009,1.0161468,0.68133727,0.13035419,-12.669284,67.34408,-48.053288,-31.616976,63.484388,1.8567078,1.9377832,1.0727556,2.0527746,0.98220932,1.2420246,0.70681496,0.93909294,1.0851137,0.50590592,1.5108552,0.94325847,1.345129,1.0832685,0.99342663,0.02566801
-1.264299,-0.91142486,1.6589422,-1.3637054,1.2627373,-1.7749116,-1.5174416,-0.19245497,-1.8917962,-0.92969424,0.9107383,0.93918807,-49.950365,34.210156,20.088399,-24.278961,-56.499572,2.3002962,0.82763463,2.055292,0.54309942,1.1219019,2.3050471,1.927022,2.459326,0.64267569,0.70037779,0.74956547,1.6968255,1.2958787,1.332495,2.4940582,-0.0031194059
0.54580071,-1.7487828,-0.62174086,-2.2322681,2.3116209,-2.2350839,2.1096127,0.24558643,-0.48167614,0.35333352,0.86629126,-1.5246896,16.335711,54.297441,-22.909868,3.8513409,-70.512921,1.965154,2.0929623,1.4175539,1.0776636,1.2929277,1.2351808,0.43381056,0.30415435,1.4220917,0.84460878,1.589817,0.55457553,0.50089983,0.62341964,1.0639453,0.016487926
2.3112391,0.77311884,1.7518531,0.38902771,2.3052205,-1.4219752,2.100011,-0.90912725,-2.1366006,-1.4419954,0.20045969,-0.23217072,-7.4872338,12.061302,64.309902,-43.472078,14.77708,0.75069759,0.4743766,0.34755909,1.9256715,2.2606168,2.1872531,2.16289,2.1930497,0.58690029,1.5331999,0.74071279,1.409831,1.7799024,0.3196211,0.37182585,-0.027744743
-2.2994552,-0.64108844,-2.25216,-2.1454793,0.13054703,-1.8693131,-0.048148587,1.2975999,-0.17523682,0.037949041,1.637022,-2.210116,74.548129,-19.59329,-54.431753,15.520442,2.0709307,1.4669797,1.5285283,0.97500328,1.6300834,2.3109721,0.25748854,2.3598923,1.2090512,2.2730712,2.2582417,0.51867864,2.4319811,2.3071729,1.6547342,0.36832448,-0.051673299
1.684993,-1.781149,2.0364709,0.88521332,0.76825822,0.17002663,1.9298757,0.046841245,0.29185035,-0.46802438,-1.1085982,0.57569954,39.710307,61.129946,60.999667,-28.593835,23.418227,1.2271121,2.0723111,0.83318796,0.89009868,1.1385538,0.92311804,0.34492449,0.39595254,0.77437196,2.3695509,1.5424988,1.7779087,0.56086068,0.38536623,0.60020389,-0.0074036911
2.0980495,-0.88809846,-2.1348545,-0.36946248,1.3728138,1.0259289,0.15578797,-1.7597837,-1.7319082,0.24598828,1.5598965,2.1610289,64.632145,-27.531026,36.048719,20.822402,12.118544,1.0204247,2.2781912,0.55967066,0.63484675,1.8693548,0.74661712,1.6439924,2.08065,1.4838974,2.3641569,0.88466265,2.0251997,1.0320747,2.3298626,0.50099403,0.0059342389
1.7416708,-1.0998882,0.88099108,0.49089658,-0.8942497,-1.846309,0.16683618,0.14428176,-1.9367782,1.7524751,1.4178447,-0.83442343,-2.7028352,23.449322,62.757568,-33.556428,17.116222,0.96013928,1.5608387,1.7662668,0.64657727,1.0241448,1.8020926,2.0199985,1.3644082,1.109325,2.4259327,1.9015876,2.4830997,1.9565983,2.2969277,0.46310772,0.0099152684
1.73104,-0.70096923,-0.21736317,-1.1212798,-0.50647472,-1.746154,1.1491131,1.7742664,0.09798215,2.1622388,-1.196262,2.1884206,18.727512,53.295796,-57.552236,69.565895,-55.997463,0.63451302,0.76032512,0.28422842,1.7770631,2.0988276,0.99550355,1.9281421,1.0344579,1.883888,2.0064023,2.3537746,1.8898413,0.81309557,0.69721155,1.534467,-0.085020348
0.86428653,-2.2315422,0.37458065,-0.17462867,0.83430579,-1.8922359,1.1045209,1.5828851,2.11486,-1.0976972,0.0064214815,-0.45910745,-64.875444,-11.591559,30.671571,-52.903662,48.156573,0.88780235,0.79406011,0.26828278,1.5286672,1.0604056,1.4862564,1.5114244,1.5094922,0.53587871,1.2634301,0.46887772,2.4277685,1.254949,1.9278425,0.4982245,0.093856571
-1.4992979,-1.5565675,1.9536674,-0.63875038,-0.65552518,0.15368315,0.56350435,-1.0841754,1.0725339,1.1890796,-0.37998841,-1.178155,6.5982658,47.053073,21.000779,10.085987,15.180211,1.1321757,1.7267392,2.3059916,2.0511998,1.5157901,0.63405195,2.0110573,1.8406051,1.3006996,1.3586788,1.5645307,0.81823813,1.62828,1.252778,1.4391078,-0.038437363
-0.60758791,0.016897273,1.2491329,0.48423757,0.28501879,-2.1888114,2.2674687,0.25746207,1.191902,-0.069365973,-1.873838,-0.69955005,2.319154,-21.97923,45.08588,-41.62138,69.470571,1.2532321,2.3214849,1.4458866,0.26614164,1.5425205,2.1421048,1.606063,1.3512319,2.4047679,1.6837542,2.1072204,0.30337531,1.8287618,2.4990677,0.33141113,0.02351381
-1.7764487,0.92348406,-1.6127399,0.34207356,0.11571891,-1.3289732,0.67124426,0.14300709,0.20175484,-2.0264574,-2.23502,-1.5284727,-57.548118,-11.217695,14.200875,24.103694,-39.211595,2.4359435,1.4027213,1.5376146,0.6888433,0.3893404,2.1440334,0.26948785,1.5323209,1.7165899,0.47602389,1.0336006,0.97485939,1.4617587,1.5290492,0.72974624,-0.036327513
0.46093091,-0.30160855,1.3956492,-1.5960017,-1.0833039,1.5822461,0.79881457,0.080207171,0.29867037,1.0586585,-1.1076683,2.0682139,60.134549,-18.627696,-25.684197,25.707429,64.766568,1.1006987,1.4437336,2.3299705,2.3143149,2.4399881,1.8804614,0.66464559,0.94849902,1.6730045,1.4370005,1.6666523,0.42551927,0.45241543,2.4962116,1.8290268,-0.0120837
2.259335,0.2123528,1.73509,1.3938892,1.8101032,-0.77833002,0.19911701,0.76342331,-0.97962951,0.45385907,-1.348391,-0.5284307,48.332417,72.924673,-5.0178001,-34.166409,-34.828399,0.4613913,0.35351752,0.81898503,0.6814085,1.4326836,1.1124585,1.0899472,0.74181681,1.9652055,0.70951748,1.3603015,1.8379504,1.6821596,2.3056252,0.39231878,-0.012138557
-1.9338112,-0.21843469,-0.28084995,1.5686764,-1.0715964,0.42967798,2.2178693,0.73189301,1.5905289,-1.3638835,-1.7297049,-0.42271215,56.003493,0.7133674,-10.434114,-16.16213,13.079139,2.4412854,1.1842468,1.6357229,0.3453084,2.3482227,0.82843747,2.0485122,1.3448101,2.4731467,1.1759676,1.9871781,1.0021375,0.92471953,0.26108603,2.0729208,0.0014167973
1.4764847,-0.1615413,-0.68861451,0.083311124,0.63052998,-0.84542058,-1.1309435,2.0095734,1.2088136,1.4219822,-1.9813651,1.6492761,35.358334,-32.478702,-19.550417,66.145586,58.866788,0.98661734,1.077561,1.8179352,0.53725619,1.9148575,0.5105399,0.64401993,0.79300838,0.59180757,0.75977619,2.3085063,1.5652843,2.2339254,1.3346547,0.54187246,-0.061000614
-1.3082552,0.1613848,-1.9417679,-1.9993127,1.5975616,-0.97383918,-1.1882091,0.87380494,2.2355985,1.827343,1.5150239,1.9696907,1.8913678,-11.782136,-22.367095,-23.769826,-49.45774,2.3315327,1.57069,0.83680256,0.89058195,0.26089283,1.0757954,1.393589,1.0499149,0.67040135,0.93542839,2.4949647,1.1217748,2.4188768,0.31255285,0.82575818,0.022625698
1.3461836,1.1279795,0.0098716194,0.97869337,-2.0503775,1.0056863,-0.76884747,-0.64887574,-1.1864967,1.3802161,-1.7994633,0.53276182,18.742075,-1.9438968,28.926596,19.291158,-73.501716,2.2249537,1.2973459,1.2430069,1.467799,1.7978804,0.97583966,2.1872071,1.3905096,1.0445068,2.0254555,0.83100544,2.4584362,1.4372119,0.7202505,1.7501457,0.048667198
