Iamnikhilramesh/Machine-Learning-Algorithms/Supervised Learning/Regression/pumadyn-32nm.csv
"theta1	      u  [-3.1416","theta2	      u  [-3.1416","theta3	      u  [-3.1416","theta4	      u  [-3.1416","theta5	      u  [-3.1416","theta6	      u  [-3.1416","thetad1      u  (-Inf","thetad2      u  (-Inf","thetad3      u  (-Inf","thetad4      u  (-Inf","thetad5      u  (-Inf","thetad6      u  (-Inf","tau1     u  (-Inf","tau2     u  (-Inf","tau3     u  (-Inf","tau4     u  (-Inf","tau5     u  (-Inf","dm1   u	 [0","dm2   u	 [0","dm3   u	 [0","dm4   u	 [0","dm5   u	 [0","da1    u	 [0","da2    u	 [0","da3    u	 [0","da4    u	 [0","da5    u	 [0","db1      u	 [0","db2      u	 [0","db3      u	 [0","db4      u	 [0","db5      u	 [0","thetadd6     u  (-Inf"
1.2272146,-0.33075052,1.6950686,-2.0862674,0.99062414,0.54961182,1.043389,1.4394474,-0.61228953,1.1074605,-0.84737621,-1.0124016,31.909067,45.688298,33.222613,72.464102,54.157504,1.7526425,1.1624463,1.985594,1.3783613,1.6179785,1.3647203,1.8548806,0.47748005,0.75724227,2.4708327,0.53576044,1.5256712,2.4554851,1.3379254,1.5124803,-0.036174131
-0.24890161,1.3119767,1.1239811,-1.2177694,-1.1451395,-0.96290005,-1.1173823,-0.97491235,-0.37536616,1.1098731,2.001697,0.77663315,-14.13901,-34.345494,-44.712664,14.261073,-14.141637,2.4475659,0.98975295,2.0277626,1.3560123,1.7494705,1.8513242,1.4564278,1.9314004,1.7962015,2.0078555,2.0276347,1.4568287,1.9205441,1.5850069,0.71100053,-0.0025446698
0.33692345,-1.6190464,-1.979442,0.98533949,1.2658833,-0.73560266,2.0347291,-0.11540182,1.9459106,0.94003687,-1.4405045,1.6959858,-25.709862,44.350435,47.765938,2.1159463,12.708664,1.2928387,1.9892682,2.3798293,1.0418833,0.68250115,1.7967679,0.27834023,1.8142438,1.4960794,2.356649,0.7005474,1.3501992,0.79732091,1.0726057,1.7839711,-0.0064772392
-0.36150648,-1.5700565,1.4394407,-0.72496066,1.8240133,2.1013573,-1.8425032,-1.8434073,1.8108505,-2.3553389,-2.1140532,0.52086129,-47.843398,46.002746,68.153767,60.354229,73.528918,0.63280646,1.3281766,1.9144013,1.8418348,1.7175034,2.3289303,0.58145425,2.2515535,0.60972658,0.42462465,1.1664946,0.27473779,2.0179936,1.4180908,1.102657,0.028190441
-1.609751,-1.2594003,1.3105433,0.59587774,1.0906024,-1.4390887,1.9285256,0.91851546,-0.2969019,0.38972762,-0.0686371,0.95155814,-32.164266,15.188208,-31.793875,-59.652725,16.658841,0.40218069,1.9508027,1.6412663,1.2633019,0.56437609,0.96891502,0.55481523,2.2796506,0.3373554,1.4321317,0.83700762,2.0870626,1.2606974,1.7914185,0.37022131,0.036669479
-2.2315196,0.75319993,1.5545027,1.0427708,0.47458186,-1.7772969,0.80537322,1.9265061,-0.036545544,-1.6103883,2.1669643,-1.8857824,37.679789,-15.79195,-65.310661,23.728378,-47.152127,0.83810822,0.33483698,1.8550762,1.5158289,1.2860374,2.4309208,2.4864773,2.4732522,0.69935046,1.4832468,0.42879765,1.5520997,1.1389867,1.4491703,1.454841,-0.018864625
1.8602699,-1.1450443,0.63688259,2.2502618,-1.4835636,-1.0031862,0.37689506,1.024467,-0.85235709,0.096903346,-1.8320542,-0.58592525,39.703365,-55.545958,39.077139,69.482616,44.319006,0.91790652,0.50484505,1.6808266,2.4029641,0.61680828,2.4467081,2.3227297,2.1172684,0.4304503,2.3282657,0.66157395,1.0733999,1.6322313,2.4111921,1.6548203,-0.0028767667
0.92249577,0.6267299,1.2601231,1.4136885,-0.0027396283,1.0789575,0.76642897,-2.2998128,-1.9388103,0.58490637,0.47788458,1.895345,-21.853387,60.116779,-17.29486,25.28291,-20.136315,0.90939478,1.4480149,2.2862395,0.82729508,0.8484777,1.3647012,1.5331757,0.33381398,0.41157211,2.2924975,0.2552748,1.1535774,1.4247744,0.93402237,1.3638943,-0.024614328
0.2010564,0.37207344,0.098087807,-0.7743719,0.74977231,0.49506302,-1.554843,-2.0497975,1.3297463,-1.8142757,1.3380172,0.53504136,38.258673,-36.488746,-66.360991,70.822668,66.582705,2.2077401,2.2373279,2.2701994,1.2413301,0.28415305,0.51035345,2.0105099,1.6406983,0.7163151,0.85793188,0.51114207,1.7647011,1.3310524,0.74761206,0.3658482,-0.066950969
-0.65823341,1.7603879,-2.2515792,-1.8083634,1.7446828,-2.3126743,-1.3324234,-0.76751547,-1.8238585,0.5013275,0.059850108,2.161905,-66.669687,-17.435607,59.759279,-25.794591,-29.696192,0.56651856,0.97744323,2.1383056,0.75216411,0.37226263,0.86796321,0.35766521,0.77911344,1.0595739,1.0083218,1.3641117,0.62602529,2.1070128,1.3135757,1.7672998,-0.001588664
1.8493223,-1.358637,1.6242793,0.39292884,1.8980051,1.6110057,-1.2151177,1.011083,0.39691318,-1.8230019,0.76098722,0.48858121,-67.148619,33.154958,-14.616174,45.955534,24.663232,2.3490297,0.89272892,0.34487701,1.8479857,1.5959151,1.7954066,2.1483606,0.99634116,0.25592165,0.77510277,1.1522529,1.6643263,1.8316602,1.7132388,0.40456908,0.017552122
0.45550454,-1.9673266,1.9748076,1.2360658,2.347421,0.98438119,-0.70305844,-2.3439827,0.25422591,-1.3618841,-1.1132843,1.9276377,4.2220342,9.7282001,1.8590455,44.978225,-50.971905,0.8528335,0.32264144,1.6346136,1.9514822,1.8114104,1.1253069,1.0332592,1.9876161,1.6144402,0.3968303,2.0268002,0.93060932,0.25084753,0.99450468,0.89014569,0.029860423
1.1593389,-0.71903868,-2.3177745,-2.228554,-1.2400228,1.8333063,-1.9320015,1.9226484,1.1004321,-1.1646176,1.5355156,-2.3443963,-63.165458,-71.851156,47.620349,-44.790968,48.206602,2.2504503,2.3188445,2.0701088,2.0679695,2.113995,1.6646569,0.63904176,0.3748791,2.0930759,1.0774267,1.8098731,2.2875056,1.8561992,2.3891399,2.2738736,0.010457696
1.8185817,0.34745704,1.060563,-2.0853506,2.2611523,-2.2296855,-1.4077691,0.52978447,-2.3275687,-1.906993,-1.8733985,1.9747882,28.93456,3.1549434,-74.865757,-68.78453,-11.590493,2.1037391,0.2935209,0.45575023,2.2941935,1.7609778,1.7539708,0.98801381,2.0481224,1.5431001,0.63282946,1.7146838,2.1909531,1.3495727,1.5189309,1.6721417,-0.050871719
-1.967452,-0.13260367,0.29004294,2.1414164,2.2699763,-0.0089846544,-0.20863893,-0.57711072,-1.4032899,0.41387888,0.57628027,1.583066,14.09075,-26.767285,-27.766922,-28.665117,25.376795,2.2419914,1.8999825,0.25565769,0.83874883,2.1016573,1.304256,0.3803298,1.4530134,0.79667656,1.4929201,1.0075081,1.1881419,1.8511926,1.4936921,0.48274979,-0.024635423
0.42048452,-1.5002267,1.6837761,1.3283843,-1.1445244,-0.048967006,1.679594,1.7260168,-0.30217472,1.3047871,-1.900982,0.19290744,2.2838215,-15.81165,53.603397,12.292548,50.858267,2.4983701,2.1058156,1.4422386,1.9547307,2.4095985,1.8725778,0.91446839,1.2202133,0.87541558,1.8596657,2.1521995,0.26715826,0.62885421,2.4027343,1.2553462,-0.0031209099
1.0011081,-2.3178562,1.1107961,-1.335754,-0.19556561,-2.3361425,0.07783474,-1.8756668,1.5496381,-0.60647394,-0.11021919,-0.48502751,18.322413,-5.1970085,-46.12153,35.441178,9.881695,1.8497248,1.5741642,0.72747701,1.7061556,0.60792063,1.5720198,0.68693505,2.0673429,0.58183666,1.9287479,2.2167189,2.3941336,0.70378317,1.7337471,0.83786749,-0.038388754
-1.2274153,1.669312,-1.4374024,1.995464,-0.30929858,-0.61610941,-1.8322717,0.47167756,1.246415,1.9277443,1.9244975,-0.80915676,14.545872,-27.52285,23.462545,-15.000937,29.24458,0.829719,1.0872067,1.9336963,2.1342853,0.68324229,0.75313309,0.90791767,1.3722922,0.86555985,0.46446645,0.28769594,1.5556365,2.0828928,0.92969889,0.6992019,0.016997939
-0.2905368,-1.017016,-1.153431,1.0541553,-1.3937645,0.2864282,-2.0627467,0.46130309,1.2412238,-0.49827966,-0.6710719,-1.9585123,-21.625264,-5.8094883,9.9297247,-61.117652,-4.3706052,2.0235725,0.68254755,0.3267204,0.43969321,2.4238378,0.44227651,0.84122783,1.0161793,0.67551725,1.4184099,1.9645222,0.47390188,1.3689298,0.60274444,2.3257798,0.011784677
0.53758015,1.4599313,-0.34454595,0.74233427,-1.9939037,-1.7422755,0.36080749,-0.75320628,-1.6610885,-1.7223338,0.94205113,-0.57362568,19.766756,-30.129867,7.3221518,63.405488,56.031455,1.6848389,2.3375443,1.3569199,1.2524968,1.2139256,0.94800002,2.2863846,1.0162931,0.33746795,1.0739021,1.0723131,1.3665303,0.77396062,2.2061276,2.1373426,0.034936152
-2.2168174,-1.902075,0.67271591,1.3151984,-1.2775563,-2.2445243,-1.0459696,2.3121396,1.7704334,1.6495011,0.1798979,-1.8097024,-60.816122,-36.555458,12.42474,22.601711,66.95919,0.37152259,1.9301935,1.7618724,1.0393106,2.4428069,2.0054605,2.2739899,1.9485961,0.55400814,2.2147428,0.68238978,2.1750369,1.5955413,2.2622036,1.856479,0.0015529268
-2.162565,0.42604758,-2.2495497,-0.68438792,0.43369693,-0.92141533,-1.3172758,-0.65123413,1.5875559,0.50604641,-0.7400548,-2.1065703,-30.198549,52.98121,55.188657,-44.239315,19.828036,0.62212295,1.7703733,2.1642716,0.66227314,1.5746523,2.1805549,2.08554,0.41999021,2.0254057,2.2429774,0.4709263,0.85832455,0.36074947,0.86628172,1.346908,0.053901521
0.74904861,-2.2432942,0.77854032,-1.3770253,-1.1219103,-1.6779102,-1.7007907,0.16179915,0.30987836,0.93578057,-2.2903314,1.9061866,-71.781218,23.067835,-48.890183,2.6905337,69.799525,0.93412911,0.90788007,0.74029335,1.1103228,1.1956859,0.39291779,1.5192974,1.0811989,2.209328,1.926153,1.3532666,0.60133116,1.0727648,2.2077367,2.1804146,0.012270341
1.261672,-0.82848605,0.74433484,-1.3571618,-1.8549911,0.32934193,-1.807266,1.3393,-1.4673274,-1.4397007,1.0685493,0.19397267,-27.83597,10.84711,57.381157,55.108607,-39.642671,1.7594124,2.4440281,2.2808084,1.7973741,1.4660249,1.2301766,1.8279485,2.331163,2.1062691,2.3147721,1.1240662,0.43007833,0.5764778,1.862374,0.4192733,0.013366761
-0.31130688,-1.3829303,-1.4074959,0.40903019,-0.80506167,-1.4027298,0.40162198,1.9196088,1.8502523,0.13527876,2.2585554,1.2472125,38.037267,-7.64558,50.737307,-8.0894712,-59.742146,1.581206,2.0788034,1.9491423,0.73521387,1.2395826,2.4142193,0.78393537,1.1017645,1.3564556,2.4485344,1.5184699,0.67384243,0.26978887,2.0914816,1.2812903,0.017247654
0.044869942,0.14687823,-0.70936418,0.060278514,-0.06265249,-2.1376489,-0.21107056,0.96604199,2.087724,-0.070624416,0.53746612,-0.45654762,-45.410699,-17.615148,42.213782,-12.967084,12.211106,1.8558873,1.6480571,0.6461722,0.96609578,0.42171587,1.7786955,0.28574988,0.34824152,2.1451745,1.4485673,0.32000198,2.2733107,1.7824493,0.37492838,0.67127799,0.014234124
1.6634598,-0.83508048,-1.7032334,1.5201048,-2.1715621,0.0089025035,-1.1720712,-1.2144204,-1.4074005,2.0130541,-1.5520605,2.3043789,-45.485333,-71.993524,54.835127,13.973317,-50.468044,1.8788861,1.1882771,1.8731132,0.91398105,2.0295325,1.8518877,1.9264265,1.4506226,1.11442,0.30662194,2.3949185,0.39505616,1.4589379,1.369078,0.8437956,0.016272207
0.099691172,-2.1009413,-0.59013628,1.1584177,-2.0642876,-1.8737429,0.89938433,-1.3914356,1.7276101,-1.7982856,1.4765559,1.0353175,-72.274157,-11.760744,37.18257,27.447702,63.528158,1.6412428,0.86719757,0.98961148,1.9001508,0.83366339,2.1306143,1.9844966,0.93353813,2.2253898,1.8770186,1.3011945,0.67602359,0.92850639,0.90691309,2.4882545,0.022694186
-1.1127975,0.68392767,1.2556818,2.1669697,-1.7942071,-0.66196554,0.29563333,1.8513712,0.090664859,1.7026434,-2.0114197,0.74831468,-14.048566,-14.242315,29.417922,27.022499,-32.858357,2.1189907,2.37614,2.0358019,1.4726191,1.8099415,1.1863735,1.3800407,0.59460883,0.59066422,1.7935411,2.295176,0.27229642,1.4859987,1.6808673,0.83671676,0.0046553762
0.6776496,-0.58730403,1.6360738,0.70195066,-2.1373225,0.56113543,1.5127383,1.2539561,1.436249,2.1804066,-2.1550904,-1.1819431,-69.978617,19.385037,4.320154,8.8279452,21.275144,0.94512499,1.2157117,1.7158163,0.97398077,2.4448204,2.0969316,0.62913019,0.2911377,0.90124935,1.7978646,0.71076641,2.1009761,1.1049508,0.90852613,0.3486998,0.005790606
-1.1046177,1.5028719,0.36316832,1.2261785,1.1053796,1.877508,1.1196163,0.82221253,2.2015592,-0.07204463,0.22987368,-0.67196499,59.865817,-35.207395,19.315295,32.160917,-71.471151,1.14051,2.3013764,0.98274907,1.313577,1.7885895,2.3236545,1.9116763,1.0435576,1.8226873,1.6549573,1.8673158,2.4765701,2.4638045,1.6628623,1.976107,-0.015095658
0.64032099,-1.2215285,1.64945,-0.67787798,1.4612769,-1.2913097,2.2220265,-0.082825578,-1.8947458,1.3322427,-2.2693682,0.80556269,12.685424,53.922966,-16.710107,-46.772285,48.210664,1.0245034,1.0780408,0.88189935,0.58245626,1.0923251,2.4578308,0.26241727,1.9470548,1.6502422,1.3714354,2.2144554,0.35183336,1.7633592,1.2788,2.2917034,0.0031857442
-2.0218117,0.44774435,-0.44588917,-1.360802,-1.7751,0.029238731,1.3268991,2.1682289,0.51831083,-1.9571769,-1.7973794,-2.1426282,29.434589,7.1446902,-69.191358,50.851915,-31.870513,1.4093746,0.85901375,0.69406163,0.34386288,0.5533509,2.4186209,0.51128009,1.8345015,2.2166448,1.1488546,0.7988139,1.4152154,2.2747642,1.4623142,1.8642837,0.02263365
-0.74998194,0.6939833,0.61465224,0.9035312,2.3315299,-2.2029968,-0.52723882,-2.0115309,-1.1218049,0.09292605,2.0073773,1.9974876,22.77638,2.6224726,-24.10378,37.762934,31.625847,0.40910158,1.2702941,1.082922,1.9204788,0.48658967,0.86262576,0.65120834,2.3585845,1.730458,1.8068424,0.84985713,2.0487764,1.2847211,0.55766696,0.70865681,0.023581083
-2.0525209,-2.0314119,-0.68159527,0.24594782,0.87984968,0.15696496,-0.82775461,-1.0995074,-2.1430336,-1.1763098,-1.7666185,1.2058846,-21.751336,-24.701527,41.435425,-44.815696,-67.394737,0.57491389,0.32770064,1.1647014,1.6362976,1.0042377,2.4725351,2.1480351,2.2761258,1.8463968,1.8908718,2.3831579,0.73523056,1.5199936,1.5316307,1.3670243,0.03745361
1.9945788,-1.0497008,0.86335448,0.95300059,-0.32927429,-1.7682693,1.7346833,-0.72837887,0.92282953,1.523704,1.7707098,1.5827404,-10.11249,-10.62467,-68.831001,-42.626535,-24.177143,1.4462582,2.0111323,0.85115149,1.3030091,1.9242928,1.5893789,2.1905647,1.5706668,0.44684393,1.1058655,0.53120781,1.5096597,1.1000259,1.3847572,1.1135927,0.042165826
1.6280352,2.2565503,0.53379516,-0.89328405,0.24618379,0.13337412,-1.4783641,1.5619525,-0.98341236,-1.8633974,0.41734204,2.2328586,-57.675652,-54.690012,24.975354,60.770232,15.294942,0.80634683,2.0211269,2.3302034,1.7292037,0.97641308,0.57461782,2.1016735,1.577271,1.1945314,1.2390729,0.59787858,1.5452299,0.42976394,2.0425339,2.1179758,-0.061915103
-0.63980989,0.38690136,-0.44560827,-1.3521043,-1.6774479,1.3566662,-1.7609532,2.1743262,-0.67636143,-1.3244115,1.9420973,-1.8899747,44.872063,-35.2397,-73.635551,57.300489,49.323964,0.44286554,1.7411232,1.0574509,1.32738,2.0249352,1.0865815,0.42601492,2.0328087,0.66656457,1.7006752,0.7481599,0.57346794,0.77559144,0.36531523,1.1030438,0.024532484
-2.1316343,1.9153881,1.5988917,-2.1818303,1.7892999,-1.7036538,-0.83329584,0.01685431,0.52704186,-1.2987139,0.30102557,-1.7690927,64.714578,7.9089045,24.958288,73.948278,-51.295597,2.4985178,2.3386432,1.8257269,0.99263724,1.0041373,0.78501535,1.2530401,1.3454554,2.069614,0.50233285,2.2081417,2.2368435,0.87945858,2.3104283,2.3684748,0.024449977
0.16811368,-1.9467118,-0.26801139,0.57636781,-1.6579227,-0.35091232,2.1275763,0.56808039,0.42695665,-1.107994,1.3069246,1.0370542,-43.211732,40.416391,-71.72365,-59.379264,-37.294072,2.103087,0.58380797,1.310475,1.4031191,1.4735253,1.2904982,0.90398517,0.52873297,0.41506432,2.4860172,1.4913296,1.2763502,1.6171787,1.4220037,1.6165168,-0.018282564
0.36103058,-1.7160989,2.0580777,1.176167,-0.63347959,-1.6047364,-1.8026942,-1.9318831,-0.79990558,0.4326097,-0.34490515,-0.58238442,-16.010437,12.581536,-42.124363,15.830729,-32.943352,0.9411821,2.4475207,2.4797694,2.2350761,0.42339793,0.79908505,1.4723517,1.8151598,1.1404206,0.7984376,1.8407185,0.95662794,1.045843,1.9840263,2.02959,-0.015157876
-1.6882464,-1.0638118,-0.68101694,0.54113007,-0.13771941,-0.86720445,0.31390844,-2.0164441,1.1252757,1.6916658,1.9850588,-0.83100676,25.157445,-28.823159,69.164201,-57.270508,4.5646902,2.4062249,1.421096,2.1100919,1.3144935,1.4424397,0.83385567,0.86231391,2.1598967,1.3834029,0.85178926,0.77214338,0.91372944,2.3006517,2.3022869,0.53564497,0.061618332
0.96334726,-0.79110584,2.2457767,-1.4669045,0.95526477,0.025654554,2.3486915,-1.2252213,0.84541674,1.0664019,1.8021402,2.0459682,9.0772695,11.66899,70.715501,65.42991,30.490524,2.1886583,1.0295384,2.4525681,1.8114176,1.2463887,2.0543796,0.95755582,0.89063121,1.0887603,1.0443719,2.0078668,2.2168822,0.63919938,0.77393879,1.8391844,-0.037552811
1.6700216,1.0644007,1.1541495,1.5977899,-1.8492872,1.9470717,1.6056384,-1.8871538,1.6968636,-0.1912905,-1.1702094,1.8015144,30.349506,-65.84878,-20.449765,-49.20507,-39.618929,0.99489438,0.68979541,0.64153804,1.829867,0.82492191,1.4625333,1.0477155,1.9547884,1.1287104,1.9865013,0.87689717,2.0107739,1.577739,2.3093516,2.2723692,-0.020473611
0.69957311,0.31468609,1.6286299,-1.8842342,-1.0694196,-0.68332661,-0.5784504,-0.35735342,2.2569501,-2.1702508,-1.5150472,2.3509863,-11.318548,-30.836919,-26.090579,-54.354458,-35.369959,1.1815124,0.67945482,2.3471631,1.0196105,2.0940859,2.3013072,2.0697936,1.2717168,2.4935406,1.9366264,1.8804167,2.1627448,2.0014632,0.34178661,1.6575387,0.031111257
-2.3498187,1.129614,-0.79217769,-1.631567,-0.35551733,0.12950584,-0.51904173,-0.90229716,-0.44070817,0.89332015,0.36039631,1.7610137,-36.832088,13.08947,-55.283955,-57.425588,-51.863978,0.95688482,0.86310507,1.9569841,2.0323738,2.3558572,0.89143277,1.0605323,1.3667741,0.37272607,1.9071161,0.9007413,2.2591001,1.4454575,2.0543282,2.344769,0.059423878
-0.1919963,1.1046598,-0.79549631,-0.85902197,1.1775154,-1.5317081,0.36376817,1.8830886,0.66567242,0.74495402,-0.37533098,1.7010001,-43.133752,1.0366221,22.50816,-5.3533074,26.963106,1.6589106,0.81115986,1.9138496,1.5696593,1.5131831,1.8186382,1.1027474,2.1253462,1.1933724,2.0094726,2.2064394,0.62754485,0.6462479,2.2384404,0.71724099,0.0014170447
-1.477946,-0.83635087,0.5072174,0.091178824,0.91607203,1.0478685,1.3277463,2.2694482,0.54018434,-1.8954074,-0.36231139,-0.96102355,68.331175,42.051825,-34.9834,33.995351,9.8562622,2.1879737,0.77411234,0.25617006,0.45023989,1.9318625,0.56336032,1.8968625,1.8177647,2.1711791,2.0074216,1.4856108,1.911171,1.551722,1.5408405,0.90672267,-0.01986901
0.34136035,2.2659676,-1.4104453,-2.0383976,-0.28076563,-1.7265641,0.52830394,1.0635195,0.48050173,-1.2421382,-0.73392929,1.884734,1.4536326,-18.796205,-7.8175277,10.8125,-74.319608,0.78027288,0.29621787,0.78377025,0.57658682,1.4446601,2.15162,1.7775782,1.7576349,1.8202914,1.8881231,1.1850257,1.2261649,1.9034056,1.5382647,0.36430608,-0.015115269
1.6071766,0.40278685,-2.0644442,0.2056083,1.4775525,-1.065185,-0.19913691,-1.097933,0.75466733,-2.0573545,1.5524537,-0.40859641,-42.305416,-27.125033,-40.429499,1.4062678,-64.856528,1.4699623,2.1568695,2.2557142,0.78824591,1.5489993,0.78084602,0.92899729,2.4074481,1.7299017,1.4575204,2.2946747,0.84792212,1.0270013,0.31160867,0.70686317,-0.0030070312
0.78392843,-0.35439941,0.068848754,-2.106674,2.0202398,1.4084716,1.8525983,1.8662707,0.75087188,0.12597099,1.3318332,0.27280757,-2.4696303,42.923614,67.172592,69.758271,27.256467,1.3665857,1.7065508,0.49896279,1.8175353,0.56626768,1.2608361,1.872841,0.83942909,2.2846738,1.5130381,1.6310666,0.83651902,0.62521528,1.9932215,1.3235854,0.023004627
-0.26313428,-2.2770347,-0.8120498,-1.0425061,-0.7372907,1.9381753,-1.8320952,-1.2742334,1.7669055,-1.0953218,2.2294415,2.0181542,-20.975161,-29.52376,-5.8419667,64.065122,42.503395,2.1934458,0.4942663,1.633657,1.6238462,0.98283692,0.54017222,1.4244251,1.8130891,2.3380787,1.3386647,0.4381524,1.277415,1.5142988,0.319987,2.021462,-0.050502291
-0.34097649,-0.52681827,0.34423009,-1.3384709,1.265312,-0.91202842,0.93962967,1.1403225,0.11352816,-0.44971973,0.23250299,1.1072241,-3.4712114,9.3507185,-42.474104,-12.258994,63.087597,0.82359343,1.6348175,0.87806428,1.3763887,2.2143983,1.6419311,1.1865279,1.7249341,1.2176856,1.1411792,2.2993188,2.4016861,1.6374572,2.4931004,1.2889465,-0.0036497447
0.9416799,-2.1005254,1.6870684,0.11478058,1.750164,0.27370161,0.81126209,1.9405746,0.79255777,-1.4052184,0.98760479,1.6396952,9.7341012,-48.960507,20.752248,33.034144,54.850713,1.0140339,0.61738356,0.8655338,2.2765752,0.39979599,2.3711557,1.5140241,2.4531902,1.0185075,1.5547182,2.3993533,0.68089842,1.8597745,1.7306644,0.77617991,-0.0025150148
-0.24971057,1.8530012,-0.7873591,-0.75608346,1.8183237,0.72379593,2.1622526,-0.9643918,2.085097,-1.811863,-0.52456094,0.58405366,9.026562,59.427858,-45.994556,69.497199,-10.582588,1.9515757,1.1329728,1.6235483,0.4765746,1.2893818,2.3903979,0.91780213,1.0003922,0.84178299,1.3466769,2.3494347,0.94956292,1.5540121,1.7815624,1.2191405,0.010707118
-1.1113353,1.6979368,-1.0038753,-1.779666,-1.3139746,-1.7160234,-1.3847971,0.20420594,1.4701337,1.4811294,-2.2086844,-1.8700953,30.005115,-4.0369993,-49.846416,-18.70826,-29.733734,2.3520315,1.8437083,1.7051352,1.4577531,1.7063058,0.88174275,2.4504424,2.0855192,2.3212726,2.3790638,1.6755377,1.2616607,2.231719,0.25102404,1.7110782,0.016596637
2.024096,0.24611993,-0.93993373,-1.5382611,-1.3884107,0.73124109,0.058582653,-0.29064973,1.7973345,1.3878238,-1.1715128,-1.2542274,-40.848634,7.0059537,-0.93559582,25.441043,-62.395231,0.9753942,1.4503184,0.50123381,1.7365699,1.0309795,1.9216669,2.4552539,1.9517926,0.27877342,2.3448569,0.50964199,1.3029115,0.28282143,0.62984487,1.0527088,-0.00071749223
-2.0910489,0.73835396,1.7948165,1.4798607,0.030164679,-1.9602463,-1.5487337,1.668957,2.0213373,1.0044534,2.0707176,1.5582312,-72.147016,25.097508,13.823331,-21.276623,3.7951328,1.8969544,1.1126665,2.3359452,1.481207,2.1457021,1.3155345,0.93822556,2.2569474,1.2652383,1.6106105,1.2804999,1.6111522,1.3853339,1.8073708,0.73152815,0.010506582
1.923952,-0.55112556,1.7894331,0.53571738,-1.5733376,-1.8701825,-0.5221232,-0.85627511,0.22013578,0.59677125,1.9705988,1.1837145,-32.349417,53.344744,15.108742,-17.371224,-58.160255,2.134018,0.69122526,2.1729038,1.7438946,0.38656105,0.43155019,0.56410097,0.84505693,2.3718913,0.37727115,1.7961644,1.3844324,2.4049291,2.14258,0.59164803,0.0088400946
-2.1920606,-0.50509482,-2.1161005,-0.90074306,2.1172459,1.3029781,0.6813144,-0.25409227,-1.1044214,0.089921665,-1.3634375,1.0533951,-1.0993543,-26.84806,-35.352413,-18.009795,9.3728783,1.8244839,0.35043408,0.74558724,2.3348126,0.44592536,1.4175714,1.373201,0.38999908,1.9644562,1.6154297,1.2773817,0.95414599,2.0816451,2.4595392,1.9756286,-0.017980303
-2.0622187,-0.087976541,1.0684205,-1.9704196,1.8274263,-1.798362,0.19273194,1.8345139,-0.48581584,1.4632099,-1.7890609,1.007078,-29.935406,-24.36961,69.963429,25.351277,-71.087563,1.0948621,2.3472934,0.96036976,0.93462736,0.28199735,0.27938419,1.360005,1.3537173,1.4273583,1.6116786,1.2324907,2.4705682,0.58919309,1.8182621,1.5304693,0.019075097
1.5146097,-0.28062782,0.58962993,-0.24372219,-1.1727707,1.1665551,-1.9582142,-0.3813494,-0.49036894,0.33759389,0.22417455,-2.2094789,-34.566923,-16.269816,3.2015073,-42.266007,35.225293,1.0975559,0.3728024,0.93997349,2.3844003,1.3665864,1.7171692,1.2128568,0.98505622,1.8398342,1.8427855,1.9457171,1.6672121,0.83437844,0.6484367,0.77565318,0.014456076
0.058564852,-0.58982756,1.6345808,-0.82875983,0.85542632,-0.34864704,-2.2112589,1.9828773,0.20347841,-1.3328389,1.674123,-0.69015376,-70.820306,-26.884229,-43.239427,24.947775,47.249208,1.6366957,0.94449791,1.9263158,1.8403377,1.3056362,1.0773655,0.78113601,1.3029431,0.81462323,1.6225492,1.6843519,0.9030619,0.7613202,1.2586728,1.5132532,-0.026816709
-1.3154607,1.5809079,1.8699038,0.55089652,-0.92656143,1.7275817,-2.27534,-0.60297246,2.1905946,-0.57153807,-1.991554,0.050934533,-50.868908,46.261254,62.898093,-71.744844,34.401582,0.43591218,1.8759715,1.7025525,0.80043562,1.6715364,1.511503,0.58093163,2.4679488,1.5662534,0.52107726,2.2455857,1.559285,0.40254489,1.3219118,2.3711332,0.053867332
-0.49959188,0.83635521,-0.43426699,0.76527406,1.8516427,-0.058450828,-2.2061563,-1.792222,-0.28453312,0.92658717,-1.2950794,0.1248015,16.735217,18.785768,-17.598408,23.549843,-47.789144,2.2427367,0.92622149,0.75460767,0.94111379,1.2995156,1.707969,1.8350939,0.92278434,1.4864407,2.3583246,1.8609138,0.62857527,2.2146198,0.86429714,1.7420179,0.019963943
-2.1575023,0.69210499,2.0325819,1.4955686,0.1392418,-1.8204544,1.163855,-0.2155665,0.80102579,-0.4548369,-0.94879074,0.39825886,61.887277,39.472445,-36.621343,-44.911029,-19.659532,1.8588028,1.1494892,2.4651906,2.4584221,1.2005601,1.3134971,0.44531452,2.4011555,1.720004,1.60749,0.58427765,2.4544915,0.38813413,2.1203228,2.264837,0.049435373
-0.54451359,-0.1805618,0.076275891,0.19910531,0.56684813,-1.4339547,-1.31973,0.51204535,1.1238488,1.271181,-1.2329491,-1.8019841,18.357125,-21.798704,-70.8182,8.5116998,-43.861881,2.325373,1.5440253,0.43288992,0.58095861,0.67131868,0.60301386,2.353984,0.90975285,0.7161974,1.1297701,1.7959622,2.4858844,1.508308,0.88175271,0.36774866,-0.0076816082
0.26536151,2.0109262,0.38242916,-0.21161005,1.3235041,1.6571712,1.8572943,0.6810342,-0.25102494,-1.3879564,-1.0579743,-1.5299983,26.248832,14.125311,-45.904725,-70.706951,-71.718987,1.6598571,0.96886584,1.978198,0.8242358,1.1810278,1.534523,0.47777576,1.2272822,0.43185515,1.1894552,1.423485,1.763205,0.93695304,1.1197107,1.4785127,0.017242829
1.0211606,0.12616777,-0.073372059,1.4817162,-1.7719164,1.7001699,-1.1708849,-0.12623759,-1.1001781,0.72170871,0.069084014,1.8473268,-60.753744,-38.178077,41.066564,55.733686,-33.944071,0.65508152,2.2050683,2.3325129,2.2950466,0.3487415,1.5484,1.9595767,0.60477871,0.51584527,2.0614376,0.33126336,0.29325865,0.5480819,1.612476,1.1333147,0.015732954
-1.5811919,-1.9312305,0.74432198,-1.5732838,-0.9664161,1.0494512,-0.34535606,1.2638488,-1.9424864,0.061426065,0.37469317,1.7163655,-72.891502,-37.479003,-59.609891,-13.430626,21.472175,1.1177543,2.346979,2.4261794,1.5467889,1.8806697,1.9152749,0.77537532,1.2329505,1.199233,1.5095891,2.1636148,0.87414586,0.76939316,1.9408561,0.96775322,0.01971108
-0.20237268,1.0671978,1.040531,0.52899408,-1.4744581,1.2369447,-1.7310409,0.68492604,-0.81435711,-2.1223289,-1.9100732,-1.8058011,-73.664315,23.862138,-49.041644,7.0833204,-50.633258,0.72744781,1.2153132,1.7682305,2.1508304,2.0059363,1.2708977,2.2280273,1.2050751,0.6977034,0.80109697,1.5367749,2.3257042,0.36096869,2.3008229,0.68026787,0.002554551
-2.3309432,-2.0722185,1.4911555,1.3666638,1.3351646,-0.28479561,1.2273202,1.444327,1.2885936,-0.7472079,0.19352107,0.96023359,-40.942201,-65.574205,-55.66635,-34.346499,-61.610578,0.7903404,0.75110817,0.62506834,1.7736185,0.45607458,0.99554931,0.44731768,2.3182766,1.5249534,1.6413678,0.71786748,2.1986736,0.60797713,0.27158537,0.78523267,0.023151005
-2.030559,-0.48444867,0.87942797,-2.2183061,1.3516688,-0.92987773,-2.1732054,0.66442401,-1.3875114,1.7091194,-1.5536865,-1.4611295,-30.064058,63.372439,-49.414972,32.56295,-64.492683,0.947266,1.1996748,2.1850741,1.5402893,0.64162608,1.0595967,1.3916417,2.0718994,0.66349576,1.8731741,1.9373297,2.4503278,2.4091993,1.9124014,1.9799013,-0.013219276
2.2541285,2.2430594,-0.01200155,0.92267726,-1.0354983,-0.76765174,0.59826375,-1.2191935,-1.518343,-1.2052964,1.1444478,-1.2381763,-3.7840663,1.1974878,26.177901,21.979483,-40.830291,1.6044052,0.48885059,0.61190643,1.0612953,0.68997689,1.4415094,0.94782645,1.6192053,1.7328695,1.8375876,2.3350168,1.62735,1.3715561,1.9930855,1.2884401,-0.0052238504
1.964744,1.7423695,1.2191332,0.5048929,-1.277569,2.2548406,0.074333418,0.53867441,1.0015506,0.4074883,1.5546892,-0.53595905,70.793184,21.038526,44.499697,6.4017739,44.61443,1.1458845,0.38104507,2.2244634,2.055598,1.1854114,0.95983246,0.90419271,1.7668773,1.9062841,0.41657297,0.84193921,1.7223514,0.56063223,1.0458101,1.4307587,0.00064322405
-2.3318634,1.3106329,2.1005814,-0.7461999,-1.7145739,-0.58443901,-2.047843,1.1914732,2.148848,-0.061174982,-0.86713312,1.5128326,-59.622866,68.490725,23.620681,-57.210547,-37.667394,2.4867255,2.1446385,1.4394751,0.50843017,1.1859242,0.57792702,1.4694067,1.8179722,1.1588656,0.3036808,2.4632552,1.430748,2.3308398,1.1751817,2.278419,-0.01212965
1.5993713,1.1672439,0.19307292,-1.8594891,0.13032154,-0.94673127,2.0251423,-1.0194729,-0.035072412,-0.413413,-2.170912,1.5095,-42.538264,-40.603934,69.678083,29.548637,-26.063213,0.70864916,0.26642773,1.850942,1.7820332,2.3820518,2.3944965,2.3026516,2.1661046,2.2196037,1.3798941,0.37947861,0.64699936,1.3681694,1.323248,2.3297744,-0.02898492
-0.22224237,1.6970121,2.3045873,2.0732091,1.0219638,-0.51196417,0.24048623,-1.3776961,1.7403979,1.0684077,-2.1863941,0.48304121,-30.958657,27.858967,-74.346951,-49.213269,-27.415465,1.7992769,1.946401,1.912372,1.4860828,0.84433307,1.4558688,1.5365582,0.93435875,0.26754603,0.39608516,0.75332584,1.897383,1.5660626,1.8148055,1.9364593,0.027747882
-0.11286263,2.210475,-1.0209311,-0.98018802,0.4917482,-0.7183465,-0.10902694,0.70350824,0.47908776,-1.4448045,0.1109751,-0.94748205,-37.194816,66.723874,28.143239,53.420212,-66.493506,0.52970998,1.0856949,1.273925,1.3575121,2.2065409,2.3322689,0.44418567,1.4285102,0.72167629,0.9634514,0.97771949,2.2813931,0.37343351,0.2969187,1.3125284,-0.049655761
1.6534554,0.66792944,0.97950361,2.1425254,2.0596934,0.058343428,0.40109458,-2.2319937,2.210561,0.4239518,0.22583524,2.1397066,57.567076,29.838579,46.999779,25.289252,-63.537643,0.9673925,1.9656753,1.8540799,0.52007724,1.188219,0.89734499,1.4271687,0.67477714,2.4793899,0.35556769,1.5261488,1.4828042,1.9903169,2.006928,2.1888689,-0.0026033558
1.9800886,0.45879332,1.470974,1.4672804,0.65052323,0.60156522,-2.2800734,-0.046887152,-1.0633987,1.5493859,-0.1323638,-0.39078463,36.698694,-5.0566434,62.994652,51.112302,-5.5397423,2.028276,0.98490142,1.4881788,2.3210598,1.0522037,0.88772041,1.6669752,1.3525389,1.8720031,0.25576804,0.44338117,1.4072736,1.5475685,1.4840545,0.50398927,-0.059219008
-1.2090547,-0.76136541,-2.1322828,0.44160306,0.010058738,-0.58878782,0.25996799,0.89746263,-0.70264135,-0.046309111,-0.77304785,-0.55886677,-34.458177,11.42611,38.635475,-3.5711395,-20.141558,1.8376032,0.34674428,1.7311766,0.3858396,1.8061348,2.4572018,0.94146553,0.46121445,1.8812386,2.4766485,1.5311586,2.432207,1.6029522,0.81756144,1.5050824,-0.0020078748
-1.47614,1.2435468,0.84616362,-0.51790939,-0.72064676,-1.0704621,0.64426302,-0.94128392,-0.66909479,-1.7159533,-0.20719009,0.2116299,-31.513539,1.9526613,-31.621021,-4.5040641,50.194474,1.6528666,0.47934008,0.51875272,1.4269961,2.2727418,1.2215864,1.4519858,1.5252688,2.4424455,0.43136832,2.0073853,0.87440856,0.68472156,0.8651838,0.89412543,0.0059673884
-0.12330717,1.0274924,-1.8412761,-0.069571738,-0.61973377,-1.4858423,-1.6021928,-1.4643679,1.1756828,0.65304916,0.64333215,2.2631008,71.397156,-27.998148,-14.869513,-11.900832,-67.290619,2.0735409,1.2521048,1.375553,1.6689143,2.441969,1.4235251,2.4367795,1.9538051,0.35286413,1.0874541,1.5916644,2.3528722,2.4731008,0.40460846,2.2543165,0.007491678
1.4078257,0.42174265,0.79573175,0.10362123,-2.0218452,-0.11468932,-0.21625061,-1.2720369,0.98394801,1.4412093,0.72563829,0.14002949,63.45851,47.172773,-67.211829,20.795769,14.483484,0.98373187,2.0815872,1.4854263,1.0590585,1.3461335,2.2149994,0.49454511,1.819588,1.3158523,1.779928,0.75022207,1.4822761,2.1152142,1.9051736,2.0034998,0.012050893
-1.1606688,1.930681,-0.55492613,-0.82563658,1.511469,-1.2293942,1.3976909,-0.26862809,-0.36371379,-0.96910623,-1.7520394,1.1922838,52.082555,-48.492883,-69.882911,-22.084768,71.303855,2.1832409,2.2290846,0.97517915,2.3360385,0.79836699,0.6539377,0.98085615,0.99929204,0.35133407,2.3716679,1.1216059,1.8302703,0.85275335,1.22551,2.1468695,-0.0073021064
-1.4445307,0.0010269279,-1.5899788,1.1847036,1.4706839,1.303978,-1.362281,1.642063,-2.3087738,-1.7506661,0.71132582,-0.077840502,56.621523,37.938738,-13.631747,-58.778579,8.4240884,1.1298114,2.4898402,0.49464334,1.2205684,2.3437989,0.72825038,1.2042015,1.7637755,1.5245293,1.2640087,1.1943879,1.0769291,2.4479239,0.25679085,1.8838917,0.012504567
1.4501613,0.38598738,-1.6698141,-2.2887052,0.96354728,-2.1418011,0.68781023,0.53641725,0.76452998,-1.2293012,-1.7518701,-0.6749653,-45.248167,14.053429,-54.016346,-52.720329,-20.575631,0.40545567,0.74345032,2.4195258,2.2207585,0.53796521,0.33130302,0.95984226,1.0688047,0.90117529,0.55302581,1.4547977,1.5352437,1.3409175,2.3000451,1.1074,0.018508949
0.41272709,0.067643837,1.2042289,-0.23560383,-1.3868235,-0.86592346,-1.7184076,0.9558681,0.74116838,1.9728153,0.7375903,-1.6152893,-3.0116574,-66.925594,31.539339,-18.326411,-61.996676,2.4529681,1.7842728,1.7721725,0.90394777,2.1502031,0.46395188,0.63929572,2.3932224,1.139089,0.91914406,1.054159,2.2502536,1.262499,0.57016978,1.593443,0.0014764653
-1.3146521,1.0342406,-1.5215206,1.9382846,0.0049053732,2.3339939,1.5100483,-1.5457274,0.36016996,-2.0433982,0.49694321,1.7711864,5.3597806,-68.166791,20.750049,-3.925494,24.223096,1.6387269,1.332651,0.61592904,1.1694331,2.4120784,0.80092309,0.86434796,0.34619371,1.4777198,2.0370241,1.7648721,1.954948,1.5612983,0.49049414,1.2350474,-0.002159349
-1.9555788,1.4998891,2.0675768,0.60610865,-1.316844,1.8941316,-2.2304645,-0.3622139,0.67748403,1.3423476,-2.0829011,1.0187633,71.503827,-35.178088,61.872931,-51.642731,-59.375347,1.8031378,1.587155,0.81347451,0.31608389,1.6718621,2.4863144,1.9860226,1.8314052,1.9276383,1.5677331,0.64103456,2.367844,2.1033946,1.2538723,1.8314023,0.022747896
1.0550248,-0.91787204,1.6861559,-1.0845675,-0.80528761,-0.48770858,-2.0737045,0.078058241,1.8807262,-1.3400085,-1.0151502,1.9313605,45.860831,-67.020703,-66.959407,63.249841,-9.9297312,2.2901095,0.62031689,0.66590188,1.8129495,2.2430089,1.0004389,1.6262258,0.47783588,2.2375823,2.0462732,1.9637934,1.7250274,0.53630714,1.7140967,1.3239344,-0.036458921
-2.113947,2.3061917,0.76478513,-1.6534746,-0.98986278,-1.8906568,-0.62917671,0.027887519,2.1790264,-1.7900121,-0.84262775,-1.3157422,49.756213,2.668141,-6.5541378,-55.393843,45.685489,1.1651095,1.7457835,0.6338425,0.74091688,0.34002301,1.2666854,1.1816673,1.0328711,2.2148911,0.92432141,0.31985728,2.0913388,1.1315083,1.7604055,1.1352965,0.039121469
2.2060571,0.12461538,2.1099775,1.6640564,-0.23345487,1.7440998,2.0256811,-1.3882943,-2.0249852,-1.052207,1.1527042,0.86898078,40.316654,51.996016,-2.9566943,-43.16123,-10.78921,1.6111676,1.6445433,2.3389141,1.8797992,0.78598874,1.86276,2.4076426,0.49847523,0.37320932,1.029015,0.4044181,1.3049652,1.05035,1.2322005,2.0941923,0.041002352
0.97291926,-0.13579638,-1.5335752,1.969901,-1.118858,-2.214817,-1.2681728,-0.045116125,0.42791676,0.89137453,0.64711508,-0.13055653,54.418858,67.739218,-6.9606523,12.317277,16.471345,0.38350676,0.84807921,1.417274,0.87366549,1.6959376,2.1232034,1.1799312,1.1031358,1.9026849,0.6750173,2.0157831,0.26615356,1.7429323,2.2131303,0.5804498,-0.0068513417
-0.53444228,-0.55792989,0.52648553,-1.2242389,-1.4935208,1.291509,1.1283079,0.81678253,0.47480328,1.9442069,0.57941593,-2.2644975,-68.631501,10.368497,-36.675041,-47.419757,-33.852164,1.3251573,0.66839515,0.96734585,1.1817079,1.7138416,1.534953,0.95450426,1.3531734,1.2854742,1.9655709,2.3507012,1.984595,0.3387624,0.32970205,1.0523269,0.012894824
-1.3965261,0.99600512,1.4523379,-0.73159045,-1.2178168,-1.9409555,2.2302498,1.4666923,0.19118412,-0.61781329,-2.1950317,1.3950774,-56.708087,7.1842184,-4.8417854,74.113125,19.289601,2.129839,2.4543137,1.9006407,2.3185261,1.2178407,1.4986809,1.0797723,0.73237512,0.77859747,1.38763,2.1473565,2.1205974,2.3812111,1.7649279,0.64357818,-0.025361989
2.080617,-1.7088289,1.7237012,-1.5217762,2.3552294,0.27299574,-1.6275485,1.2105059,1.5898636,1.5923972,1.7625096,0.42227908,12.309367,33.529115,-26.160954,-37.153253,15.284854,0.51306639,0.35687856,1.057887,1.9063834,2.0866419,0.94055108,0.84205464,1.4122834,2.4966015,1.6315293,1.8622712,0.94271363,1.1879952,1.6357806,1.3146668,-0.027347854
1.5301368,1.50259,0.3383537,-1.1429083,-1.1622911,-1.7738633,1.965129,-1.2118765,-1.0630627,-2.2275991,0.67215924,1.3839937,13.689028,-28.506391,-6.9117175,-65.235405,-61.44739,1.4306854,1.2803552,1.4299904,0.84855405,0.3979988,1.4158353,1.4440996,1.7323537,2.1691832,2.2120162,2.1063427,1.3012641,1.8449838,0.64273458,1.6901455,0.032825131
0.31331383,2.1270695,1.4740352,1.0801838,-2.1849221,1.6614285,-1.9884501,0.38238845,-0.89582444,-0.038591366,1.7045903,-2.2766369,37.009721,-27.614086,-9.9380264,71.589532,55.260478,0.81787012,2.1931611,2.4582263,2.4089183,1.6901776,2.0642871,0.97339565,1.6106079,1.236547,0.89493401,1.4058445,2.2782299,1.2107228,1.118829,2.4092923,0.048420542
-0.31386304,-1.9327685,-1.5425575,1.7998948,2.0071824,-1.2780523,-1.1558247,-1.4778159,1.3500593,0.29372022,-2.0279086,1.6501247,39.375015,-24.120061,64.136238,37.746117,48.991391,2.0996467,1.2618797,1.4117346,2.2726579,2.0617129,0.45867853,2.0101073,1.6230803,1.6101519,0.32372339,1.8190652,1.529166,0.44345077,0.32707907,1.9678778,0.0050275444
-1.5756937,0.94152556,0.017808815,-2.2801356,-1.0913173,-1.1511548,1.6100851,2.1621647,2.2698477,-2.1702421,-1.3675237,-1.649113,51.874769,59.242235,-15.748131,71.157339,-8.6002302,2.2139642,1.0971073,1.8332265,1.0383079,1.3414345,1.9894222,0.46878839,0.92643216,2.0452806,1.0310831,1.4140926,1.4036016,0.58160085,2.4655567,1.86195,-0.030526503
1.9222985,-0.067432148,2.3536343,1.7383111,-1.017311,-1.3980188,-0.5311648,-2.0220655,0.89441511,-0.086108709,-0.52565224,1.0921129,12.298663,3.6251477,27.856778,38.865982,-29.432657,1.7549213,1.2130755,2.4095601,1.2259807,1.058372,1.0586056,0.48347886,0.32923704,2.2368833,1.546817,2.3533922,2.212101,1.2813425,2.2742314,1.5063318,-0.016355128
0.090356972,1.2403844,-0.46783425,2.0869102,0.38775003,-0.31916235,-1.4628983,2.3146444,1.4566684,1.3658803,2.3034174,1.2615224,43.570582,-9.2264498,31.058136,-5.9081799,1.2199807,0.68824284,1.5473625,0.27082741,1.5462025,1.0256077,1.6382227,1.8586008,2.2537059,0.78429316,0.36517492,0.99481983,1.6868563,2.4939586,2.2126262,1.108002,0.0069673408
-1.95834,2.2172479,-0.2867449,1.4523741,-0.12294502,-2.3105362,1.6151649,-1.996164,-2.0312244,-2.2429911,1.1601776,-0.7604746,-41.305479,-21.17883,-2.5980594,-15.58355,-12.720841,0.63730909,0.50390608,1.6494676,1.8517829,2.4156519,2.3619306,1.7179339,0.56460433,0.30503731,0.51205587,1.3729431,0.55479314,1.9082346,1.6985435,0.92035626,0.0069252226
-0.41323059,0.89488624,-1.5925951,-0.37685126,-0.28828744,-0.91107011,-1.8035594,-2.3370749,-1.4553592,1.7889604,2.0163872,-2.0824087,-4.1490798,16.415376,43.218215,68.540757,-35.497379,0.55830699,2.4655103,1.0808,2.2561954,2.1255952,0.87911031,0.9570163,0.82288239,0.93435081,2.3839969,1.3352683,1.8541079,0.99153186,0.42592344,0.49525002,-0.077390458
2.1826282,2.196148,-1.483764,0.34131307,1.4714056,-0.70409479,-0.91242584,-1.0274067,-1.4313933,-0.68141462,-1.430332,-1.6940783,-3.8035892,-26.924217,34.67933,-44.494342,-66.408702,1.6592514,2.0378903,0.57303415,2.4850291,0.63433947,2.3435156,0.46596534,0.72953419,0.28116105,1.9737924,1.0289895,2.2264409,1.5425584,0.52891107,1.1583864,0.0046773749
-0.26058123,-1.7794199,-1.8904661,-2.1371321,-0.95106131,-0.063956511,-0.49239786,-0.77575992,0.9832595,-0.70576273,-0.67115056,1.4317334,53.649664,39.911206,-12.357174,62.97825,-74.551207,0.89306746,1.5347688,2.3588015,0.8770334,2.050392,1.4378514,2.4686691,2.4211011,1.6966691,0.9183904,1.8874151,0.53627754,1.216686,2.3411556,1.3027086,-0.036923884
-0.0041815864,0.40591229,-1.3713731,-0.37383201,-1.3801042,-1.0324425,-1.2455491,-1.5116358,-1.574476,-2.1532922,0.76522022,0.946733,-63.53603,-0.05194227,27.006271,-5.5975424,-27.895176,2.3615624,2.2790289,1.1386476,0.25077321,1.995334,0.82801126,1.6352654,1.654803,1.5231972,1.3757344,2.4682164,1.5634476,0.61355343,1.7425294,2.1920784,-0.0022273134
1.8579004,1.4425754,0.12312085,0.55337659,-1.6555684,1.5195632,-1.8498007,-1.970042,-1.2514034,-0.9451621,0.12378409,2.2755914,3.6568857,-38.721372,59.892456,-37.48781,-57.630404,0.71208,1.6784985,1.5245907,2.2959859,0.38559464,2.1891084,1.8456692,0.91194879,1.6232417,2.0734505,1.9819969,1.6724997,1.9527896,1.2854957,2.3257698,0.01754952
0.18426117,0.83784686,1.0739461,1.3631264,-1.5704221,0.0059971416,1.8337903,1.4899493,-0.056840107,1.303288,1.1781307,-0.61530399,72.564393,-60.252695,-17.047407,-15.772335,-35.633464,2.2504351,2.0631923,0.57249017,2.3423174,0.5781107,2.3064632,0.97774076,0.38896815,0.38766708,1.0206818,2.0990808,0.75039333,2.1106974,2.4906264,2.4585971,-0.01673277
1.0833662,-0.53567688,2.2539376,-0.96506221,0.24228169,0.52421434,-1.6970022,-2.1385495,-1.210266,-2.2699905,-0.22838079,2.2010158,6.9919576,63.830745,3.3348282,-51.542052,-17.26305,0.77367378,1.8852564,0.25367772,1.3113926,1.0758642,0.29883152,1.961285,2.3164052,1.5727515,1.7341119,2.4683095,0.87763161,0.85454507,2.0889273,1.1014322,0.054932121
-2.3106902,-0.97184555,-0.66797388,-1.7264524,-2.3066261,1.3587187,-0.25212556,-1.0366041,-0.50308018,-1.2426938,-0.64595591,0.7632603,31.6078,-67.703386,9.193897,21.826999,-53.632429,0.6214519,1.7420724,1.2602544,1.0953481,1.5162796,2.1111489,1.0799135,0.85540854,0.85134036,2.2273728,1.453857,1.4746532,2.2460976,1.1630103,2.4643798,0.010572362
2.003572,-0.69728167,0.49830348,1.0714509,1.837065,-0.020988156,0.68123277,-1.6260985,2.0186828,-1.1993454,2.2012129,-1.1802725,73.797057,-42.86323,47.697754,56.151176,-67.190406,0.3377183,0.78140516,1.3264456,2.0713742,0.83678346,0.56956385,0.40966767,1.7844923,0.96180281,0.26975439,1.5119761,1.7828828,0.91144056,2.0814484,1.4030176,0.010294955
1.3426945,-0.9640147,-1.0018096,-0.048114625,1.8684055,-1.0689551,-2.3014146,-0.58679308,0.79890185,1.5471448,-0.099416254,2.0091017,-63.908588,38.363502,-74.620021,11.313794,-49.067181,1.7933313,1.0188546,0.6397461,0.96268132,1.5349142,0.30213139,1.1721894,1.4871387,0.58983686,1.3880513,2.4773993,0.64949438,0.55207895,1.2909461,1.6808471,0.0088434495
-1.8383308,2.3084093,0.33728576,-0.24225192,-0.023924981,-1.554093,1.1310199,-0.72633953,2.2114414,1.0830316,-1.4460018,-1.1626818,34.531031,13.035187,-67.605776,-0.27388431,46.826417,0.79877207,0.71225089,2.3006332,1.9922746,1.1594344,0.86364564,2.0422366,1.6210464,1.1775353,1.3350513,0.4572331,2.4666619,2.4360256,0.53198979,1.1524013,0.0032298065
1.1192287,-0.97941303,-0.62000821,-1.3859626,-0.5347148,-0.42585317,0.8045868,-1.865944,0.027714499,-0.7289216,1.2260029,-1.8456084,-69.924139,35.000977,-38.576521,-55.582337,27.65652,0.97193258,1.7708855,1.7720999,1.9327935,0.46046581,0.5488258,0.61522411,0.57159356,0.77302686,2.2623926,0.5332375,1.8725786,0.92892565,1.2033925,1.667347,0.05719096
-1.0972076,-1.190708,1.2870376,1.3760626,-0.92031379,-1.6532488,-1.90706,1.7122054,-1.5241764,-0.28701575,1.612591,1.8673196,-14.943634,-57.657681,-52.641856,-51.667275,-21.886835,0.59438274,1.2907291,0.28414839,0.43199193,1.2384062,0.64240982,0.73186922,1.2759673,1.932289,0.98048123,1.4480748,1.0423486,1.7532276,1.9961658,1.309098,0.018687953
-1.2892632,-1.0821459,2.1957718,1.6181162,0.48298137,-1.9782632,1.9477216,-1.6096199,0.94301619,1.5089092,-1.8403071,2.0798651,-6.6401353,-0.75363008,-66.260773,-44.806097,-56.074483,1.4674787,0.91484884,0.86439028,1.0573641,2.1192217,1.759244,1.8643848,0.4646608,1.3041212,0.36420263,0.40357213,0.58673366,0.9825591,0.37072357,2.0010008,0.045153498
0.41009622,-1.7379151,-1.7517192,1.8620716,0.86138663,0.86615276,0.85985097,-1.3817068,0.30751464,-1.0921395,-0.83322283,1.2440293,-14.969335,-39.61574,28.255384,-11.753322,11.90946,2.3093934,0.72469974,2.2785917,0.54126,1.7068022,2.4744626,0.79281166,1.78555,0.73963733,1.3345397,0.85840315,1.6817134,1.5574312,0.74670803,0.9218484,0.00043117262
0.27460343,1.8311108,-1.1325214,-0.94879655,0.30074577,-1.7592762,2.0860697,0.4001238,0.301675,-0.27874815,-0.80554417,-0.08736023,63.724819,23.025611,-8.5532596,-54.633357,-72.8353,1.4816699,0.92673714,0.42103984,1.6665918,1.6579817,0.94842779,0.47585177,0.39077492,1.5041481,0.71673973,1.2447119,0.87323415,1.1963522,0.34120194,0.8309686,0.046930121
0.97244804,1.3692148,1.7976688,2.293723,-1.4519255,-1.7614599,-1.6296739,-1.5240583,1.6982091,-1.1391607,0.56332203,0.56396433,61.570632,-32.379605,-4.0270358,-32.389897,-27.001145,0.50143519,0.62125942,0.7570622,1.6943699,0.52443213,2.3808744,0.60548269,1.0976427,1.8309078,0.31778463,1.0062612,0.4820521,1.0996779,2.2872443,1.9646081,0.0028967754
1.1391909,-0.055619616,-1.7458712,1.1893808,-0.030253095,0.47424126,1.9230865,-0.96041108,-1.6967266,-2.218034,1.2112939,0.69581515,-50.428792,-56.715104,39.252182,11.42069,-52.464637,0.27766309,1.6835094,2.4926066,1.9883658,0.71458559,1.0399982,0.49912396,2.2763259,0.70877525,2.385605,1.3639887,0.80754524,1.9128732,0.91043954,1.0073704,-0.013920667
-0.52356644,-1.5510063,1.1726268,1.1282173,-0.70470197,-1.6924812,-1.5522059,-0.13942305,-1.2259445,-1.8840891,1.3690715,-0.61039556,-1.5087143,-6.9615356,-2.528563,-47.558983,26.164779,0.64655053,0.57468427,0.96845731,1.8619501,2.295982,0.3196477,0.81882111,2.426323,1.7112747,1.1433075,2.0686067,1.5722996,0.88867921,2.03145,0.32948125,0.034806931
0.97680357,-0.82566691,1.0017381,-1.1529118,0.35550808,-0.2849957,-2.1355168,-2.0761135,2.0007154,-1.5845,-0.98209972,1.3486825,22.785141,-0.1365207,-44.503438,-69.288216,72.950282,1.005842,2.4358545,2.1559458,2.4815923,1.3710855,0.83357283,0.60860461,1.8177608,2.1053202,2.1169344,1.5668246,1.1203109,0.31541913,1.7492876,1.0262772,0.065904746
0.55793662,-0.41329806,-0.23909068,1.2707842,1.5229883,-0.83306906,-0.8839678,1.3155613,0.10952799,-1.7072343,0.2499401,2.0047405,2.9583847,71.572124,62.690838,44.915857,-49.19315,1.5358892,0.94055448,0.89921452,1.3485191,1.8100722,1.1327678,0.42778968,0.36113098,0.52834975,0.72424026,1.3059669,2.135152,1.7498568,1.5940254,1.5347068,-0.01784377
-0.12051961,0.75417958,-0.83013028,1.384182,-1.118139,0.44527899,0.5303304,2.1354929,1.6751813,-1.7523485,0.71055178,1.0500329,0.17441647,-68.582327,-63.166909,53.752877,-25.395961,2.4261843,1.6292182,1.2695388,1.8894296,0.64322727,0.97068675,1.0821232,1.9952482,1.636529,0.39371623,1.4386464,2.3306117,1.8408379,0.71314075,1.5066605,-0.038179466
2.2370709,-1.7018273,1.5898523,1.4028663,1.8911896,0.15955981,0.37244127,1.5677853,-1.9116508,-0.046987591,1.9609148,-1.3539221,24.106401,6.2826986,-6.6848453,-2.1942568,21.125339,1.428534,1.1213729,2.4140608,0.36932665,1.0229555,2.0626318,2.4020441,0.90460076,1.8749896,0.95100709,1.0762207,1.790829,1.7122609,1.9685656,0.93147925,-0.0026428787
-0.0068401884,-1.8657105,-0.76017831,-1.0303434,1.0485097,-2.0315689,1.3928507,-1.5062821,-1.1289254,-1.7719853,0.54155657,2.3180995,-55.197781,40.896088,40.558206,61.773238,72.809483,1.5097629,0.5850028,1.142015,0.59603551,2.0688498,1.1582982,2.0186508,1.2136669,1.099006,2.2434647,1.9117304,1.9535726,0.94477251,2.0415982,2.1407303,-0.040072265
-0.77810165,-0.6750771,1.4119049,-1.705899,-0.86924181,-0.94125242,-0.13955888,1.2036646,-0.29570724,1.6187217,1.2341959,-0.80574764,38.36892,16.436655,-49.136276,66.614429,-11.286371,2.2743606,1.4279849,0.89205845,0.32643729,2.4315816,2.3416961,1.3862001,0.61567378,1.3792894,1.4675564,2.2205807,2.0501196,1.3603059,1.9106065,1.0632158,-0.037857043
0.19401172,-0.21819725,-1.0025415,1.7871712,0.21907091,1.5489871,-2.1225983,-1.7244085,-0.94144956,1.2594504,-0.46870001,1.6733833,32.347712,67.994309,-69.642701,-34.879187,-14.487862,0.66248005,0.55223096,1.5957606,1.4489107,1.5929217,0.98563643,0.34152939,1.8345008,2.2051987,2.2748394,0.47603019,1.1393974,1.6026795,0.73450417,0.56153253,0.039832903
-1.9849387,-1.8632596,-1.9789635,-0.39873923,-0.59317584,1.9086805,1.9615065,-0.83372952,2.1527132,-1.0715036,1.9893711,0.95994686,-44.341778,-52.260037,65.556764,62.540255,64.067611,0.39002421,2.3869569,1.5842693,1.8139964,1.8375303,1.3713814,1.3069937,1.3939515,0.39295472,2.1399911,2.0801009,1.2562207,0.80081557,1.3073313,0.31648047,-0.059843872
0.44440451,-0.029945505,0.93152127,1.5217776,-2.3306667,-2.1383153,-1.9861725,0.96184819,2.2883388,2.3038913,-0.19934236,0.16159267,49.401576,42.291189,-61.981505,26.848822,48.153223,2.2932412,1.5053816,1.1978527,0.81096859,0.94909013,0.35780157,0.82103828,1.4404494,1.132308,1.6999701,2.3968161,0.7883718,1.414778,1.6736082,0.33289816,0.0090367563
-1.2682615,-1.5358788,0.95130043,-0.62944744,0.19009592,-0.057530701,-0.87875774,-0.65425498,-2.0599025,1.1408451,-0.52655224,0.10302281,65.495643,-64.720016,50.685755,25.48332,48.153008,2.2391101,0.72426987,1.8036418,1.0573311,1.5644926,2.4265893,1.6869502,1.8226351,0.778717,1.1465553,0.40469715,1.4950344,0.5429616,1.0556057,1.8154994,-0.03171354
2.0379774,-2.0693526,-2.1787834,1.162625,-2.0390438,-1.715752,-1.5352774,1.6350229,1.8900936,0.58939467,0.51459214,1.5163899,43.462127,-32.02346,-18.297343,-23.451619,48.636909,0.48297947,0.93596081,2.443287,1.0753061,2.1698378,1.9634633,0.67687319,1.7077191,2.1342647,0.33750069,1.6240352,1.9094017,1.0647393,2.3236963,0.36397163,-0.0063944743
-0.74098078,1.1801325,0.042349472,0.19683409,0.093568496,-1.3322065,-1.835113,-0.15825968,-2.0830821,-2.0233205,-1.3488036,1.9607472,17.250695,-17.564337,-3.80411,-35.676055,-57.452261,0.6228117,2.0962191,2.1548028,1.2712387,1.2084029,0.37798455,0.28625207,2.0385523,0.44799305,2.4191632,0.6261867,0.31985345,2.0268887,2.417823,0.60057723,0.041059837
1.1026155,-2.167459,-1.7161472,1.2462185,-1.3747924,-1.2930137,1.8572012,-0.88470737,-1.6895186,1.1173924,1.1441219,-2.0026373,72.254376,-20.695205,25.691786,-48.148959,10.450373,1.2161622,0.28788135,2.4218894,1.44438,1.9454559,1.7775053,0.53188463,1.634988,1.4937716,1.8186641,1.5369759,1.2035613,2.2545624,1.6800796,1.097881,0.017041186
-0.083063517,-1.1813893,-2.3147041,2.2512693,1.3123585,-1.8837791,1.8658878,-0.97160728,-1.3756876,-2.201519,0.74844027,1.6693819,-8.3693314,36.647104,27.877516,-62.593706,-62.421711,1.0496088,2.2756769,1.0509746,0.48047855,1.6530164,0.74641783,0.54448639,1.9326938,1.0349204,0.65664668,1.5106967,0.52951261,2.2683611,1.8449315,2.0131133,0.010091014
-2.0523806,0.32719518,-0.18855058,-2.2442434,-1.0369769,-2.0561285,-1.4032125,1.7151844,1.421291,0.53780316,0.4957109,-0.090683889,-64.377362,-40.32934,34.777293,-48.04304,-9.3801111,1.3520875,1.0351109,1.6095198,0.94953865,1.1460744,1.3216621,0.42512907,0.64422518,1.9926059,2.2265363,0.89521881,1.6925537,1.4994496,0.49864651,1.0019651,0.022812067
-2.2982475,0.80627744,-1.7257233,0.52267938,0.77921847,0.5959058,1.5621984,-1.5630387,1.5762977,-0.21605389,2.034151,-0.40612148,-68.258657,-23.240774,-7.6930507,2.897267,-55.634145,2.2287958,0.62111428,0.56772964,1.0821392,2.2631037,1.2344438,1.546967,0.37474898,2.1561203,0.91425022,2.0533695,1.9818791,1.9427883,1.9431277,0.89682515,0.0042169996
0.66036117,1.0141184,-0.4230176,1.3381543,-1.8739512,2.1093421,0.41063466,-2.1131169,2.120404,-2.1683265,-2.1601008,-0.56949758,-21.766061,27.811068,20.614315,-35.215477,33.471047,2.093315,0.59575269,1.8154751,1.9394028,1.2926957,1.8361052,2.1694866,0.56055142,1.9376553,1.1720399,1.2253261,1.3061502,0.715834,1.772097,1.883593,-0.0039911074
0.36266681,2.2220858,0.91351183,0.4300957,-0.18618752,-0.22742447,-0.57555045,1.258152,1.2713718,1.9741398,-0.5627137,0.23556417,22.927066,-14.803567,46.450407,-58.001365,21.065615,2.1219574,0.48879167,1.8716809,1.5913038,0.79329015,0.82755535,0.72268831,2.2223745,0.69808642,0.48843439,0.36674063,0.30971077,0.30882824,1.2261719,2.0212473,0.075468262
1.5241766,0.29037191,-1.7542514,1.7144933,-0.76912676,-0.63050283,1.301711,-1.7647493,-0.36473198,0.76771383,0.44535497,1.8072577,-47.099317,-48.21677,70.748654,22.626704,37.00982,0.98554743,1.0957224,1.0562797,1.8935995,0.97702568,1.870547,0.53386966,1.2474501,1.8943574,2.4652634,1.4322178,2.2843009,1.9954194,2.2638057,1.7817269,-0.0054925905
0.75354569,-2.0592106,-1.3675539,-2.1578481,-0.40723454,-2.0021344,1.2963438,2.2765994,-1.7923622,2.0707978,-1.806788,-0.051675465,-45.517129,-6.3862351,66.546034,39.188251,-13.058415,1.0332445,1.7410327,1.7862336,0.97884523,0.9517562,2.416452,2.3085037,1.5215428,0.5692275,1.506509,2.1462851,2.1142642,1.6891632,0.7655141,1.9954959,-0.048949196
-0.15672929,0.076300128,0.60645481,-0.21130847,1.6799148,-2.3059996,-2.248768,-1.6837314,-0.57708353,-0.94644622,2.1036555,-0.91695314,-54.731823,72.256224,10.348871,-66.517765,-14.07794,0.5059549,2.334021,0.64050869,0.2795095,1.216169,0.40230678,1.8201209,1.2719932,0.3897097,1.6008999,2.3246683,0.95079939,2.0853645,1.9717656,0.71446098,-0.013756626
-0.37555598,-2.0805088,-1.1855901,-2.2317394,1.7722253,-1.2197656,-1.7082303,-2.3536112,-1.3506191,-0.27751706,1.0358572,2.0871333,-18.255704,-73.625115,-67.308228,50.617588,-70.19031,2.2968949,2.1617596,1.1931805,1.0343765,0.51604806,0.96967073,2.0058973,0.61567213,1.3515195,0.48859963,0.89399624,1.394789,0.96895571,1.2386736,0.6371563,-0.0058267856
2.2219483,-1.3983303,-1.0529495,-1.9015747,-0.34461918,-0.48841812,0.13831973,1.5318595,2.1818988,-0.637657,-1.1286213,-1.3730877,-29.183573,11.687051,74.27219,-7.3040543,-59.24069,2.0008108,0.62719589,1.531337,0.93095277,1.5232038,1.4861097,1.2956426,1.8653065,2.4563639,0.35887865,0.92348321,1.9823046,2.342881,1.0509974,0.86312931,-0.0014079857
2.0720336,0.11442361,0.46299003,1.3191526,-0.79181138,-0.18735423,-0.98674035,-1.2481862,1.289678,-1.3712944,0.94893821,2.080248,48.20921,-47.802324,-13.656309,-21.5906,-23.210647,2.1047199,1.0280381,1.9866226,0.66662118,0.4021954,2.1980201,0.87403375,1.135318,0.54008075,2.1372186,0.48285317,1.0632264,1.6463157,0.62717514,1.1825314,0.0097878551
1.4237924,0.16797929,0.50690672,-0.41802949,0.35037184,-1.7867107,-1.9034339,1.3954282,-0.5983304,0.099046947,1.2087321,0.051488137,-54.699921,8.4321725,-30.477007,22.939962,51.94499,1.9668221,0.87902446,1.7641253,0.6545314,1.9592363,1.6343876,0.40226908,1.1863787,1.4667139,1.5598436,0.79180487,0.61442708,0.67594668,1.8858054,0.48160101,-0.018421523
-2.3181304,1.2142532,-1.403182,2.2270544,-0.40258432,0.75583006,-1.36483,1.2122353,-2.3309143,-1.5863495,0.92011295,-1.7222384,-68.974697,-57.727476,-25.685081,10.840458,-54.415788,1.1326481,0.66687453,2.4103077,0.29125964,0.70069371,1.5592189,1.5428577,1.0591221,2.4148085,1.6868948,0.89008019,0.8278019,0.36658648,2.2189027,0.84847692,-0.0074450977
-0.048935368,2.2113427,-0.57443273,1.1941756,0.44525715,0.16318108,-0.025990197,1.4349321,-1.1023371,2.1344075,2.2813806,-1.5456242,66.67921,27.475075,73.586013,10.126827,-48.418638,1.0441719,0.89747817,1.4156316,0.2710218,0.31342014,1.9023748,2.2139409,0.70396143,2.4797458,1.8383554,1.7400325,0.72640165,1.632502,2.4607035,1.2945258,-0.015875564
-0.58626196,0.30055473,-0.25762739,0.74199094,1.6605261,1.6940217,-0.8319232,-0.47513108,1.9712291,2.3523102,-1.6667665,1.8073725,14.312638,-47.500768,-45.409146,8.4818807,54.968345,1.4196966,1.0911401,0.54118458,0.43915929,2.4502637,1.3320717,2.1296948,2.2806182,0.85091073,1.7566314,0.70437372,0.40910557,1.3373328,0.55273081,0.99676736,-0.0002875425
-1.4787326,0.080821925,1.2060755,-2.1865362,-1.904001,1.2881172,0.67131758,1.3753822,1.7813043,0.5740327,1.5073625,0.43771568,20.633555,-11.840074,53.877998,-22.486151,-74.743915,1.810262,2.0733848,0.87845539,1.1997582,1.3355442,1.9909441,1.296993,2.0608284,1.3430223,1.6760989,1.6947327,2.1227723,0.68443112,0.48385968,2.2297005,-0.01820132
1.9929429,-0.26944808,-0.0080526344,1.3186541,0.25366383,-1.3839633,0.080156821,-0.54756179,0.42461152,1.8888562,-1.3589982,0.26688414,-21.407241,58.507947,-56.931852,-3.6382199,52.438645,0.41960555,2.310492,1.1896151,1.861567,0.35672518,0.73003942,2.0226093,2.4945186,0.37476067,2.3525876,2.1902304,0.45267393,2.3408034,2.1319409,1.7803219,-0.00096542045
-1.582133,1.101658,0.59000301,1.3141575,0.078431626,-1.2685829,-2.2243283,-0.90394678,0.10859636,1.4845003,-2.1038698,2.0276276,-52.86535,-57.939462,11.463622,69.087085,-3.3548244,1.607002,1.3823092,0.47058863,1.933119,1.4305931,1.9785505,2.2488952,0.93087455,2.4584912,2.3607685,2.4355937,2.2728953,1.5519873,1.4999633,2.3836284,-0.072718762
1.0845646,0.75638354,-1.487287,-2.3213392,-0.87951747,0.71411871,-0.26164336,-0.78102919,1.9581767,-0.24868695,0.20746137,-0.36454431,-25.166245,30.922389,-37.400084,66.792997,-10.095247,1.0628631,2.2894525,0.82896709,1.9499585,0.95275933,1.2760303,0.74191283,1.3289246,0.98605472,0.62168493,1.1586517,1.2088416,1.0002542,0.77173604,0.81764423,-0.039133113
-1.5255059,0.9301587,2.1830832,0.41910331,-1.1521874,-1.6076069,1.7885778,0.29800179,-0.75336127,0.44640276,0.56799778,-0.96131405,62.918264,-32.730007,-43.22942,43.135667,31.162626,0.62889728,0.87654823,0.6461448,0.50561178,1.067106,1.6005509,0.95861283,0.65591028,0.38404897,0.96096074,1.8672232,0.92103226,1.2891844,1.3214441,1.2604864,-0.026714115
-1.8416191,-1.1210767,-1.805758,-1.5903345,-0.081116255,-1.4404842,2.0358064,-0.85868741,2.0880985,1.5115229,-0.32311992,-2.0043333,64.886647,49.876394,72.55113,16.843699,42.054708,1.5772854,1.4364132,0.79595323,0.58596634,1.5862072,0.6340034,1.1951466,0.32888454,0.81245281,1.1444506,1.0308797,2.4946246,2.1564728,2.3377474,0.26985473,-0.017699253
-0.89334964,-0.85611244,-1.7582355,0.72764768,0.92510645,2.0928739,1.660711,0.089880869,-2.0490903,-0.92118719,-2.1953793,0.26582747,13.290977,31.455251,68.403872,63.872897,-38.226531,1.0254233,0.78878675,1.6389359,0.3448849,1.9804607,0.60317057,0.48779404,0.85448112,1.014177,0.77332882,0.58756028,1.3755991,2.4447638,1.1446366,1.907029,-0.046871154
0.65061332,2.1156735,-1.5621201,-1.8333661,0.92766097,-2.0972269,0.57654686,1.3512634,1.6811178,-0.9380752,1.4236801,-1.7198431,12.421089,-38.750371,22.507267,-20.359979,-40.168769,1.877535,0.98072802,1.0957589,1.6702819,0.67769271,1.9813678,2.3493468,1.7219464,0.50249513,0.4356333,1.6888959,0.77314488,1.9960662,1.8839047,2.2864435,0.023808056
1.3216167,-1.7894956,-1.5866016,1.3955139,0.8426431,1.5736503,-2.2994366,-0.32878101,1.8098721,0.049873607,-0.57952928,0.35948857,20.425857,-52.624598,-61.614595,43.502649,49.024453,1.4348297,1.1833589,2.4638401,2.2609456,0.96233914,0.28384758,2.1261946,1.9520702,0.44339711,1.6752348,0.67124341,1.5879771,1.1318686,1.0655852,0.79083609,-0.019751325
2.004841,1.7817904,-0.6807416,0.45640842,-0.91288359,0.70394253,-1.6466658,0.34861687,1.7042573,1.5515388,-1.6471858,1.0342452,-45.970894,17.178108,-37.530559,-26.105189,0.085771771,0.49849226,0.65937855,2.425354,1.1741228,2.4823765,1.0511942,1.9201088,1.018823,2.3581908,1.8634173,2.2048386,0.72314634,0.92057522,0.35764206,0.39007049,0.031181224
-0.96388538,1.1717291,0.17811034,1.1335473,-0.65956735,-1.8095842,0.076179073,-1.4281167,-2.1604501,-1.7281047,-1.8026113,-0.54014564,-68.96578,-57.863853,-67.771932,57.132776,-69.432146,2.1839073,2.180785,1.4530949,2.1658725,0.56857345,1.7640075,0.92344646,1.3646925,1.386983,0.27370036,0.33195617,0.68735822,2.4296636,1.6054563,2.4048659,-0.039193744
-0.61670799,2.2445244,1.0472973,1.1531645,-0.81951285,0.76043705,0.66654398,1.2561415,0.46674796,-1.4946149,1.7522501,2.3480241,53.952029,21.746903,-49.80003,10.897904,11.072124,0.46290877,1.1076396,1.0995632,0.35807165,0.8602131,0.60162112,1.4461999,1.0320711,2.2698148,1.5273145,0.82475199,0.85670489,2.3890132,2.3950288,2.2482093,-0.0086911078
-1.5102427,-1.721625,-1.2825126,-0.72137878,0.7636804,-1.3710896,-0.32028717,-1.5183054,-0.57175632,-0.94726519,-2.236144,-1.5704551,-17.461872,68.313312,41.842083,39.885663,8.3426018,0.83662515,2.4089524,2.2637839,1.4160868,1.1708673,1.7667517,2.0465278,1.7421388,2.3763338,0.7916263,2.1132512,0.41321186,0.60180462,2.2801749,2.3988356,-0.032594379
-0.82661217,-0.74809419,-0.56532158,-1.1836305,-2.2834162,0.31952547,-1.8588659,1.1802713,-2.3373597,-1.529963,1.4178606,-0.56788519,-59.163599,-12.601152,12.43308,12.767289,-70.177839,0.94088239,1.9102835,2.385298,0.70408494,2.3055514,1.4018647,0.63975027,1.0328545,1.9356071,0.49835152,0.54393475,1.6613811,1.8326413,2.4518414,0.84816689,0.011349856
-1.5375097,1.8163792,1.0292871,0.047947317,0.032036428,1.2239023,0.54753206,-0.9242739,-2.2373551,1.6374763,0.71335262,0.99988637,22.633597,2.862781,-35.2394,-68.594586,30.789832,1.1456798,1.4411151,1.0717874,1.5316296,1.3489395,2.1263973,0.85880653,1.7114291,1.4881304,1.5078433,2.0723667,1.7666058,1.8430549,1.9740093,2.4250895,0.071664824
-0.30563532,-0.3088618,2.0123121,0.11342567,-2.1722789,2.0989247,-0.31675828,1.243114,-1.7164992,0.042801072,-1.6378923,1.7205777,-69.450089,52.361496,-10.333734,20.931507,45.841557,2.260694,1.2334936,1.3261668,1.885637,2.1503376,0.47370448,0.30120858,1.4126304,1.5789175,1.8670137,1.8990428,2.4627998,0.52567248,0.72738132,2.3477722,0.016223644
1.8478229,1.7164925,-0.15506652,-0.25190343,-2.0155768,1.5645085,-0.43611899,-2.0869834,-1.618023,1.0847518,-0.81006499,-0.67049515,-53.793036,-49.55795,29.533793,24.460701,-38.996467,0.42074546,1.2189509,2.158109,0.58716515,1.4847155,0.36288846,0.81631173,0.75120088,2.1831772,1.1584021,1.5138411,1.6277382,1.1463943,2.1984071,0.62885013,0.0096844117
2.0087199,1.0014879,-0.64608826,-1.461211,-2.3136566,1.0067355,-1.9858682,1.3646551,0.5613732,0.79668947,2.0628264,0.87784225,-18.946258,20.24807,-40.695597,29.099948,-67.1664,1.8896755,0.27626048,0.60988061,0.7634252,0.63740326,2.0865095,0.96464362,0.7653066,0.75809123,0.98926849,0.63557782,0.65638868,1.6746103,1.4252898,0.59587611,0.026423738
0.55452501,-1.2035441,2.3201365,-0.48431318,-1.5558607,-0.30453169,-0.60961353,-1.040877,-1.6323536,0.56113914,1.5751408,-0.81036464,-31.652002,74.80798,-2.2738014,34.219072,19.944978,0.85375268,2.2712193,0.38327402,1.4365362,0.61325345,1.2007843,0.58184104,2.0024254,0.76345645,1.1626368,0.6861251,1.9545201,1.1196476,0.41696939,0.75448236,0.0010546259
-0.60725848,0.84128972,-2.3229391,0.50591386,1.7444699,-1.1790231,-0.24514553,-1.5329921,2.3440084,0.17672736,1.4516761,2.2828514,-12.339885,53.55334,70.985636,-44.407976,35.154266,1.1912085,1.6417669,0.67635337,1.9710785,0.41617377,0.88259046,0.94790545,0.69694881,1.618628,1.030498,0.57989761,0.83917698,0.29751664,2.3622263,2.1876568,-0.020209986
1.7244125,1.0089047,1.4860558,0.47875763,-2.2808513,1.0161127,0.10865072,-2.314312,-0.58388826,-2.2161799,-0.61269441,-0.98500778,-12.835698,-29.584677,20.330407,-6.8428544,42.146082,2.113002,0.72476209,1.0764174,0.59648776,0.66975895,1.388725,0.30162535,1.6672524,1.5110346,1.7082929,0.52840218,1.6053936,1.3495739,1.538266,0.38624731,-0.0094495372
1.1174841,-2.0277152,0.18838105,-0.60502715,0.64414843,1.8451478,-0.83324909,0.80267557,-1.0014122,1.9179629,-2.2513886,1.3954063,-30.777958,64.854557,-39.463365,39.226152,23.934475,0.87573922,0.54908238,0.42764357,2.405545,1.2450175,1.509559,1.6578748,1.402276,0.80347292,0.96933116,0.79887165,2.3857536,1.6114496,1.8838129,0.74383091,-0.029790262
1.4473578,0.39029091,-0.026125873,-0.8453768,-0.39502211,0.61953465,-1.8608409,0.97304426,1.9650501,2.1751975,-0.16967347,-0.70669008,-67.478107,45.452427,-31.065077,39.251059,-7.4518169,1.4846955,2.277554,1.0995876,0.76886212,2.0156372,2.3137725,2.3243243,1.9188284,1.9995868,0.30513036,2.076011,2.2664544,1.2997354,0.90207204,2.1247464,-0.03228996
2.0692602,0.62606076,-0.56141187,-1.4465677,-1.2493025,1.3775901,1.1890948,-0.12477261,-0.040141575,-0.78782648,0.81335864,-0.52171762,39.721395,-52.508158,-54.612178,-16.881461,73.292095,1.6785464,2.3287032,1.2644909,0.29881825,1.7382628,2.4827099,2.1545889,2.1752901,1.3499204,0.61191821,1.2594003,2.4902393,0.45122742,0.52929077,0.78990226,0.010494377
2.1201005,2.1560448,-1.6270046,0.92702691,1.3833157,-1.540591,1.8647616,-1.0505075,1.4419238,-1.4038096,1.1041911,0.75144844,12.463038,66.276755,13.422352,-10.537757,41.922864,2.0885817,2.0428712,1.0363138,1.5752605,1.1537928,0.5447598,2.0279367,2.0328064,0.62706684,1.6123429,1.1470001,1.1309147,0.78253603,2.3330416,2.1806269,0.00033029275
-0.68756954,-1.2034514,-0.83348138,1.6108897,1.549333,-1.021636,1.3096917,0.42001142,-0.026822419,1.5849454,-0.95733154,-1.7752407,-74.356235,-55.247202,-39.720786,62.756789,-46.654248,0.35576312,0.31083489,1.2019145,1.5771143,0.80938308,1.3013828,1.5913889,2.2224987,0.53496822,1.7107983,2.1368906,1.7207628,0.8607661,0.89580833,0.35054931,0.013350737
-1.9743195,2.2557006,0.39034715,0.91905774,-0.60770966,-2.0292917,1.9653031,1.7147333,-1.4489954,0.36012514,1.915846,-0.13061351,23.935932,-8.7918207,-14.13007,-34.081552,41.358349,1.5214843,1.8369438,0.51448802,1.7500991,1.1655316,2.0895792,0.80751766,1.4492372,0.32898549,0.25918228,1.5765378,2.3701129,1.9879502,0.47885839,1.4229861,0.019686375
2.1006655,0.66611715,-1.2053571,0.12340016,0.53526184,0.19522448,1.315138,-2.2923342,1.2320842,1.4023983,-1.2616414,1.3437859,-46.796523,-59.165943,-52.007313,-36.907111,-47.810229,1.4271313,2.2957014,2.3535167,2.055375,1.9371949,2.4350283,1.7698791,0.60772129,0.47179179,1.9046179,1.6637748,1.5638518,0.65700435,0.7720468,1.5405541,0.032596475
-1.6365983,-0.092628923,-1.7259454,1.5022422,-0.79543259,0.21196237,-0.11448077,-1.423553,-0.85588799,2.014127,2.3423959,1.3510156,70.929815,67.393879,38.917032,-71.439144,72.312432,2.2007433,1.6433612,0.47185577,0.72996695,0.80451906,0.55182538,1.5291182,1.8900427,1.946975,0.30913322,1.8520192,1.886556,1.8471898,1.7182826,1.925289,0.061714385
-2.1842042,-0.4100426,-2.0732523,-1.747743,-1.9956529,1.8464637,-2.2788638,1.4335609,-0.58693231,-1.5411173,-2.267921,1.5664951,-1.0838496,-66.260487,-40.00462,-57.641457,70.030415,0.64268786,0.90489256,2.2792763,0.79730242,0.76180101,0.33955947,2.4760357,2.4819893,1.2933666,1.8621697,1.4865808,2.4632556,1.4367527,2.0032078,0.41336513,-0.020229623
-0.93675434,0.061379316,-0.41101745,0.39200231,0.46309876,-1.5657879,-2.2177685,0.96112454,-0.44935455,1.6575377,-1.4073044,-1.0850949,-7.7862347,-63.247269,53.158291,31.38862,-1.4709142,1.8001657,1.1350127,2.158757,2.4783426,0.75357995,1.6681564,0.95455893,2.2719755,1.8416111,2.4580873,2.3235513,2.4259246,1.7640587,1.7853176,1.332074,-0.03004764
1.6597755,-1.4957577,1.3953048,2.0395082,0.096299374,2.1541623,-0.27800537,2.2536031,-1.8756084,-2.1810921,0.059419637,-0.36063146,-31.854694,-31.843857,0.30236574,-18.139063,-63.233489,1.1462023,1.2215501,0.84245642,1.4150215,1.266545,1.0711189,1.5457848,0.75453855,2.0294438,0.36273702,0.52109427,0.28134995,0.64854344,0.31967419,1.2641787,0.019308509
0.89278382,0.77122506,-1.8024322,-2.2408775,-1.0156606,-1.9356321,2.1644467,-1.7872913,-2.2368985,-0.11389922,-1.0742296,-1.4141264,65.803276,5.6600918,29.162835,-60.223841,17.908868,0.54020925,2.0468974,1.2039535,2.0962808,0.9415698,2.2135718,1.2510394,1.4696106,0.7449593,0.78092434,2.2453476,2.0570715,1.2003643,0.27247162,2.1805958,0.037230864
-1.7822314,-2.0191182,-1.4063574,0.69402087,1.2459794,-0.68050332,-0.25130532,-1.3879502,-0.95338005,-1.3360026,0.33781213,-0.82022489,-56.721929,74.530913,-8.9392491,58.041031,45.615432,1.503567,2.2009923,1.326898,0.67439653,0.58241304,0.36597541,0.94878882,2.043675,1.0456113,0.3384725,2.2072706,1.0977138,0.77519025,0.37252636,0.80051353,-0.013784252
-1.3490088,-1.4870265,2.0565707,-0.58921665,-2.2350553,-2.1218125,2.0565348,-1.1932151,1.5614506,0.006483341,0.58056502,-1.8013352,65.513343,-67.245591,53.359736,-32.924039,-4.3201805,1.2358893,1.091064,1.5123245,0.88842555,2.2681957,1.3159149,0.58203271,0.72373549,1.8224428,2.0464363,2.4544744,2.3511373,0.31386267,0.33986942,0.93535121,-0.021264234
-0.37110887,1.9762227,1.4565825,-0.079482028,-2.2483607,0.44827327,-0.98111718,-0.98745212,0.92618255,1.3293776,1.4131471,0.32341058,69.302042,9.4259696,22.270299,46.920057,35.396443,1.4952767,2.364908,2.2594787,1.0583603,0.86127539,0.45545751,1.8744459,0.811782,1.1200765,0.87594768,1.8026701,0.47580379,1.8343028,1.127,2.4885115,0.029296369
-1.4921669,0.48563031,0.13093617,-0.041465236,0.52734051,-0.99164979,1.0617394,-1.1623942,1.2051236,0.66430825,1.3792628,1.0282937,70.069562,9.1318801,29.509575,67.435106,-18.167539,2.2475785,1.3017744,1.421943,0.59533407,1.5296669,2.1120844,1.0531089,0.35063263,1.8326435,2.4890323,0.41573614,0.27738429,1.4976841,2.3263606,2.3919466,-0.054505463
1.7201529,0.10368271,-0.98866373,-0.58782711,2.2695156,1.6722434,0.70774954,1.0766862,0.29152657,-1.1974485,1.0959595,-0.93648346,-3.1320085,10.332835,-36.035617,49.381106,-1.7575686,1.5331625,2.361461,0.57435762,2.2285899,1.6610393,0.58678706,1.8800715,0.86119225,1.3081395,0.40063524,0.72645863,0.34018543,1.7465719,0.38428285,0.39178601,0.034015858
-1.837896,0.19169161,-1.5131095,1.9320864,-0.49709112,0.45524578,-1.6038223,-0.57631238,-2.122818,-0.70435045,-0.49688256,-0.75194594,21.387188,54.469418,17.506826,-62.768538,-0.81209197,1.392554,1.6543086,2.2138823,1.9695294,1.380602,1.0285085,0.89183865,1.132211,2.3202089,0.25069762,0.72497923,2.4759688,1.3572813,0.576677,0.71033038,0.061030455
0.30944142,-1.6954439,0.49110107,-2.1697448,2.2767452,0.65866838,0.83768065,-1.7195973,-0.19084471,1.6098294,-2.1345704,-0.3075088,37.891297,-60.977552,-49.711932,-8.4379482,-66.59619,1.6425321,2.2867294,2.311471,1.8932632,2.0745185,1.9328607,1.5904742,0.3494824,0.50076791,0.6562288,1.2374088,1.8797708,0.30838847,0.58500748,1.2206583,-0.014887011
0.47856859,-0.74575156,1.1082468,-1.7692698,-0.94237165,-0.1008828,0.92273222,-0.11170562,-1.9056116,-2.2192249,0.046103735,2.03368,35.089097,-57.539055,-8.8981572,-1.328057,29.346117,1.6777517,2.4725892,0.80752183,1.5194103,0.72967843,0.45540241,0.94828312,0.29435537,0.98075461,1.5426485,2.0437538,2.3693927,1.1332257,1.3749867,1.1509653,0.0089753081
-2.3067599,-0.88928259,1.5253843,1.7380328,-0.98134586,-0.11842134,-1.6793086,-1.6423772,1.7418469,1.8605413,-1.2949345,-2.1517518,-51.551428,-24.847778,-16.606456,45.294162,8.9738893,2.4873624,1.5991746,0.32805241,0.32687574,0.80048782,0.29881561,1.6939049,1.7094111,1.322524,1.4110048,1.2584105,1.6059899,2.3722767,2.3547402,2.3690232,-0.025538
0.62544878,-1.4220889,0.18876916,1.2055236,-2.0376724,-2.2296077,-0.10008316,0.22514828,0.018772465,-0.22124132,-0.32803214,0.25886424,38.078128,-70.905157,47.033505,-7.8828236,-36.616259,1.9829241,1.5046444,2.3082269,1.3698795,0.81542675,1.6273211,0.88583791,1.5277622,1.5998354,2.4332712,1.4898237,0.71681114,2.4448583,0.48266365,2.3778922,-0.0048925518
1.7983669,-0.11070883,0.71036855,-2.0294851,-1.2846415,1.1968833,-1.170926,-0.8162054,-0.19983177,1.3608612,-1.9415417,1.8026652,45.977582,-54.780098,10.898088,14.159627,-69.14866,1.6521337,1.6617188,0.75819904,0.5511982,2.2381376,2.378162,2.2685527,0.56502653,0.65085804,0.9711337,1.8441405,2.2194773,1.5042541,2.4991034,0.93039252,0.0015822587
-0.56129468,0.5230934,-1.6870195,0.7076634,-0.37096273,-0.27989864,-1.2921996,1.4023673,-1.7828422,1.8526201,2.2318342,-0.1795607,-61.997179,63.409711,-22.987681,46.048602,-61.140999,2.1735045,0.58981703,1.0548123,1.9799179,0.48048064,1.6881118,1.0947443,0.36765244,2.1345479,0.59640473,1.524378,0.97051696,0.47861922,1.903269,1.4915501,-0.046851218
-1.8696576,-1.1248432,0.86410029,-0.6493455,0.34304028,2.2262833,0.77470943,0.21071065,-2.3026363,-2.2704917,0.77128835,-0.73886087,-28.319176,-10.387263,21.262577,60.135352,-5.1389484,1.820405,1.5472035,2.0990341,2.2157039,1.0860981,1.3009112,0.41440771,0.45032002,1.0285537,1.6521039,1.1602579,1.2046149,1.9624879,2.2835723,0.99976747,-0.070584083
0.45420579,-0.23337706,-1.6605664,2.3409021,-0.19363591,1.8221043,-1.7086232,0.46860117,1.377927,2.138993,-0.76058777,1.5126438,-10.661684,59.068908,71.130877,-3.3461856,10.659253,2.1260736,2.1694251,1.777905,0.49996761,0.70560558,0.86299455,2.3493934,0.25547354,2.2437328,1.9179582,0.87354074,1.8491594,1.0713064,2.4468513,2.4789919,0.007304303
-2.0073199,-1.0336054,-1.9403234,-1.2835962,-0.085342832,-1.7907225,1.3547916,-0.28117434,0.82896252,-2.1612007,-0.20545824,1.0444738,26.190882,-59.849126,15.743992,9.2775863,-71.60657,0.7507368,1.133441,0.49335197,2.0165575,2.0322137,1.915891,2.1301901,1.6054646,0.29385631,1.5930077,2.4304996,2.157403,2.2221565,1.5346412,2.4651825,-0.0055870275
1.9822913,-0.22104514,-1.7432321,-1.5799204,0.59029149,1.4502049,1.1184789,0.55448212,-1.9244181,2.1429175,-0.77472652,-0.49782843,70.043087,14.157003,36.757576,-65.422816,-61.270659,0.98555019,1.1419645,1.997301,2.3876457,1.9113301,1.9757693,0.50422208,2.460565,1.216537,2.0880773,0.31519345,2.4563258,1.9670538,0.27255316,1.301042,0.064598703
-2.1198164,-2.0935747,0.6978041,-1.1426252,-1.1164543,0.48466733,-1.9167094,-0.24385644,1.2832451,-1.1042443,-1.6453676,-1.394848,29.45334,22.293014,-21.307303,-61.836597,62.316715,2.230362,2.1945457,0.98031289,0.8686603,0.82368129,0.86143035,0.80985994,0.31593519,1.4227635,0.88576454,0.29465123,1.4532422,2.3921142,0.51301303,1.7100353,0.037203198
-1.6987656,1.2116072,1.2490961,-0.13425506,0.80947394,0.16147747,-0.38425076,-2.1296994,1.4484693,0.22179408,0.19347819,0.23950712,32.339415,-71.455155,-46.798057,65.050475,-46.673461,2.2620878,2.1589398,1.0517519,2.2943304,1.8114784,2.2673777,1.0665318,0.94986277,2.0935913,0.73871691,1.6150243,1.213275,1.2635213,2.0018228,1.8856787,-0.047229697
-1.6174943,0.54495052,-1.9007871,-1.2446055,0.21046207,-1.768189,-1.6282706,-1.5005963,0.18361495,-0.59839343,-0.9603568,-0.78444074,37.20691,-13.455846,47.597973,29.128902,-30.550152,1.2789428,2.4409924,0.75879369,1.5454796,2.3751342,0.88021037,1.4456691,1.1099691,2.0007582,1.9930842,1.2664461,1.659027,0.51706346,2.28556,0.65693967,-0.028335189
1.1727615,-1.3205698,0.53599972,-1.5404829,-1.0315014,0.43531597,-1.9845445,0.049709406,1.373136,1.7279137,-1.4084239,-1.050402,-47.640757,1.8034654,10.843139,-9.3664244,-71.494461,2.0138008,0.70067315,1.2136887,1.4652801,2.2119498,0.99080917,1.7797466,2.2014834,0.58151834,1.0787691,1.8722333,1.8744676,1.1766649,2.4577198,0.64618039,0.0078169674
-0.56803528,0.33120393,1.2131314,-1.4077303,1.1813593,1.8103947,-0.5911657,-2.0059076,-0.85837851,-2.1448819,0.74581858,0.018132629,-49.344242,21.318395,-51.736939,7.258192,38.432147,1.8115161,0.65106705,2.2339311,1.4293929,2.0567979,1.1027793,0.4119025,1.095283,0.42134901,2.3628588,1.5674237,2.1906646,0.99971649,0.73506769,1.0326759,-0.010446241
-0.40026961,1.9600522,-1.7143404,-1.3736964,-1.7220371,1.2147423,2.1040006,0.171359,0.76112582,-1.8944104,2.2574306,1.1930963,36.733668,-17.237223,-56.005496,-34.370668,-17.823795,1.1571105,2.3054279,1.5761472,0.30604116,1.6336966,2.2889682,1.6888778,0.46957763,0.69122411,2.1535687,0.77978899,1.1636126,1.3363993,0.61264095,2.1563871,0.0049319835
-0.9986768,0.76861813,1.5066947,-1.3600312,1.7552007,0.10353178,1.1870203,-2.0044008,0.90449722,-0.28209654,-0.53328848,-0.015621199,42.917402,-37.229608,-68.028001,-46.62055,48.409217,1.5806463,1.6726561,2.3309647,1.0230165,0.83791744,1.628442,1.7242296,0.62687215,0.59017704,0.3554664,2.0737315,2.2056295,0.51491579,2.1896191,1.4278935,-0.016311541
0.48505194,-0.16494682,-1.3764054,-0.12846203,-0.78723075,1.4010433,-0.47335487,-1.1626211,2.1036591,-0.85624718,0.68951895,0.98049966,1.0664433,73.713152,46.945164,7.3794034,-24.366674,0.9147477,1.4146496,1.766113,0.31084074,1.3002802,1.0598045,0.38487509,1.3455659,1.6764123,2.461032,2.3152271,2.0219923,1.1237674,2.1584255,1.406627,-0.0055347124
1.163396,1.4943549,-1.409731,0.54365837,-0.056010476,1.1097184,-0.59796361,1.5512998,-0.95289666,2.0759535,0.02301939,0.47099351,-26.277796,-50.92,-62.441329,-51.409855,-45.431559,0.3516933,1.6593615,1.6388423,1.0230056,0.65493888,2.0578396,0.61069801,1.0014503,0.62535815,2.1444298,2.4323656,2.0182653,1.4847714,1.3033852,1.4951973,0.064795232
-0.71906786,1.9042092,2.2106628,2.1341927,-1.3277839,1.8098433,-0.43496266,-1.5020403,-0.52439338,-1.3122207,-0.51333784,0.71521136,-23.776064,-4.3107392,-0.5940202,66.302424,-5.1572607,1.7037844,1.2538492,1.4426763,0.3112224,0.96490161,0.60134018,1.224434,2.0614176,2.2448547,0.5229731,0.35891267,1.4952054,1.1663818,0.62837134,1.037122,-0.0089813136
0.59564115,1.82653,1.9878557,-0.94713317,-0.01724178,-2.3268603,0.57581652,-1.4987323,-1.4748888,-1.2893536,2.1107133,-0.10580277,-52.725724,38.760968,5.5876351,11.382518,55.979308,2.0385578,0.54021311,2.1118054,0.86259945,2.4590204,2.2564389,1.7186553,1.4390512,2.3841352,1.4094886,0.52566614,0.62088008,1.1315511,2.480046,2.3835696,-0.015053618
-0.98563388,-1.5014354,0.21885487,-2.081974,-2.2487983,-2.1936466,1.1125017,-0.94260406,0.70537669,-1.1046215,1.4392155,0.20189936,12.812558,-59.33383,-23.674832,47.105154,-3.6793001,0.80503915,0.29300916,0.85489521,1.2238424,1.1195063,0.29296745,2.4039382,1.2391541,1.9622319,2.4818769,1.6554702,1.4880694,0.48174759,0.48180769,1.4918261,0.04309691
-1.5794174,-0.38027863,-1.3434121,-1.6712235,2.2968446,-0.8225108,2.2102198,-0.5986017,0.25166632,-1.9694778,-1.1926277,2.0087666,56.822554,-33.327258,-31.228889,-13.945512,67.784465,1.4275978,1.1355868,0.55742,1.0579614,0.9078962,1.0114594,2.348722,2.469988,2.0880261,1.7053474,0.52434696,0.94942947,1.5611469,2.4453119,1.3571165,-0.01354688
1.9517042,-0.6464518,1.8535089,-1.6791885,0.37655687,0.05291978,-1.2187805,0.71028953,1.3547859,-0.37651146,0.71029349,1.4213559,51.871408,2.7503282,24.766383,-1.3990629,35.950027,1.5564433,2.1433454,2.2067786,1.827967,0.39115764,1.1865197,1.5859789,1.2971415,2.307585,1.8308891,2.2525776,2.0718437,1.9777007,1.4656147,1.0867575,0.002375691
-0.50605032,0.67440681,1.4597342,1.054869,1.1760102,1.4438431,-2.1319927,0.60505297,-0.21009716,-1.5236278,-0.49075827,-1.4934995,52.518507,-71.451069,21.877159,39.410763,-23.311998,1.3037394,0.69783792,0.81199417,2.4360893,1.6023906,0.378379,2.415901,2.0479327,0.60487789,2.1827269,0.34128522,2.2306991,1.1096436,1.0294158,0.39211787,-0.023113144
0.41898112,1.5065257,0.51204935,1.1912302,-1.9354162,1.0804741,-2.0197388,2.3002282,-0.50371325,2.2543715,1.6143814,-1.026731,15.946333,-39.987312,-66.750573,-26.882991,-22.425198,2.1204301,1.8190538,1.3370834,0.86151637,2.2556564,2.06769,1.9163539,0.90923529,1.0174873,2.4095694,1.3822459,1.657619,1.6022712,0.62133791,2.0762828,-0.022272211
2.0116185,-2.1192207,-1.5063696,2.1128009,1.9939675,-1.8986497,1.6929512,0.026652076,0.26449023,1.5045333,0.011176585,-0.65069886,36.896413,18.007222,-52.620221,11.947798,-43.365257,1.5269404,1.2876046,1.7697781,1.1600409,2.0578634,1.009338,0.44445828,1.5102468,1.9682244,1.9479868,1.5639005,1.4758206,1.6171713,1.2972768,2.3316716,0.0021638359
0.58488268,0.079865949,-0.72384625,1.7043468,-1.6561464,1.228401,0.75876003,0.75520612,2.2856967,0.30931779,0.93900166,0.010156717,33.67541,32.611127,-4.7874759,-63.107211,7.0985032,2.1931533,2.3279172,1.5547457,0.61156301,2.0395906,2.1488927,0.94015551,0.943687,1.7973981,1.8706873,0.64151253,1.4011326,1.8362341,2.0862795,1.5995012,-0.014240875
-0.12367919,-0.51257387,-0.58194531,2.16468,2.1345864,0.57570667,1.3674728,0.79366062,-1.7192104,1.6003436,-1.342194,-0.049263487,44.851198,64.088086,-21.539987,-72.568442,-7.8120643,0.66451891,1.06939,1.7385047,2.0483346,0.60881347,0.82795195,0.63848918,2.3376828,1.4348558,1.62162,1.8169006,1.1477779,0.70242658,1.4336082,0.90271057,-0.042183327
0.48482933,0.805949,2.1789434,1.5268775,-1.4402895,0.59663382,-0.33921489,0.80609374,-0.10078167,-2.0898531,1.9858623,-1.464086,38.249411,-42.151709,6.224846,70.986604,-28.148693,1.448637,1.4920614,2.326503,0.28538923,1.0367224,1.6940266,1.5043299,1.5221523,1.8143186,0.50211776,0.84319257,0.28749584,0.44257129,1.2957187,0.89450112,-0.0096958417
-1.0360174,-0.066865382,-2.2578979,0.37859556,1.3305042,1.4987966,-2.1576645,-2.0333564,-0.37547715,-0.75556263,1.1472265,-1.6605985,57.310087,60.62426,-38.059335,-63.242146,-10.748517,0.62009964,1.5147304,0.82383387,1.1757892,1.2382562,0.37228566,1.2550515,1.4008979,2.3905465,1.1657738,1.6595006,1.7259879,0.92922095,1.6664767,1.9741602,0.010258331
-1.9151429,-2.1907625,-2.2507356,-1.7675181,0.22391248,-1.9017753,0.99674524,-0.24549281,2.0550152,1.5412457,-0.28645611,1.5936217,-38.783511,65.535872,11.409024,51.471899,38.213869,0.7824629,1.1039456,2.0129191,1.6310829,1.1111013,0.77985894,2.3392467,0.71947631,2.2383118,0.80662893,2.2623512,2.0866828,1.6278961,1.549645,0.38300116,-0.051729144
-0.051417222,-1.8020604,-0.70457312,0.47301747,0.20442479,0.43595023,-0.74930509,-2.0673449,-1.422621,0.6698929,0.99270029,-2.2555621,61.683146,58.638301,33.92013,-54.373948,-62.948123,1.0885247,1.5841918,0.51226184,0.33472624,2.243858,1.7711639,1.9508463,2.3731101,0.61187113,0.46805455,2.0927512,2.3691856,2.1531641,0.72941761,0.57180603,0.068220108
1.5056971,0.72206785,1.3926963,0.61024504,2.2299784,1.6180946,0.11963078,-1.555509,0.89386993,0.17590562,1.7779432,0.63285865,18.887364,39.925575,-70.868681,60.084749,44.369113,2.3001889,1.2750555,2.3575047,1.5807848,1.7502046,0.68896731,2.473528,0.83451374,0.67250569,0.303065,1.1134063,1.2689604,1.1677935,1.8552718,0.30234634,0.044705845
-2.2829113,-0.61917955,-1.5957967,-2.3492838,0.69484958,1.0369936,2.3368659,-2.0573618,1.4313368,-0.26767836,1.4612449,-1.8277792,18.429352,-7.8889174,10.965525,-52.428707,-69.284882,1.0599061,2.0913953,2.0814261,1.0279036,1.9756726,1.1294267,0.52517313,1.3347214,1.6627768,0.53967869,2.1297083,0.2577434,2.1432915,1.3008842,2.2105272,0.0438014
0.95445541,0.56004053,1.9603866,-0.80574891,1.1839674,-1.4791115,-1.5751979,-0.14905499,1.8236596,0.86909906,-1.4578868,1.7198279,-20.585949,61.952891,-57.759647,33.60985,-19.251661,1.1848979,1.329834,0.52000298,2.1900873,0.29685194,2.440497,1.4337008,2.4590937,1.2371903,0.4566053,0.91520366,2.327931,1.7869424,1.6404305,0.71609212,-0.019830956
0.49287757,-0.58655907,0.019491644,-2.271174,-1.2701675,-0.58239034,-0.60252426,0.29870283,1.6041269,0.98409823,-0.74642415,-0.7711912,-74.511497,35.270672,-5.8114987,-23.859059,-49.210402,1.6865782,2.3203542,0.44263636,2.3892934,0.35386947,2.2342058,1.5466827,2.3466332,1.1133921,1.0309703,1.7680783,1.8419305,1.0751472,1.7492595,0.55420629,0.018656465
-0.69096211,-1.6737556,2.1513318,-0.72774255,2.1927739,-1.6439368,-0.90908392,-1.4084242,-1.0551596,-1.3476477,-2.1727104,-0.44098266,31.587532,41.645283,32.273399,19.012605,44.860458,2.420667,1.1504718,0.98020718,1.3420549,1.1669283,0.81427877,0.33328798,0.57112454,1.890069,2.3902723,1.0567603,0.9708763,2.0180034,1.5826676,1.895035,0.014811952
-2.1406429,1.3047659,-2.258616,-2.2666374,-0.42215394,1.7165336,0.53464312,-0.7788613,0.69466118,-2.1294526,0.88385342,1.4743741,65.701903,-48.110756,52.527663,-67.565475,-72.940365,1.9941723,1.5546166,0.69124821,0.30863618,2.4982055,1.5893721,2.0766147,1.1633559,1.5222541,1.2746072,1.5734229,1.7686465,2.3921749,1.5341957,1.7277478,0.066791017
-0.24622158,-0.76853691,-0.14169588,-1.7262209,1.5839027,0.36786083,-0.01729293,1.525835,-0.11144591,-2.252999,-2.1090591,-0.36715831,-73.608905,55.131599,46.791746,-21.12204,51.876978,0.57052862,0.87451559,2.4835675,0.81944622,1.6827014,2.4117095,1.351699,1.2558176,0.7763123,1.230799,1.0384898,2.1476571,0.42318991,1.8028228,0.79356119,-0.0018459401
-1.0304768,-1.1938856,-0.28354064,-1.2422926,1.3839624,-0.095978725,-1.4774041,-1.153539,-0.76215504,-1.2664851,0.046532444,-0.18578791,56.547522,-5.7918635,6.1503661,19.202668,-60.750579,1.6002076,1.9396552,1.0345898,1.8501632,2.1930176,2.2967165,1.4135245,0.85576956,2.4190755,1.402409,0.78762155,2.3053701,0.60546806,0.85167557,1.1113021,-0.0039106502
1.1073458,1.9371377,-0.42240868,2.14753,1.3488866,-0.56698124,-0.80324045,0.93223612,-0.60084726,0.20974565,0.32810289,0.93021274,-51.603999,-8.4159099,3.8019967,0.15803446,-43.91478,2.4893865,1.8693629,0.88146938,2.355851,0.78815404,2.2549955,2.2100411,0.41092268,0.37745943,0.46057872,2.4465834,2.4769375,1.8891327,2.403641,0.74403844,0.0033899748
-0.67201537,1.0340654,0.24637139,-1.4260302,-0.078567091,-1.0081855,1.17688,1.924862,0.60488746,1.7205502,2.0687644,1.717342,-0.46961467,57.186235,-70.945389,-29.149538,-16.279706,1.179647,0.82746763,1.4983999,0.85730192,1.1733206,2.4991584,1.8547767,0.9824658,1.0527711,1.4245642,1.900446,1.2958143,0.25154626,1.4880265,2.012019,0.036542209
1.8404172,-0.22999311,-1.3352778,-1.6174104,1.955903,-0.76434274,-0.33600403,-1.777709,-1.4090971,1.7721486,2.2027878,1.7267962,-42.657741,51.348895,70.877255,-65.971159,22.731087,1.2457426,2.4459203,0.33241467,1.6434127,1.3373896,1.5070333,1.9583113,1.8372151,0.57343811,0.27437706,0.45517141,1.5659011,1.3501335,1.9433039,1.6089435,-0.01010846
-2.3274964,-0.69147239,-0.82526128,-1.605643,1.8092982,-0.17132556,-0.19906096,0.17858854,-0.25414577,-2.0035776,0.60227648,0.24935352,49.998162,19.113429,-60.592462,-27.51391,23.720617,0.96125101,2.245677,0.84397337,2.1604975,2.4807516,0.74280238,0.52958107,1.1690956,1.2405355,0.43045159,2.3499076,2.1464426,0.26101711,0.91450859,1.8957953,-0.02140443
1.0612516,0.064055555,2.1570171,0.57815928,0.17701206,1.5243253,-1.9241477,1.9747344,0.0051290153,1.3803584,0.59215218,-0.26387828,-20.508668,10.821829,-67.516734,-3.755469,31.832433,0.74061694,2.0489118,1.3110089,1.3760417,0.88320925,2.3478882,1.9569227,1.000467,2.0984905,2.0797014,1.2906382,1.0065213,0.35400871,2.3244682,2.0878222,0.011883238
-1.7739724,0.13011997,0.37785234,-1.7360192,1.8377136,1.4548991,-0.097184399,1.8207749,-0.49023166,-2.0675631,-0.37670948,2.0945873,69.473527,41.570974,-16.637868,-32.644142,49.898678,1.3312246,1.391776,2.0795213,0.51424579,2.1790331,1.2596598,2.352317,2.1424446,0.56705076,0.92215565,2.1700321,0.73017021,1.9707997,2.48019,0.30270426,-0.0087856186
0.89111994,1.08073,2.2820489,0.26263371,-1.4236619,2.0252907,1.4757041,0.85583689,1.8394534,-2.290252,-1.4713353,1.8857218,-70.077436,8.5410424,-0.70083191,71.118018,-69.465503,0.52439531,1.7620473,1.7283431,2.2626194,2.0943017,1.4287061,1.7628778,2.1877703,1.8559475,0.41008298,2.0146725,1.8514075,0.60561236,1.0269735,2.0933942,-0.0046209707
1.1535992,1.7739455,-0.58227976,1.2560147,-1.6627919,-2.0762424,-0.16526278,-1.9744967,-0.72276372,1.0489852,1.2479111,-1.2014895,-26.993287,73.81824,13.157525,38.526608,-33.302704,0.34668668,0.76301563,0.50375735,1.3997526,1.1426323,1.9703615,1.8650697,0.72698976,0.26684829,2.1692746,1.4975146,1.7284563,1.9152548,0.43694159,1.1772623,0.004369941
-0.26769158,1.2390375,0.45691157,-1.881204,-1.9774957,0.70920554,1.9856954,0.44432219,-1.4135323,-2.0849835,-0.99304598,1.157919,-32.501416,48.6969,48.799986,-18.637911,-47.364607,1.2708408,1.2711715,2.3293279,0.51320918,0.50664294,0.39794527,0.51610416,1.912668,1.9611062,1.5620421,1.7412524,0.97984361,1.9816171,2.0388355,0.708975,-0.030531937
-0.2769026,1.9383941,1.8437869,-0.14417218,-0.93396326,-0.15285028,-0.70267465,-0.60597671,-1.1780073,-2.0233091,-1.1567648,1.5708576,-67.212404,11.121202,14.046671,-17.603573,-63.254766,0.28211835,2.3130858,2.0330985,1.035703,0.31076398,2.2602383,0.32445598,0.63170304,0.78303311,1.6875597,0.8162118,1.3217638,2.1338329,2.0791282,0.65798206,0.020413361
0.16663775,1.5215313,-1.758564,-0.081992415,-2.0289372,-1.5001859,-2.3431815,-0.41617681,-1.4983635,0.010888803,-0.77505502,-1.3065096,39.010332,-3.352886,48.045235,46.261094,60.200344,1.9326937,1.0337053,0.48540507,1.2029704,1.3240796,0.55624749,1.6015178,1.4594366,0.75131317,1.8204572,2.4239016,1.5147552,1.2404882,1.885901,2.0876952,0.026738898
-1.530958,-1.1672871,-0.9197741,-2.0073916,-2.2380248,-0.19460661,-0.35528824,-0.73262821,0.1900257,-1.2377194,-1.8646865,2.3130881,-36.201965,-46.42535,29.144947,-60.878512,-35.145324,1.5629795,1.7467786,1.6076705,1.3685062,2.4841901,2.2823119,2.3159186,2.393411,2.058839,1.6571821,1.0100959,1.9315338,1.788556,1.7612653,2.0864115,-0.045436894
0.40299091,1.3652209,0.64637122,1.5045398,0.12100789,-1.972368,2.0669744,-0.093583264,1.0839981,0.66024749,-0.89645955,-1.2881037,-14.121876,-46.364845,-3.9525901,18.817626,67.842644,0.34488487,1.9799324,0.72436987,1.2344348,1.3955972,1.0523885,1.7435837,1.9120487,0.55223075,1.5922564,1.0528661,0.77063872,0.37503986,0.29499884,0.54552514,-0.020543835
0.033451275,1.441284,1.9814328,-0.51175858,-1.0165685,1.656297,1.3022924,-1.4187451,-0.16145275,0.79975094,1.6807088,1.6125094,15.798012,17.195901,-38.494773,-31.642474,-65.059809,1.9719142,0.96211564,1.0275132,2.1638196,2.0661361,0.5493918,1.1279255,2.2938724,0.86278461,1.0709414,0.81176039,0.75686645,0.65450664,1.543075,2.4611564,0.019742575
1.63565,-1.7077671,0.71929884,1.9778002,-0.3044808,0.2455807,-0.57797216,-1.7444564,1.4058775,0.66424123,0.25280957,-1.6043449,2.0661918,-73.515021,-16.950267,-33.129096,-0.72449487,0.97622205,1.8639966,0.69042134,2.1614403,0.32759977,1.7193102,1.1971722,0.62351451,0.40838215,0.42884708,2.3829079,1.032887,2.4821479,1.7095954,2.1693009,0.033549731
1.1848124,-1.4130396,1.4837533,-0.5202223,-1.8946265,-1.3760384,1.3281059,-1.1113991,0.6255141,-0.3243659,0.61630675,0.43650795,-25.482142,-28.362468,11.997534,42.560243,-39.987524,0.32036752,1.6669244,0.49922599,1.7411929,2.2296865,2.0901725,1.7789949,0.81800357,2.1860263,1.7944768,2.2709423,2.4776839,0.93365021,1.8590952,1.5626334,0.010309326
-1.9805068,1.9379979,-0.10141603,1.3856368,-0.22871353,1.3211176,-0.75276119,1.1070747,2.0926706,-1.7557877,-0.5441354,1.4633979,43.634572,16.248169,-67.016152,9.5308305,-15.331521,1.7218931,1.8580996,0.58008875,1.8015768,2.3507312,2.4893665,1.5328309,1.2894637,1.515898,2.4471439,0.64697863,1.0197688,0.25418661,0.86435027,0.38495185,-0.0027281159
-2.0719198,1.7979984,-1.5917656,-0.57281813,0.056399529,0.71669109,0.5609659,-1.3364216,-1.9916897,-2.2297801,1.7155696,-1.5301889,74.274371,29.36092,-31.010797,51.53414,34.284428,2.4006444,2.1308944,2.1924744,2.1674935,0.81267356,0.35449005,1.4143533,1.2861766,0.27028522,1.4336556,1.6988989,2.3929834,1.6226472,1.0812646,1.0642431,-0.055636963
-1.3429757,0.95137078,0.55288033,-0.5713682,0.8633593,1.0341386,1.4762018,-0.2051283,1.8774227,-0.31405476,-0.44277405,-0.84118172,-18.279991,-31.805882,38.54317,-54.939098,38.571782,1.0140652,1.14429,0.58135164,0.52708934,2.0406027,1.1590309,0.83176405,1.7084546,0.99613825,1.345593,2.1312261,1.0165144,1.8073158,2.0571087,1.8262351,0.037935576
-1.762181,0.38831991,-0.16593467,0.87029303,-0.24051015,0.97558373,2.2344828,1.9247704,-0.93503748,0.64232674,-0.4977107,-0.53333419,-24.954251,-6.0936563,33.918798,73.242244,-67.599102,0.80349852,1.3995447,2.1482014,0.57141337,2.2445389,1.9656617,1.6255636,0.59685459,2.3351203,1.1161306,2.056179,1.9497149,1.3589245,1.1938484,1.0098671,-0.069347698
-2.1761701,-2.0403956,-0.87369312,-0.35614807,-1.0465766,1.534924,1.8507506,-0.91510162,1.1247665,-2.1547104,0.4921483,1.2938321,-71.272277,26.834333,-45.372083,31.400219,43.486683,0.33527879,0.28057883,1.1884634,0.50362962,1.5030872,0.88598917,1.8200565,2.4403224,0.74931711,2.0227273,2.2279104,1.4900675,0.31466091,0.25592552,0.84023968,-0.02305327
2.1643042,0.53097434,-1.1790488,-0.67698395,2.3501984,0.54049425,-1.3990705,0.64311095,-1.4546042,0.34081338,-2.2145756,-1.9244377,57.724239,-28.719533,10.802154,51.798816,-17.302767,2.0109378,2.0821553,2.0342796,0.63726517,2.0157758,2.39317,0.25812942,1.8810973,2.3522768,1.4654539,0.63395414,0.36727913,0.3603081,2.448175,2.2274833,0.042240473
-0.65537468,-2.0292296,-1.7022132,-0.1840019,-1.1927211,0.43970572,1.1081572,1.4372353,-0.091444605,-0.67066033,0.24633209,-2.0865301,40.961953,-52.44882,42.67936,12.002037,-31.756027,1.0219307,0.58927985,1.0264731,0.43404062,1.9207056,2.0482526,1.481394,0.78896767,2.4296975,2.1757521,2.3661812,1.156964,2.0938195,2.324487,2.4030645,-0.0029589089
1.9463801,-0.59333571,-0.77827719,1.0870983,0.92988903,-2.3493208,0.073222073,0.70986354,-1.092366,0.072762615,-2.2998695,1.8195068,55.961927,52.099559,-62.708705,-45.20308,21.838111,1.1219292,0.51368215,1.7058295,1.8757133,1.8637191,0.52644919,0.28158328,2.3201414,1.366868,1.9509976,0.41612642,2.3367191,0.98869139,2.1861295,1.2780626,0.03936057
-0.47677162,-2.0393529,-2.1988855,-2.1140958,-0.19599269,-0.089272101,-1.8565047,-1.5468688,0.026238333,-1.9769031,1.2437448,-0.53868337,-36.675953,-62.75044,3.3515316,-70.80823,26.082092,2.3008008,0.30867577,0.91364448,0.8726934,1.1080357,1.0054852,0.93980688,1.8341646,1.0536777,0.91091443,2.2389053,1.7813463,2.0877619,1.764327,1.7943452,0.071047256
1.9576014,-0.49286292,0.83277593,0.66980666,-0.45668205,1.0264461,-0.57649467,-0.47412502,0.030494527,-1.1288834,-1.065126,0.79247974,63.528177,18.066486,43.426925,-23.677019,10.340393,0.48976012,2.39832,1.3141009,1.5938536,0.89795638,0.45295286,0.27870658,1.2214696,1.7399542,1.6594702,1.2161978,0.88654577,2.1748022,2.151192,1.3346597,0.025039059
-1.5708204,-1.9757178,2.3155156,1.9630245,1.1172757,-0.81819995,-0.73544634,-0.050338626,2.188729,1.0597107,-2.2733508,-0.15657277,-63.837749,28.945621,39.055475,5.369786,-50.005899,1.3878715,1.7057438,0.43525245,2.0378513,2.1667872,2.44284,0.31136943,1.1859662,1.2835329,0.83754119,2.054808,1.4081345,0.26588779,1.7760966,1.6057343,-0.0056712397
-2.1958667,1.4993584,-2.1400847,1.2612339,1.2333529,-0.83696709,-0.42471352,1.1091612,-0.53794595,1.8169488,1.1780153,2.156781,42.109261,30.347203,45.436519,1.5736269,47.947627,2.2116023,1.8994948,1.0586903,1.9074926,0.47844303,1.1919606,0.78230807,0.75181474,1.2502728,2.0845462,1.7186141,0.74684605,0.99157838,1.2078658,0.35008564,-0.0047724157
0.55370645,-0.82398413,1.0099252,-0.21159672,1.5476662,-0.7618096,-0.17304648,-0.8481274,0.4995125,-2.1705216,-1.354019,-0.8714461,-9.2179664,23.63854,-57.060677,-68.800536,19.387064,1.9507547,0.83345589,0.89319198,1.3776377,0.70757335,2.4352549,1.078795,2.3067259,0.89208303,0.73953458,1.8577687,1.7685162,2.4514509,1.0355743,0.3972816,-0.0030152343
-1.5984991,-0.6446234,-0.40320293,-0.21622727,-0.87988237,-0.70637967,-1.6152891,-0.090298942,-0.26506912,-1.809157,-2.1682203,-0.37484414,14.598258,-47.082135,-59.446049,40.248441,-44.459468,2.4208738,2.3756557,0.64484978,1.2401971,1.4929195,0.99773489,1.180329,1.0390465,0.25433984,1.1896621,0.40048264,0.41173003,0.44662866,1.98787,1.3807761,-0.021291629
0.68780084,0.37856701,0.85061,-1.1858482,-1.8582035,-1.8237332,-2.1063056,-1.2123463,0.46606862,1.2248166,1.7776757,0.84917133,-57.41418,-10.117148,61.088941,-28.172018,62.89608,2.0412736,1.1852715,0.85845852,0.36227851,1.8148637,0.66402367,1.7458468,1.6966008,2.0202444,0.99793452,2.2853996,2.46037,2.438701,0.49741607,0.57195439,-0.01958586
2.015643,-0.45225443,0.043175593,-0.055708072,1.4798489,-0.1689184,-2.1533619,-0.40611704,-2.0699095,-2.1140081,1.2792432,2.3212361,-27.161209,-48.446822,-45.740335,-7.8088126,7.2869135,2.4423158,0.50138599,2.0443781,1.6122471,1.7863627,0.89738149,2.0407482,1.3558298,0.93104464,0.81726036,0.94479467,2.4140531,2.4911835,0.57186576,0.84779013,-0.0090715955
-0.66230732,-0.73632481,-0.67755336,2.2048633,-1.0901427,-0.25980533,1.8363707,-2.2657683,0.046841748,0.30029608,0.10761035,-0.95017344,22.957117,40.264912,-67.622004,26.982234,40.40919,0.73374651,1.3276267,1.6717566,0.71247367,1.5449933,0.95183371,1.4692255,1.0229491,1.9556727,2.4908624,1.924465,2.2329617,0.887557,1.1705007,2.3555815,-0.022498708
-1.2930632,1.0246518,2.2536045,-1.8522997,-1.5596123,-2.0961985,-0.98792878,2.3398398,0.80069795,-1.2524907,-0.36957394,-0.50058816,-56.366647,45.766952,5.1691666,28.182912,-29.794258,0.59356396,1.0294597,1.1289627,1.7262646,1.0797924,1.070756,2.1964056,0.73934042,0.84446034,1.3448742,1.3005912,1.7859546,0.7884767,0.92782419,0.6911432,-0.0044589359
-1.2172016,-1.0269487,1.5545516,1.8642559,-0.12533777,-0.11407533,0.67831997,1.2547368,0.42016163,-2.2146034,2.321076,1.1685224,-59.885583,2.999151,6.7300557,12.046274,-38.273643,0.39814093,1.5545763,2.2631833,0.32197813,1.7364985,2.0799174,0.42231617,0.61789119,0.3972722,0.45383482,1.6017658,1.1281816,2.0974343,2.3288443,1.3866087,-0.016311888
-1.3474502,1.1460171,1.5752887,1.6752602,-0.42526317,1.2959754,0.79701783,-1.8432049,0.50087177,1.825056,0.7764969,1.978264,-61.535365,25.119073,-73.742596,58.192725,45.122525,0.98925624,0.4296543,2.449876,1.5651754,0.40234371,2.4407089,0.49513512,0.48593049,1.0337857,1.8363753,2.2099997,1.964685,0.96005732,2.4333136,2.2015224,-0.063635865
-0.28878833,0.095163828,1.9185921,-1.1008277,-0.77236083,1.5631738,0.69338958,0.060639862,1.2981357,-0.59399496,2.2789834,0.5759685,33.602019,-0.86614798,-7.349116,-66.593356,65.461668,0.83891558,0.4041823,1.8419677,1.7011413,1.8321286,0.58480339,2.2905543,1.3465168,1.9074435,1.9029176,2.3360673,1.2829229,1.8358995,0.96207054,0.26957235,0.050406524
-1.4084896,-2.1540628,1.9513285,-2.2489574,-0.15508575,-0.57501696,0.79978378,2.2325945,-1.5379028,-0.078407509,1.6739039,0.34074728,44.147158,-68.714254,-30.462237,-28.813083,-61.49156,1.5452666,1.0459673,1.8216301,1.8863148,2.2936627,1.838594,1.2495539,1.2519919,1.7284117,1.1658017,2.128349,2.1616089,0.91055369,0.67594225,1.8114764,0.029756184
1.7998029,0.46187285,1.3923492,-0.51022725,1.1586357,1.5986493,-1.5436739,1.8861104,-0.3839157,-1.2106337,0.97480324,-1.458352,-44.15233,-18.208925,-37.404886,-13.91761,-63.266141,1.914474,0.81520784,2.4482036,0.45816522,2.3828383,2.1126942,2.3007181,1.1685248,0.64556333,1.9829438,1.8370029,1.5077071,2.0332945,2.0812541,0.38720867,0.0021993399
1.9710857,-0.056639345,-0.034904622,-2.3057411,2.0958385,-0.35021456,-0.28227696,1.1467532,-0.18970218,1.9628285,-2.1773317,1.9990895,-20.265535,47.157444,-24.843382,57.270557,-3.754661,2.0561912,2.1561667,1.6942379,0.55664257,1.4916971,0.702911,0.57515903,2.1977734,1.2273181,1.035186,0.62177426,0.4099704,2.3725499,2.4469015,1.0739052,0.028010257
-0.52474159,2.260186,0.37807688,2.0377816,-0.64744032,-0.62331964,-0.49255885,1.2307883,-1.5279853,1.67082,0.34564713,-1.0842451,-3.1438355,-38.442465,-52.509546,72.067198,-16.60568,2.2499993,1.4875874,1.381068,2.109959,1.3308908,0.28116146,1.9807305,0.63723868,1.570559,0.88590034,0.32706704,1.7657051,2.4556339,1.5889611,1.9186327,-0.064946473
-0.86949479,-0.48067756,-1.7130542,1.39419,2.152573,1.2843067,-2.1106382,1.3686415,1.5876445,1.9953708,-1.8759253,1.9183795,1.2455506,-66.031614,56.668002,69.114481,7.0775229,1.4039091,1.249552,1.2212813,0.82413105,1.6705174,2.3852313,1.8329693,1.2147065,0.57286823,1.9463274,0.67524606,1.3606044,2.4276457,1.4415404,1.4701896,0.029299449
0.2143343,2.0514476,-1.8703101,2.0451991,1.4959893,-2.2149889,0.5544873,-1.8373054,0.69270614,-2.0010267,1.0648544,-0.64480241,41.39672,54.665101,6.3463703,13.445929,-64.270289,0.76375532,1.6856103,1.8029776,1.1448115,0.34762872,0.84589956,0.78396671,1.6285477,1.2505532,2.2982647,0.43553702,2.3206336,0.63892163,0.60579323,1.8168018,0.0048160653
0.76106166,1.7395812,1.4802384,1.6661213,1.4845612,-1.078839,1.2253238,0.87784314,-0.58031436,1.3018141,-0.031826597,2.3027228,-31.471813,-46.761608,-72.345559,-11.806117,24.590541,2.0232457,1.9398979,0.61412583,2.3628062,0.6841397,2.3358947,0.63305356,0.98117881,1.9222616,1.2001163,0.60547001,0.88451697,1.8267456,2.3625519,0.9105312,0.020735155
-2.2560097,-0.87366507,0.11522667,-0.177281,-1.3319852,1.8853212,0.48947948,-1.1496188,-0.84824841,-1.534432,1.7055205,-0.77870105,-42.157808,53.725627,-33.386481,23.408381,-25.341122,0.50146362,1.0990886,1.382295,2.4828098,1.5849241,1.5685955,1.634905,2.3478799,1.8176153,1.9107225,0.76265675,1.2220156,1.9170041,0.58774449,2.2216013,0.00025660607
-0.36186085,1.8988256,1.2631632,0.6723509,-0.10714404,-0.6373403,-0.51832248,1.7612287,-2.2565399,-0.36001238,-0.020647358,1.6966314,19.667813,-43.058807,60.634405,-17.562272,30.895663,0.82622853,0.92297133,2.3791603,1.0477268,2.1449692,2.4969623,0.94583061,1.8251029,1.7546431,1.0359668,2.4935256,1.6849891,0.36168338,0.8126229,1.7530965,0.02776716
1.3994449,0.93682354,1.1016966,1.2389224,-1.4784872,-0.50758212,-1.5085792,-2.0379898,1.8616763,-1.0693958,-0.28409091,-1.0659157,52.767001,54.992665,-38.279482,-13.246651,-36.470205,0.553982,1.7755309,1.0974881,1.482158,2.3794628,1.6312237,1.2264219,1.7221116,1.0299444,0.27627181,0.80025509,0.88723734,0.29796432,0.88630597,0.39450186,-0.00051474513
-0.4863725,1.5323003,0.16501768,-2.1450257,-1.6704702,0.82052058,2.0392838,1.0371004,-0.58075117,-1.3273081,0.38235574,-1.4456817,-15.760915,6.296502,-74.690129,32.998335,53.009569,0.35251753,2.0121994,0.78614928,2.3110026,0.77009616,0.25617116,0.46864164,0.71008689,1.9303741,0.29798517,1.2367317,1.748966,2.3710755,2.4162764,1.6068453,0.010633616
-0.78876274,-0.78518825,-1.9698467,2.0321028,-1.8439165,-2.0352675,0.49075115,1.3737841,-1.5163699,-1.0298237,0.35731242,1.7662455,62.084175,48.727073,-44.086505,38.11372,-72.710318,1.4901865,2.3141476,1.8786937,2.4546581,0.93807056,1.9019111,1.1691882,0.54559791,0.36415115,1.7883024,1.9990677,0.58044653,1.0647758,0.6875752,1.5763447,0.0090894314
-0.00048991773,1.1907306,-0.90642678,0.83863595,0.1989651,-1.7898043,-2.0612894,1.3923302,-0.82994773,-0.2601959,-0.015523538,-1.7227148,-23.840412,-35.798358,-13.002362,19.294371,-19.502116,1.0441065,2.0479692,1.2177354,1.9794186,1.088349,0.88191709,0.88051179,2.0116798,1.0531186,0.51471638,1.0881408,1.8824148,1.995077,1.0089003,2.086505,-0.025952218
-1.0152333,0.5344228,0.23061193,2.3109863,1.2372711,-0.95654832,1.9636583,2.3457659,1.4405983,-0.11836858,-0.79250747,2.2506023,-15.059464,-54.413815,17.014491,62.552902,-23.381896,1.6820468,0.41057943,1.3584489,2.2013781,1.0623617,0.61310599,0.97244709,1.4181587,2.2430725,2.0694309,1.9254016,2.2253865,1.8211266,2.4240805,2.2706151,-0.027735427
0.21695684,-0.99549299,-2.2698523,2.093456,2.0193653,0.84668359,-1.2035746,1.8079715,1.0930933,-1.9852033,-1.5975265,1.5645605,13.934774,51.752765,-41.286859,-8.23989,-37.831597,1.5901822,2.1930122,2.2054297,1.6567636,0.72529148,0.97393677,1.7053518,0.59767222,0.32696659,2.3274105,2.0383979,2.3533638,1.7354868,0.82735131,1.7935177,-0.0047132407
